;FLAVOR:Marlin
;TIME:9944
;Filament used: 3.29914m
;Layer height: 0.3
;MINX:46.821
;MINY:100.162
;MINZ:0.3
;MAXX:164.862
;MAXY:142.432
;MAXZ:6.9
;Generated with Cura_SteamEngine 5.2.1
M140 S60
M105
M190 S60
M104 S200
M105
M109 S200
M82 ;absolute extrusion mode
G21 ;metric values
G90 ;absolute positioning
M82 ;set extruder to absolute mode
M107 ;start with the fan off
G28 X0 Y0 ;move X/Y to min endstops
G28 Z0 ;move Z to min endstops
G1 Z15.0 F20.0 ;move the platform down 15mm
G92 E0 ;zero the extruded length
G1 F200 E3 ;extrude 3mm of feed stock
G92 E0 ;zero the extruded length again
G1 F20.0
G0 Y20 F20.0
M117 Printing...
G5
G92 E0
G92 E0
G1 F2400 E-6
;LAYER_COUNT:23
;LAYER:0
M107
M204 S3000
M205 X10 Y10
G1 F600 Z0.375
G0 X55.186 Y101.853 Z0.375
M204 S1800
M205 X8 Y8
;TYPE:SKIRT
G1 F600 Z0.3
G1 F2400 E0
G1 X56.396 Y101.361 E0.09123
G1 X57.477 Y101.094 E0.16901
G1 X57.97 Y101.008 E0.20396
G1 X58.946 Y100.914 E0.27245
G1 X59.978 Y100.894 E0.34454
G1 X74.788 Y100.894 E1.37896
G1 X75.435 Y100.903 E1.42416
G1 X76.437 Y100.976 E1.49433
G1 X77.501 Y101.192 E1.57016
G1 X80.001 Y101.879 E1.75125
G1 X82.607 Y102.517 E1.93865
G1 X85.167 Y103.068 E2.12155
G1 X87.793 Y103.555 E2.30809
G1 X90.395 Y103.962 E2.49204
G1 X93 Y104.295 E2.67547
G1 X95.662 Y104.559 E2.86231
G1 X98.297 Y104.745 E3.04682
G1 X100.937 Y104.856 E3.23137
G1 X103.574 Y104.893 E3.41558
G1 X112.205 Y104.893 E4.01842
G1 X114.867 Y104.855 E4.20437
G1 X117.507 Y104.743 E4.38893
G1 X120.153 Y104.556 E4.5742
G1 X122.808 Y104.292 E4.76056
G1 X125.419 Y103.958 E4.94442
G1 X128.031 Y103.548 E5.12909
G1 X130.596 Y103.071 E5.31132
G1 X134.44 Y102.22 E5.58631
G1 X141.701 Y100.452 E6.10828
G1 X142.265 Y100.323 E6.14869
G1 X142.97 Y100.203 E6.19864
G1 X143.734 Y100.162 E6.25208
G1 X144.564 Y100.167 E6.31005
G1 X145.504 Y100.235 E6.37588
G1 X146.768 Y100.37 E6.46466
G1 X147.97 Y100.581 E6.5499
G1 X149.187 Y100.876 E6.63737
G1 X150.145 Y101.145 E6.70687
G1 X151.327 Y101.579 E6.79482
G1 X152.051 Y101.872 E6.84937
G1 X152.855 Y102.236 E6.91101
G1 X153.577 Y102.595 E6.96733
G1 X154.229 Y102.945 E7.01902
G1 X155.14 Y103.502 E7.0936
G1 X155.922 Y104.028 E7.15943
G1 X156.388 Y104.372 E7.19988
G1 X157.342 Y105.12 E7.28455
G1 X158.003 Y105.713 E7.34658
G1 X158.819 Y106.49 E7.42528
G1 X159.424 Y107.148 E7.48771
G1 X160.28 Y108.143 E7.57939
G1 X160.743 Y108.763 E7.63344
G1 X161.252 Y109.496 E7.69577
G1 X161.822 Y110.378 E7.76912
G1 X162.092 Y110.837 E7.80631
G1 X162.724 Y112.03 E7.90061
G1 X163.131 Y112.935 E7.96992
G1 X163.613 Y114.124 E8.05953
G1 X163.93 Y115.088 E8.13041
G1 X164.119 Y115.758 E8.17903
G1 X164.458 Y117.17 E8.28046
G1 X164.625 Y118.207 E8.35382
G1 X164.779 Y119.448 E8.44116
G1 X164.825 Y120.029 E8.48187
G1 X164.847 Y120.585 E8.52074
G1 X164.862 Y121.668 E8.59639
G1 X164.794 Y123.066 E8.69415
G1 X164.677 Y124.09 E8.76613
G1 X164.604 Y124.597 E8.80191
G1 X164.446 Y125.481 E8.86463
G1 X164.094 Y126.923 E8.96831
G1 X163.954 Y127.413 E9.0039
G1 X163.534 Y128.684 E9.0974
G1 X163.225 Y129.443 E9.15464
G1 X162.824 Y130.337 E9.22308
G1 X162.524 Y130.954 E9.27099
G1 X162.22 Y131.54 E9.3171
G1 X161.639 Y132.519 E9.39662
G1 X161.247 Y133.116 E9.4465
G1 X160.739 Y133.828 E9.50759
G1 X159.986 Y134.806 E9.5938
G1 X158.827 Y136.095 E9.71488
G1 X158.25 Y136.647 E9.77065
G1 X157.492 Y137.328 E9.84182
G1 X156.96 Y137.771 E9.89018
G1 X156.381 Y138.224 E9.94153
G1 X155.647 Y138.754 E10.00476
G1 X154.813 Y139.303 E10.0745
G1 X153.614 Y139.968 E10.17027
G1 X152.941 Y140.313 E10.22309
G1 X151.721 Y140.87 E10.31676
G1 X150.084 Y141.462 E10.43835
G1 X149.275 Y141.686 E10.49698
G1 X148.068 Y141.979 E10.58373
G1 X147.522 Y142.087 E10.62261
G1 X146.465 Y142.248 E10.69729
G1 X145.769 Y142.331 E10.74624
G1 X144.996 Y142.391 E10.8004
G1 X143.952 Y142.432 E10.87337
G1 X143.237 Y142.417 E10.92332
G1 X142.314 Y142.277 E10.98853
G1 X141.48 Y142.087 E11.04827
G1 X134.412 Y140.366 E11.55637
G1 X131.8 Y139.769 E11.74351
G1 X129.173 Y139.246 E11.9306
G1 X126.605 Y138.81 E12.11253
G1 X123.942 Y138.435 E12.30037
G1 X121.344 Y138.144 E12.48296
G1 X118.666 Y137.92 E12.67067
G1 X116.087 Y137.778 E12.85107
G1 X112.136 Y137.697 E13.12709
G1 X103.63 Y137.697 E13.72121
G1 X100.968 Y137.735 E13.90716
G1 X98.328 Y137.847 E14.09172
G1 X95.682 Y138.034 E14.27699
G1 X93.027 Y138.298 E14.46335
G1 X90.416 Y138.632 E14.6472
G1 X87.804 Y139.042 E14.83187
G1 X85.217 Y139.523 E15.01566
G1 X82.62 Y140.08 E15.20118
G1 X80.022 Y140.718 E15.38803
G1 X77.692 Y141.354 E15.55673
G1 X77.136 Y141.48 E15.59655
G1 X76.561 Y141.583 E15.63735
G1 X75.536 Y141.682 E15.70927
G1 X74.625 Y141.696 E15.77291
G1 X59.771 Y141.692 E16.81041
G1 X59.034 Y141.682 E16.86189
G1 X57.932 Y141.594 E16.9391
G1 X56.739 Y141.319 E17.02461
G1 X55.946 Y141.054 E17.08301
G1 X54.999 Y140.634 E17.15537
G1 X54.299 Y140.235 E17.21165
G1 X53.56 Y139.711 E17.27492
G1 X52.625 Y138.961 E17.35864
G1 X50.611 Y137.281 E17.54183
G1 X50.135 Y136.872 E17.58566
G1 X49.721 Y136.483 E17.62534
G1 X49.311 Y136.062 E17.66639
G1 X48.763 Y135.434 E17.7246
G1 X48.243 Y134.658 E17.78985
G1 X47.878 Y134.042 E17.83986
G1 X47.581 Y133.381 E17.89047
G1 X47.385 Y132.869 E17.92877
G1 X47.134 Y132.086 E17.9862
G1 X46.951 Y131.136 E18.05377
G1 X46.841 Y130.32 E18.11128
G1 X46.821 Y129.058 E18.19944
G1 X46.822 Y113.295 E19.30043
G1 X46.832 Y112.597 E19.34918
G1 X46.91 Y111.562 E19.42168
G1 X47.207 Y110.201 E19.51898
G1 X47.594 Y109.13 E19.59852
G1 X48.022 Y108.304 E19.66349
G1 X48.613 Y107.343 E19.74229
G1 X49.47 Y106.328 E19.83508
G1 X50.08 Y105.758 E19.89339
G1 X50.547 Y105.357 E19.93638
G1 X53.041 Y103.278 E20.16317
G1 X53.562 Y102.855 E20.21004
G1 X54.254 Y102.355 E20.26967
G1 X55.186 Y101.853 E20.34361
M204 S3000
M205 X10 Y10
G0 F600 X55.55 Y102.308
M204 S1800
M205 X8 Y8
G1 F2400 X56.568 Y101.894 E20.42037
G1 X57.573 Y101.646 E20.49267
G1 X58.066 Y101.56 E20.52762
G1 X58.957 Y101.474 E20.59015
G1 X59.989 Y101.454 E20.66224
G1 X74.78 Y101.454 E21.69534
G1 X75.427 Y101.463 E21.74053
G1 X76.363 Y101.531 E21.80608
G1 X77.352 Y101.732 E21.87657
G1 X79.863 Y102.422 E22.05846
G1 X82.492 Y103.065 E22.24749
G1 X85.05 Y103.616 E22.43026
G1 X87.679 Y104.104 E22.61702
G1 X90.307 Y104.515 E22.80281
G1 X92.943 Y104.852 E22.98842
G1 X95.602 Y105.116 E23.17506
G1 X98.27 Y105.304 E23.36187
G1 X100.942 Y105.416 E23.54866
G1 X103.566 Y105.453 E23.73196
G1 X112.213 Y105.453 E24.33592
G1 X114.864 Y105.416 E24.5211
G1 X117.571 Y105.301 E24.71034
G1 X120.175 Y105.116 E24.89268
G1 X122.865 Y104.849 E25.08149
G1 X125.507 Y104.511 E25.26753
G1 X128.111 Y104.102 E25.45164
G1 X130.732 Y103.615 E25.63784
G1 X134.547 Y102.77 E25.91076
G1 X141.826 Y100.998 E26.43402
G1 X142.39 Y100.869 E26.47443
G1 X143.064 Y100.756 E26.52216
G1 X143.73 Y100.722 E26.56874
G1 X144.547 Y100.727 E26.62581
G1 X145.686 Y100.814 E26.70559
G1 X146.685 Y100.924 E26.77579
G1 X147.877 Y101.133 E26.86032
G1 X149.298 Y101.484 E26.96255
G1 X149.977 Y101.68 E27.01192
G1 X151.134 Y102.105 E27.09801
G1 X151.838 Y102.39 E27.15106
G1 X152.621 Y102.745 E27.2111
G1 X153.326 Y103.096 E27.26611
G1 X154.054 Y103.495 E27.32409
G1 X154.831 Y103.969 E27.38767
G1 X155.593 Y104.481 E27.45179
G1 X156.042 Y104.812 E27.49075
G1 X156.982 Y105.55 E27.57422
G1 X157.617 Y106.118 E27.63373
G1 X158.409 Y106.872 E27.71011
G1 X158.999 Y107.513 E27.77096
G1 X159.839 Y108.49 E27.86095
G1 X160.284 Y109.084 E27.91279
G1 X160.782 Y109.8 E27.97371
G1 X161.485 Y110.888 E28.06418
G1 X162.22 Y112.275 E28.17382
G1 X162.619 Y113.162 E28.24176
G1 X163.088 Y114.322 E28.32915
G1 X163.393 Y115.246 E28.39711
G1 X163.574 Y115.889 E28.44377
G1 X163.911 Y117.29 E28.54441
G1 X164.07 Y118.277 E28.61424
G1 X164.2 Y119.305 E28.68661
G1 X164.266 Y120.055 E28.7392
G1 X164.287 Y120.593 E28.77681
G1 X164.302 Y121.666 E28.85176
G1 X164.237 Y123.008 E28.9456
G1 X164.147 Y123.821 E29.00274
G1 X164.049 Y124.517 E29.05183
G1 X163.897 Y125.37 E29.11235
G1 X163.494 Y127.019 E29.23091
G1 X163.01 Y128.484 E29.33868
G1 X162.713 Y129.216 E29.39385
G1 X162.32 Y130.092 E29.46091
G1 X161.936 Y130.876 E29.52189
G1 X161.659 Y131.388 E29.56255
G1 X161.168 Y132.215 E29.62972
G1 X160.788 Y132.794 E29.6781
G1 X160.295 Y133.486 E29.73744
G1 X159.547 Y134.458 E29.82311
G1 X158.434 Y135.696 E29.93938
G1 X157.875 Y136.232 E29.99348
G1 X157.131 Y136.9 E30.06332
G1 X156.615 Y137.33 E30.11023
G1 X156.036 Y137.783 E30.16158
G1 X155.339 Y138.286 E30.22161
G1 X154.525 Y138.822 E30.28969
G1 X153.342 Y139.478 E30.38417
G1 X152.689 Y139.813 E30.43543
G1 X151.505 Y140.353 E30.52632
G1 X149.926 Y140.923 E30.64358
G1 X149.143 Y141.142 E30.70037
G1 X147.936 Y141.435 E30.78712
G1 X147.437 Y141.533 E30.82264
G1 X146.147 Y141.725 E30.91373
G1 X145.482 Y141.795 E30.96044
G1 X144.956 Y141.833 E30.99727
G1 X143.933 Y141.872 E31.06878
G1 X143.25 Y141.856 E31.11649
G1 X142.438 Y141.731 E31.17388
G1 X141.612 Y141.543 E31.23305
G1 X134.533 Y139.819 E31.74194
G1 X131.924 Y139.223 E31.92886
G1 X129.266 Y138.694 E32.11815
G1 X126.673 Y138.253 E32.30187
G1 X124.047 Y137.884 E32.48708
G1 X121.38 Y137.585 E32.67453
G1 X118.709 Y137.361 E32.86175
G1 X116.101 Y137.218 E33.04418
G1 X112.147 Y137.137 E33.32041
G1 X103.622 Y137.137 E33.91585
G1 X100.971 Y137.174 E34.10103
G1 X98.264 Y137.289 E34.29027
G1 X95.66 Y137.474 E34.47261
G1 X92.97 Y137.741 E34.66142
G1 X90.328 Y138.079 E34.84746
G1 X87.724 Y138.488 E35.03157
G1 X85.073 Y138.981 E35.21991
G1 X82.505 Y139.532 E35.40335
G1 X79.896 Y140.173 E35.591
G1 X77.545 Y140.814 E35.7612
G1 X77.038 Y140.929 E35.79752
G1 X76.463 Y141.032 E35.83832
G1 X75.527 Y141.122 E35.90399
G1 X74.625 Y141.136 E35.967
G1 X59.779 Y141.132 E37.00394
G1 X59.042 Y141.122 E37.05542
G1 X58.015 Y141.04 E37.12738
G1 X56.907 Y140.785 E37.2068
G1 X56.131 Y140.526 E37.26394
G1 X55.268 Y140.142 E37.32991
G1 X54.6 Y139.762 E37.38359
G1 X53.91 Y139.274 E37.44262
G1 X53.074 Y138.605 E37.51741
G1 X50.976 Y136.856 E37.70818
G1 X50.5 Y136.447 E37.75202
G1 X50.122 Y136.092 E37.78824
G1 X49.712 Y135.671 E37.82928
G1 X49.201 Y135.081 E37.8838
G1 X48.708 Y134.346 E37.94562
G1 X48.361 Y133.757 E37.99336
G1 X48.104 Y133.181 E38.03742
G1 X47.908 Y132.669 E38.07571
G1 X47.628 Y131.688 E38.14697
G1 X47.501 Y131.03 E38.19377
G1 X47.396 Y130.018 E38.26484
G1 X47.381 Y129.058 E38.3319
G1 X47.382 Y113.303 E39.43233
G1 X47.392 Y112.605 E39.48108
G1 X47.465 Y111.639 E39.54875
G1 X47.744 Y110.358 E39.64032
G1 X48.11 Y109.352 E39.71509
G1 X48.52 Y108.561 E39.77732
G1 X49.068 Y107.67 E39.85038
G1 X49.763 Y106.846 E39.92567
G1 X50.444 Y106.183 E39.99206
G1 X50.911 Y105.782 E40.03505
G1 X53.394 Y103.713 E40.2608
G1 X53.915 Y103.29 E40.30767
G1 X54.75 Y102.724 E40.37813
G1 X55.55 Y102.308 E40.44111
M204 S3000
M205 X10 Y10
G0 F600 X55.8 Y102.809
M204 S1800
M205 X8 Y8
G1 F2400 X56.74 Y102.426 E40.512
G1 X57.67 Y102.198 E40.57888
G1 X58.163 Y102.112 E40.61384
G1 X58.968 Y102.034 E40.67033
G1 X60.102 Y102.013 E40.74955
G1 X74.772 Y102.014 E41.77419
G1 X75.419 Y102.023 E41.81939
G1 X76.288 Y102.086 E41.88024
G1 X77.204 Y102.272 E41.94553
G1 X79.726 Y102.965 E42.12821
G1 X82.351 Y103.607 E42.31696
G1 X84.967 Y104.171 E42.50387
G1 X87.56 Y104.652 E42.68808
G1 X90.259 Y105.074 E42.87888
G1 X92.887 Y105.41 E43.06393
G1 X95.545 Y105.674 E43.2505
G1 X98.241 Y105.864 E43.43927
G1 X100.909 Y105.976 E43.62578
G1 X103.559 Y106.013 E43.81089
G1 X112.221 Y106.013 E44.4159
G1 X114.896 Y105.975 E44.60276
G1 X117.565 Y105.862 E44.78935
G1 X120.268 Y105.67 E44.97862
G1 X122.921 Y105.407 E45.16483
G1 X125.562 Y105.069 E45.3508
G1 X128.225 Y104.651 E45.53907
G1 X130.84 Y104.165 E45.72485
G1 X134.664 Y103.318 E45.99842
G1 X141.951 Y101.544 E46.52225
G1 X142.515 Y101.415 E46.56266
G1 X143.156 Y101.309 E46.60804
G1 X143.726 Y101.282 E46.6479
G1 X144.517 Y101.287 E46.70315
G1 X145.625 Y101.371 E46.78076
G1 X146.619 Y101.481 E46.85061
G1 X147.755 Y101.68 E46.93116
G1 X149.143 Y102.022 E47.03101
G1 X149.797 Y102.211 E47.07856
G1 X150.941 Y102.631 E47.16368
G1 X151.625 Y102.908 E47.21522
G1 X152.386 Y103.253 E47.27358
G1 X153.074 Y103.596 E47.32728
G1 X153.765 Y103.974 E47.38229
G1 X154.331 Y104.315 E47.42844
G1 X155.073 Y104.801 E47.4904
G1 X155.696 Y105.253 E47.54416
G1 X156.633 Y105.989 E47.62738
G1 X157.231 Y106.524 E47.68342
G1 X157.892 Y107.153 E47.74715
G1 X158.437 Y107.725 E47.80234
G1 X159.403 Y108.842 E47.90548
G1 X159.826 Y109.406 E47.95473
G1 X160.312 Y110.104 E48.01413
G1 X160.998 Y111.165 E48.10238
G1 X161.519 Y112.141 E48.17965
G1 X161.823 Y112.758 E48.2277
G1 X162.185 Y113.573 E48.28998
G1 X162.565 Y114.523 E48.36145
G1 X162.856 Y115.405 E48.42632
G1 X163.03 Y116.02 E48.47096
G1 X163.357 Y117.383 E48.56886
G1 X163.514 Y118.348 E48.63715
G1 X163.664 Y119.552 E48.7219
G1 X163.707 Y120.08 E48.7589
G1 X163.728 Y120.601 E48.79532
G1 X163.742 Y121.64 E48.86789
G1 X163.698 Y122.617 E48.9362
G1 X163.652 Y123.199 E48.97698
G1 X163.59 Y123.759 E49.01633
G1 X163.461 Y124.647 E49.07901
G1 X163.31 Y125.413 E49.13354
G1 X162.956 Y126.86 E49.23759
G1 X162.481 Y128.299 E49.34343
G1 X162.202 Y128.988 E49.39535
G1 X161.893 Y129.683 E49.44847
G1 X161.385 Y130.735 E49.53007
G1 X160.823 Y131.708 E49.60855
G1 X160.33 Y132.472 E49.67206
G1 X159.852 Y133.145 E49.72972
G1 X159.131 Y134.082 E49.8123
G1 X158.016 Y135.321 E49.92872
G1 X157.499 Y135.817 E49.97876
G1 X156.912 Y136.348 E50.03405
G1 X156.27 Y136.888 E50.09264
G1 X155.691 Y137.341 E50.14399
G1 X155.23 Y137.68 E50.18396
G1 X154.243 Y138.338 E50.26681
G1 X153.071 Y138.988 E50.36042
G1 X152.436 Y139.313 E50.41024
G1 X151.303 Y139.83 E50.49723
G1 X149.748 Y140.392 E50.61271
G1 X149.011 Y140.598 E50.66616
G1 X147.579 Y140.946 E50.76909
G1 X146.296 Y141.141 E50.85974
G1 X145.645 Y141.218 E50.90552
G1 X144.719 Y141.285 E50.97037
G1 X143.914 Y141.313 E51.02663
G1 X143.264 Y141.295 E51.07205
G1 X142.562 Y141.185 E51.12168
G1 X141.745 Y140.999 E51.1802
G1 X134.655 Y139.272 E51.68989
G1 X132.014 Y138.669 E51.8791
G1 X129.401 Y138.149 E52.06519
G1 X126.776 Y137.703 E52.25116
G1 X124.079 Y137.323 E52.4414
G1 X121.455 Y137.029 E52.62582
G1 X118.751 Y136.803 E52.81535
G1 X116.115 Y136.658 E52.99974
G1 X112.159 Y136.577 E53.27611
G1 X103.614 Y136.577 E53.87295
G1 X100.939 Y136.615 E54.0598
G1 X98.27 Y136.728 E54.24639
G1 X95.567 Y136.92 E54.43566
G1 X92.914 Y137.183 E54.62187
G1 X90.273 Y137.521 E54.80784
G1 X87.61 Y137.939 E54.99612
G1 X84.991 Y138.426 E55.18218
G1 X82.357 Y138.991 E55.37034
G1 X79.769 Y139.627 E55.55648
G1 X77.173 Y140.335 E55.74442
G1 X76.364 Y140.48 E55.80183
G1 X75.518 Y140.562 E55.8612
G1 X74.625 Y140.576 E55.92358
G1 X59.786 Y140.573 E56.96003
G1 X59.049 Y140.563 E57.01151
G1 X58.094 Y140.485 E57.07843
G1 X57.076 Y140.251 E57.15139
G1 X56.316 Y139.997 E57.20736
G1 X55.536 Y139.65 E57.26699
G1 X54.898 Y139.287 E57.31826
G1 X54.26 Y138.837 E57.37279
G1 X53.342 Y138.101 E57.45497
G1 X51.341 Y136.432 E57.63697
G1 X50.685 Y135.868 E57.69739
G1 X50.113 Y135.281 E57.75464
G1 X49.511 Y134.538 E57.82143
G1 X49.173 Y134.034 E57.86382
G1 X48.845 Y133.473 E57.90921
G1 X48.627 Y132.981 E57.94679
G1 X48.431 Y132.469 E57.98509
G1 X48.178 Y131.582 E58.04951
G1 X48.051 Y130.924 E58.09632
G1 X47.956 Y130.008 E58.16064
G1 X47.941 Y129.058 E58.227
G1 X47.942 Y113.311 E59.32687
G1 X47.952 Y112.613 E59.37563
G1 X48.02 Y111.716 E59.43846
G1 X48.281 Y110.511 E59.52458
G1 X48.63 Y109.567 E59.59487
G1 X49.017 Y108.819 E59.6537
G1 X49.522 Y107.998 E59.72102
G1 X50.162 Y107.239 E59.79037
G1 X50.809 Y106.608 E59.85349
G1 X51.276 Y106.207 E59.89648
G1 X53.747 Y104.148 E60.12114
G1 X54.268 Y103.725 E60.16801
G1 X55.023 Y103.213 E60.23173
G1 X55.8 Y102.809 E60.2929
M204 S3000
M205 X10 Y10
G1 F2400 E54.2929
;MESH:Peon230_Arm_v1.stl
G0 F600 X57.821 Y106.948
G0 X58.318 Y107.91
G0 X58.421 Y112.997
M204 S1800
M205 X8 Y8
;TYPE:WALL-INNER
G1 F2400 E60.2929
G1 F300 X58.929 Y112.505 E60.34229
G1 X59.267 Y112.284 E60.3705
G1 X59.59 Y112.145 E60.39506
G1 X60.159 Y111.988 E60.43629
G1 X60.821 Y111.986 E60.48252
G1 X61.182 Y112.051 E60.50814
G1 X61.575 Y112.187 E60.53719
G1 X61.98 Y112.411 E60.56952
G1 X62.265 Y112.63 E60.59462
G1 F297.3 X64.239 Y114.604 E60.79135
G1 F267.9 X64.567 Y114.844 E60.82313
G1 F257.3 X64.241 Y114.078 E60.89094
