;FLAVOR:Marlin
;TIME:3998
;Filament used: 1.12752m
;Layer height: 0.3
;MINX:72.1
;MINY:97.637
;MINZ:0.3
;MAXX:137.9
;MAXY:130.177
;MAXZ:3
;Generated with Cura_SteamEngine 5.2.1
M140 S60
M105
M190 S60
M104 S200
M105
M109 S200
M82 ;absolute extrusion mode
G21 ;metric values
G90 ;absolute positioning
M82 ;set extruder to absolute mode
M107 ;start with the fan off
G28 X0 Y0 ;move X/Y to min endstops
G28 Z0 ;move Z to min endstops
G1 Z15.0 F20.0 ;move the platform down 15mm
G92 E0 ;zero the extruded length
G1 F200 E3 ;extrude 3mm of feed stock
G92 E0 ;zero the extruded length again
G1 F20.0
G0 Y20 F20.0
M117 Printing...
G5
G92 E0
G92 E0
G1 F2400 E-6
;LAYER_COUNT:10
;LAYER:0
M107
M204 S3000
M205 X10 Y10
G1 F600 Z0.375
G0 X74.577 Y104.401 Z0.375
M204 S1800
M205 X8 Y8
;TYPE:SKIRT
G1 F600 Z0.3
G1 F2400 E0
G1 X75.165 Y103.994 E0.04995
G1 X75.795 Y103.654 E0.09995
G1 X76.511 Y103.37 E0.15375
G1 X77.196 Y103.146 E0.20409
G1 X93.339 Y98.124 E1.38492
G1 X94.062 Y97.91 E1.43758
G1 X94.758 Y97.745 E1.48754
G1 X95.73 Y97.649 E1.55576
G1 X96.314 Y97.637 E1.59656
G1 X113.418 Y97.637 E2.79121
G1 X114.211 Y97.648 E2.84661
G1 X114.925 Y97.698 E2.8966
G1 X115.907 Y97.891 E2.9665
G1 X132.832 Y103.154 E4.20449
G1 X133.469 Y103.361 E4.25127
G1 X134.136 Y103.62 E4.30124
G1 X134.77 Y103.952 E4.35123
G1 X135.362 Y104.352 E4.40113
G1 X135.907 Y104.816 E4.45113
G1 X136.396 Y105.337 E4.50104
G1 X136.824 Y105.91 E4.55099
G1 X137.186 Y106.527 E4.60095
G1 X137.476 Y107.181 E4.65092
G1 X137.692 Y107.863 E4.70089
G1 X137.83 Y108.565 E4.75086
G1 X137.89 Y109.356 E4.80627
G1 X137.9 Y110.071 E4.85621
G1 X137.899 Y122.294 E5.70994
G1 X137.889 Y123.019 E5.76059
G1 X137.84 Y123.733 E5.81057
G1 X137.71 Y124.436 E5.86051
G1 X137.504 Y125.121 E5.91047
G1 X137.222 Y125.778 E5.96041
G1 X136.868 Y126.4 E6.0104
G1 X136.447 Y126.979 E6.0604
G1 X135.965 Y127.507 E6.11033
G1 X135.426 Y127.977 E6.16028
G1 X134.839 Y128.385 E6.21021
G1 X134.209 Y128.725 E6.26021
G1 X133.546 Y128.992 E6.31014
G1 X132.857 Y129.183 E6.36008
G1 X131.853 Y129.321 E6.43086
G1 X131.114 Y129.363 E6.48256
G1 X112.654 Y130.134 E7.77305
G1 X110.607 Y130.177 E7.91605
G1 X99.393 Y130.177 E8.69931
G1 X97.346 Y130.134 E8.84232
G1 X78.846 Y129.361 E10.1356
G1 X78.158 Y129.323 E10.18373
G1 X77.447 Y129.244 E10.23369
G1 X76.75 Y129.086 E10.28361
G1 X76.074 Y128.851 E10.3336
G1 X75.429 Y128.542 E10.38355
G1 X74.822 Y128.163 E10.43354
G1 X74.262 Y127.719 E10.48345
G1 X73.754 Y127.215 E10.53343
G1 X73.306 Y126.657 E10.58342
G1 X72.923 Y126.053 E10.63337
G1 X72.61 Y125.41 E10.68332
G1 X72.37 Y124.736 E10.73329
G1 X72.207 Y124.04 E10.78322
G1 X72.112 Y123.022 E10.85463
G1 X72.1 Y122.14 E10.91624
G1 X72.101 Y110.047 E11.76089
G1 X72.111 Y109.357 E11.80909
G1 X72.161 Y108.644 E11.85901
G1 X72.291 Y107.94 E11.90902
G1 X72.498 Y107.256 E11.95893
G1 X72.78 Y106.599 E12.00887
G1 X73.134 Y105.977 E12.05886
G1 X73.555 Y105.399 E12.1088
G1 X74.038 Y104.871 E12.15878
G1 X74.577 Y104.401 E12.20873
M204 S3000
M205 X10 Y10
G0 F600 X75.118 Y104.696
M204 S1800
M205 X8 Y8
G1 F2400 X75.696 Y104.333 E12.25641
G1 X76.41 Y103.993 E12.31164
G1 X77.273 Y103.709 E12.3751
G1 X93.585 Y98.635 E13.56828
G1 X94.221 Y98.447 E13.6146
G1 X94.886 Y98.292 E13.66229
G1 X95.743 Y98.209 E13.72243
G1 X96.314 Y98.197 E13.76232
G1 X113.418 Y98.197 E14.95697
G1 X114.203 Y98.208 E15.01181
G1 X114.885 Y98.257 E15.05957
G1 X115.773 Y98.435 E15.12282
G1 X132.659 Y103.687 E16.35798
G1 X133.296 Y103.894 E16.40476
G1 X133.932 Y104.143 E16.45247
G1 X134.535 Y104.464 E16.50018
G1 X135.096 Y104.854 E16.5479
G1 X135.608 Y105.306 E16.59561
G1 X136.064 Y105.815 E16.64334
G1 X136.457 Y106.374 E16.69106
G1 X136.782 Y106.975 E16.73879
G1 X137.034 Y107.61 E16.7865
G1 X137.211 Y108.27 E16.83423
G1 X137.326 Y109.061 E16.89006
G1 X137.34 Y110.071 E16.96061
G1 X137.339 Y122.287 E17.81385
G1 X137.329 Y123.012 E17.8645
G1 X137.28 Y123.693 E17.91219
G1 X137.151 Y124.364 E17.95991
G1 X136.945 Y125.015 E18.0076
G1 X136.665 Y125.638 E18.05531
G1 X136.313 Y126.224 E18.10306
G1 X135.895 Y126.765 E18.15081
G1 X135.417 Y127.253 E18.19852
G1 X134.886 Y127.682 E18.2462
G1 X134.308 Y128.046 E18.29391
G1 X133.691 Y128.34 E18.34165
G1 X133.044 Y128.56 E18.38938
G1 X132.376 Y128.703 E18.43709
G1 X131.821 Y128.762 E18.47608
G1 X130.995 Y128.808 E18.53386
G1 X112.643 Y129.574 E19.8168
G1 X110.596 Y129.617 E19.9598
G1 X99.404 Y129.617 E20.74152
G1 X97.236 Y129.57 E20.89298
G1 X78.877 Y128.802 E22.17641
G1 X78.189 Y128.764 E22.22454
G1 X77.51 Y128.687 E22.27227
G1 X76.845 Y128.53 E22.32
G1 X76.203 Y128.297 E22.3677
G1 X75.592 Y127.991 E22.41543
G1 X75.021 Y127.616 E22.46314
G1 X74.498 Y127.176 E22.51088
G1 X74.03 Y126.678 E22.55861
G1 X73.623 Y126.129 E22.60635
G1 X73.284 Y125.537 E22.65399
G1 X73.015 Y124.908 E22.70178
G1 X72.822 Y124.253 E22.74947
G1 X72.707 Y123.579 E22.79723
G1 X72.672 Y123.014 E22.83677
G1 X72.66 Y122.14 E22.89782
G1 X72.661 Y110.055 E23.74191
G1 X72.671 Y109.365 E23.79011
G1 X72.72 Y108.684 E23.8378
G1 X72.85 Y108.013 E23.88554
G1 X73.056 Y107.362 E23.93323
G1 X73.337 Y106.739 E23.98096
G1 X73.689 Y106.154 E24.02865
G1 X74.107 Y105.613 E24.0764
G1 X74.586 Y105.125 E24.12416
G1 X75.118 Y104.696 E24.1719
M204 S3000
M205 X10 Y10
G0 F600 X75.654 Y105.009
M204 S1800
M205 X8 Y8
G1 F2400 X76.221 Y104.692 E24.21727
G1 X76.861 Y104.434 E24.26547
G1 X77.529 Y104.215 E24.31457
G1 X93.672 Y99.193 E25.4954
G1 X94.379 Y98.984 E25.54689
G1 X95.012 Y98.838 E25.59226
G1 X95.861 Y98.758 E25.65183
G1 X113.418 Y98.757 E26.87812
G1 X114.195 Y98.768 E26.93239
G1 X114.843 Y98.817 E26.97778
G1 X115.628 Y98.977 E27.03374
G1 X132.486 Y104.219 E28.26682
G1 X133.123 Y104.426 E28.3136
G1 X133.727 Y104.665 E28.35897
G1 X134.298 Y104.976 E28.40439
G1 X134.825 Y105.354 E28.44968
G1 X135.303 Y105.795 E28.49511
G1 X135.723 Y106.29 E28.54045
G1 X136.078 Y106.834 E28.58582
G1 X136.365 Y107.417 E28.63121
G1 X136.577 Y108.031 E28.67658
G1 X136.713 Y108.666 E28.72194
G1 X136.77 Y109.372 E28.77141
G1 X136.78 Y110.071 E28.82024
G1 X136.779 Y122.279 E29.67292
G1 X136.769 Y123.004 E29.72356
G1 X136.721 Y123.652 E29.76895
G1 X136.593 Y124.288 E29.81426
G1 X136.387 Y124.905 E29.8597
G1 X136.108 Y125.491 E29.90503
G1 X135.758 Y126.039 E29.95044
G1 X135.344 Y126.54 E29.99584
G1 X134.872 Y126.986 E30.0412
G1 X134.349 Y127.37 E30.08651
G1 X133.782 Y127.688 E30.13192
G1 X133.18 Y127.933 E30.17732
G1 X132.553 Y128.103 E30.22269
G1 X131.79 Y128.202 E30.27643
G1 X130.971 Y128.248 E30.33373
G1 X112.631 Y129.014 E31.61582
G1 X110.584 Y129.057 E31.75883
G1 X99.416 Y129.057 E32.53887
G1 X97.369 Y129.014 E32.68188
G1 X78.908 Y128.243 E33.97244
G1 X78.22 Y128.205 E34.02056
G1 X77.575 Y128.129 E34.06593
G1 X76.944 Y127.975 E34.11129
G1 X76.336 Y127.744 E34.15672
G1 X75.762 Y127.441 E34.20206
G1 X75.229 Y127.069 E34.24745
G1 X74.746 Y126.635 E34.29281
G1 X74.32 Y126.145 E34.33816
G1 X73.957 Y125.606 E34.38355
G1 X73.664 Y125.026 E34.42893
G1 X73.443 Y124.415 E34.47432
G1 X73.3 Y123.781 E34.51971
G1 X73.232 Y123.006 E34.57405
G1 X73.22 Y122.14 E34.63454
G1 X73.221 Y110.063 E35.47808
G1 X73.231 Y109.373 E35.52628
G1 X73.28 Y108.726 E35.5716
G1 X73.408 Y108.089 E35.61698
G1 X73.614 Y107.473 E35.66234
G1 X73.894 Y106.887 E35.70771
G1 X74.244 Y106.339 E35.75312
G1 X74.658 Y105.839 E35.79846
G1 X75.131 Y105.393 E35.84387
G1 X75.654 Y105.009 E35.88919
M204 S3000
M205 X10 Y10
G1 F2400 E29.88919
;MESH:Peon230_ArmSupport_v1.stl(1)
G0 F600 X78.595 Y108.717
G0 X78.916 Y109.748
G0 X79.9 Y110.475
M204 S1800
M205 X8 Y8
;TYPE:WALL-INNER
G1 F2400 E35.88919
G1 F300 X79.901 Y121.597 E36.66602
G1 X98.53 Y122.378 E37.96833
G1 X111.471 Y122.377 E38.87221
G1 X130.1 Y121.598 E40.17451
G1 X130.1 Y111.681 E40.86718
G1 X130.1 Y110.475 E40.95141
G1 X113.909 Y105.437 E42.13578
G1 X96.091 Y105.438 E43.3803
G1 X79.9 Y110.475 E44.56464
M204 S3000
M205 X10 Y10
G0 F600 X81.674 Y113.763
M204 S1800
M205 X8 Y8
G1 F300 X82.158 Y113.255 E44.61365
G1 X82.602 Y112.95 E44.65127
G1 X83.114 Y112.721 E44.69045
G1 X83.721 Y112.595 E44.73375
G1 X84.054 Y112.571 E44.75707
G1 X84.647 Y112.627 E44.79867
G1 X85.291 Y112.841 E44.84607
G1 X85.989 Y113.234 E44.90202
G1 X86.577 Y113.932 E44.96577
G1 X86.909 Y114.635 E45.02007
G1 X86.966 Y114.798 E45.03213
G1 X87.07 Y115.439 E45.07749
G1 X86.996 Y116.245 E45.13402
G1 X86.782 Y116.829 E45.17746
G1 X86.641 Y117.1 E45.1988
G1 X86.295 Y117.572 E45.23967
G1 X86.069 Y117.798 E45.262
G1 X85.6 Y118.143 E45.30266
G1 X85.263 Y118.308 E45.32887
G1 X84.526 Y118.551 E45.38307
G1 X83.771 Y118.551 E45.43581
G1 X83.388 Y118.481 E45.463
G1 X82.712 Y118.257 E45.51274
G1 X82.27 Y117.967 E45.54967
G1 X81.995 Y117.724 E45.5753
G1 X81.635 Y117.31 E45.61362
G1 X81.425 Y116.988 E45.64047
G1 X81.195 Y116.437 E45.68217
G1 X81.102 Y116.047 E45.71018
G1 X81.082 Y115.331 E45.76021
G1 X81.124 Y114.986 E45.78448
G1 X81.306 Y114.401 E45.82727
G1 X81.674 Y113.763 E45.87872
M204 S3000
M205 X10 Y10
G0 F600 X83.268 Y113.255
G0 X84.327 Y113.145
G0 X97.45 Y116.781
M204 S1800
M205 X8 Y8
G1 F300 X96.816 Y116.916 E45.92399
G1 X96.092 Y116.903 E45.97457
G1 X95.721 Y116.834 E46.00093
G1 X95.105 Y116.613 E46.04664
G1 X94.341 Y116.073 E46.11198
G1 X93.845 Y115.383 E46.17134
G1 X93.585 Y114.784 E46.21695
G1 X93.488 Y114.147 E46.26195
G1 X93.484 Y113.757 E46.28919
G1 X93.586 Y113.116 E46.33453
G1 X93.766 Y112.646 E46.36968
G1 X94.071 Y112.141 E46.41089
G1 X94.266 Y111.909 E46.43206
G1 X94.77 Y111.466 E46.47892
G1 X95.078 Y111.278 E46.50413
G1 X95.775 Y111.003 E46.55646
G1 X96.67 Y110.926 E46.61921
G1 X97.394 Y111.09 E46.67105
G1 X97.715 Y111.206 E46.69489
G1 X98.158 Y111.458 E46.73049
G1 X98.666 Y111.876 E46.77644
G1 X99.13 Y112.538 E46.83291
G1 X99.242 Y112.777 E46.85134
G1 X99.449 Y113.522 E46.90535
G1 X99.458 Y114.248 E46.95606
G1 X99.3 Y114.983 E47.00857
G1 X98.809 Y115.852 E47.07829
G1 X98.112 Y116.452 E47.14252
G1 X97.45 Y116.781 E47.19416
M204 S3000
M205 X10 Y10
G0 F600 X113.775 Y116.366
G0 X115.828 Y115.859
M204 S1800
M205 X8 Y8
G1 F300 X115.265 Y116.389 E47.24816
G1 X114.686 Y116.696 E47.29394
G1 X114.363 Y116.811 E47.31788
G1 X113.745 Y116.926 E47.36179
G1 X113.06 Y116.893 E47.40969
G1 X112.418 Y116.727 E47.45601
G1 X111.611 Y116.272 E47.52071
G1 X111 Y115.564 E47.58603
G1 X110.691 Y114.944 E47.63442
G1 X110.542 Y114.248 E47.68413
G1 X110.551 Y113.522 E47.73485
G1 X110.758 Y112.777 E47.78885
G1 X110.87 Y112.538 E47.80729
G1 X111.334 Y111.876 E47.86375
G1 X111.842 Y111.458 E47.9097
G1 X112.285 Y111.206 E47.9453
G1 X112.606 Y111.09 E47.96914
G1 X113.336 Y110.927 E48.02138
G1 X114.237 Y111.004 E48.08454
G1 X115.03 Y111.339 E48.14467
G1 X115.451 Y111.638 E48.18074
G1 X115.929 Y112.141 E48.2292
G1 X116.234 Y112.646 E48.27041
G1 X116.42 Y113.138 E48.30715
G1 X116.52 Y113.784 E48.35281
G1 X116.523 Y114.048 E48.37125
G1 X116.423 Y114.758 E48.42133
G1 X116.166 Y115.365 E48.46737
G1 X115.828 Y115.859 E48.50918
M204 S3000
M205 X10 Y10
G0 F600 X122.984 Y115.029
M204 S1800
M205 X8 Y8
G1 F300 X123.129 Y114.511 E48.54675
G1 X123.455 Y113.858 E48.59772
G1 X124.084 Y113.194 E48.66161
G1 X124.716 Y112.837 E48.71231
G1 X125.067 Y112.698 E48.73867
G1 X125.699 Y112.585 E48.78352
G1 X126.351 Y112.596 E48.82906
G1 X126.99 Y112.748 E48.87494
G1 X127.613 Y113.083 E48.92435
G1 X127.904 Y113.317 E48.95043
G1 X128.281 Y113.715 E48.98872
G1 X128.512 Y114.043 E49.01674
G1 X128.694 Y114.397 E49.04454
G1 X128.822 Y114.772 E49.07222
G1 X128.934 Y115.491 E49.12304
G1 X128.898 Y116.048 E49.16203
G1 X128.799 Y116.45 E49.19095
G1 X128.575 Y116.987 E49.23159
G1 X128.366 Y117.308 E49.25834
G1 X128.008 Y117.722 E49.29657
G1 X127.758 Y117.948 E49.32011
G1 X127.401 Y118.184 E49.35
G1 X126.701 Y118.467 E49.40273
G1 X126.072 Y118.566 E49.44721
G1 X125.409 Y118.514 E49.49366
G1 X125.042 Y118.427 E49.52
G1 X124.403 Y118.144 E49.56882
G1 X123.931 Y117.798 E49.60969
G1 X123.509 Y117.325 E49.65397
G1 X123.166 Y116.716 E49.70279
G1 X123.021 Y116.286 E49.73448
G1 X122.937 Y115.702 E49.77569
G1 X122.984 Y115.029 E49.82281
M204 S3000
M205 X10 Y10
G0 F600 X123.503 Y115.751
M204 S1800
M205 X8 Y8
G1 F300 X123.535 Y115.131 E49.86618
G1 X123.674 Y114.652 E49.90101
G1 X123.912 Y114.203 E49.93651
G1 X124.381 Y113.67 E49.98609
G1 X125.103 Y113.261 E50.04405
G1 X125.699 Y113.145 E50.08646
G1 X126.279 Y113.151 E50.12698
G1 X126.783 Y113.272 E50.16318
G1 X127.409 Y113.609 E50.21284
G1 X127.875 Y114.1 E50.26012
G1 X128.014 Y114.297 E50.27696
G1 X128.272 Y114.877 E50.32129
G1 X128.374 Y115.491 E50.36477
G1 X128.346 Y115.951 E50.39696
G1 X128.203 Y116.464 E50.43415
G1 X127.943 Y116.942 E50.47216
G1 X127.512 Y117.439 E50.51811
G1 X127.143 Y117.687 E50.54916
G1 X126.582 Y117.92 E50.59159
G1 X126.048 Y118.006 E50.62937
G1 X125.345 Y117.947 E50.67864
G1 X124.713 Y117.678 E50.72662
G1 X124.327 Y117.402 E50.75976
G1 X123.984 Y117.027 E50.79526
G1 X123.693 Y116.527 E50.83567
G1 X123.585 Y116.225 E50.85807
G1 X123.503 Y115.751 E50.89167
M204 S3000
M205 X10 Y10
G0 F600 X123.444 Y115.759
G0 X113.277 Y116.366
G0 X111.934 Y115.876
G0 X111.97 Y115.831
M204 S1800
M205 X8 Y8
G1 F300 X111.463 Y115.243 E50.9459
G1 X111.209 Y114.698 E50.98789
G1 X111.097 Y114.167 E51.0258
G1 X111.101 Y113.633 E51.0631
G1 X111.317 Y112.875 E51.11815
G1 X111.758 Y112.247 E51.17175
G1 X112.186 Y111.9 E51.21023
G1 X112.618 Y111.661 E51.24471
G1 X113.383 Y111.489 E51.29948
G1 X114.105 Y111.556 E51.35013
G1 X114.584 Y111.739 E51.38594
G1 X114.931 Y111.939 E51.41391
G1 X115.346 Y112.314 E51.45298
G1 X115.717 Y112.86 E51.49909
G1 X115.886 Y113.319 E51.53325
G1 X115.963 Y113.841 E51.57011
G1 X115.965 Y114 E51.58121
G1 X115.876 Y114.617 E51.62475
G1 X115.676 Y115.094 E51.66088
G1 X115.403 Y115.495 E51.69476
G1 X114.924 Y115.941 E51.74048
G1 X114.34 Y116.244 E51.78643
G1 X113.722 Y116.367 E51.83044
G1 X113.183 Y116.347 E51.86812
G1 X112.649 Y116.214 E51.90655
G1 X111.97 Y115.831 E51.961
M204 S3000
M205 X10 Y10
G0 F600 X111.934 Y115.876
G0 X95.995 Y116.396
G0 X96.009 Y116.341
M204 S1800
M205 X8 Y8
G1 F300 X95.378 Y116.12 E52.0077
G1 X94.744 Y115.673 E52.06188
G1 X94.331 Y115.104 E52.11099
G1 X94.128 Y114.629 E52.14707
G1 X94.042 Y114.065 E52.18692
G1 X94.03 Y113.889 E52.19924
G1 X94.128 Y113.256 E52.24398
G1 X94.283 Y112.86 E52.27368
G1 X94.654 Y112.314 E52.31979
G1 X95.069 Y111.939 E52.35886
G1 X95.334 Y111.776 E52.38059
G1 X95.898 Y111.554 E52.42292
G1 X96.624 Y111.49 E52.47383
G1 X97.382 Y111.661 E52.5281
G1 X97.814 Y111.9 E52.56258
G1 X98.242 Y112.247 E52.60107
G1 X98.683 Y112.875 E52.65467
G1 X98.899 Y113.633 E52.70972
G1 X98.901 Y114.186 E52.74834
G1 X98.771 Y114.779 E52.79075
G1 X98.371 Y115.491 E52.84779
G1 X97.784 Y115.995 E52.90183
G1 X97.314 Y116.226 E52.93841
G1 X96.743 Y116.36 E52.97937
G1 X96.009 Y116.341 E53.03066
M204 S3000
M205 X10 Y10
G0 F600 X95.995 Y116.396
G0 X84.422 Y113.151
G0 X83.268 Y113.255
G0 X82.416 Y113.763
G0 X81.588 Y115.202
G0 X81.64 Y115.216
M204 S1800
M205 X8 Y8
G1 F300 X81.807 Y114.653 E53.07167
G1 X82.099 Y114.128 E53.11363
G1 X82.49 Y113.706 E53.15381
G1 X82.858 Y113.448 E53.18521
G1 X83.281 Y113.255 E53.21768
G1 X83.827 Y113.145 E53.25658
G1 X84.343 Y113.145 E53.29262
G1 X84.905 Y113.267 E53.33279
G1 X85.624 Y113.672 E53.39043
G1 X86.121 Y114.257 E53.44404
G1 X86.392 Y114.851 E53.48965
G1 X86.427 Y114.949 E53.49692
G1 X86.504 Y115.499 E53.53571
G1 X86.445 Y116.131 E53.58004
G1 X86.223 Y116.723 E53.6242
G1 X85.899 Y117.176 E53.6631
G1 X85.673 Y117.402 E53.68543
G1 X85.206 Y117.737 E53.72557
G1 X84.438 Y117.991 E53.78207
G1 X83.691 Y117.991 E53.83424
G1 X82.951 Y117.745 E53.88871
G1 X82.493 Y117.445 E53.92695
G1 X82.058 Y116.943 E53.97335
G1 X81.794 Y116.459 E54.01185
G1 X81.654 Y115.95 E54.04873
G1 X81.64 Y115.216 E54.1
M204 S3000
M205 X10 Y10
G0 F600 X81.588 Y115.202
G0 X79.4 Y110.063
G0 X79.34 Y110.063
M204 S1800
M205 X8 Y8
G1 F300 X79.341 Y122.135 E54.94319
G1 X98.518 Y122.938 E56.2838
G1 X111.483 Y122.937 E57.18936
G1 X130.66 Y122.135 E58.52997
G1 X130.66 Y111.681 E59.26015
G1 X130.66 Y110.063 E59.37316
G1 X113.994 Y104.877 E60.59227
G1 X96.006 Y104.878 E61.84867
G1 X79.34 Y110.063 E63.06776
M204 S3000
M205 X10 Y10
G0 F600 X78.78 Y109.651
M204 S1800
M205 X8 Y8
;TYPE:WALL-OUTER
G1 F300 X78.781 Y122.672 E63.97723
