;FLAVOR:Marlin
;TIME:11803
;Filament used: 11.8672m
;Layer height: 0.3
;MINX:19.888
;MINY:124.689
;MINZ:0.3
;MAXX:190.136
;MAXY:190.889
;MAXZ:9.975
;Generated with Cura_SteamEngine 5.2.1
M82 ;absolute extrusion mode
;Profil Homepage: https://github.com/NilsRo/Cura_Anycubic_MegaS_Profile

;Slicer Information - (Support for OctoPrint Slicer Estimator)
;Slicer info:material_guid;0ff92885-617b-4144-a03c-9989872454bc
;Slicer info:material_id;generic_pla_175
;Slicer info:material_brand;Generic
;Slicer info:material_name;PLA
;Slicer info:filament_cost;[0.0]
;Slicer info:material_bed_temperature;60
;Slicer info:material_bed_temperature_layer_0;60
;Slicer info:material_print_temperature;200
;Slicer info:material_print_temperature_layer_0;205
;Slicer info:material_flow;100
;Slicer info:layer_height;0.3
;Slicer info:machine_nozzle_size;0.4
;Slicer info:wall_thickness;1.2000000000000002
;Slicer info:speed_print;50.0
;Slicer info:speed_topbottom;25.0
;Slicer info:travel_speed;100.0
;Slicer info:support;0
;Slicer info:retraction_speed;30
;Slicer info:retraction_amount;6
;Slicer info:layer_height;0.3
;Slicer info:infill_pattern;grid
;Slicer info:infill_sparse_density;25
;Slicer info:cool_fan_enabled;True
;Slicer info:cool_fan_speed;100
;Slicer info:sliced_at;Thu 29-12-2022 22:16:04
G21                                        ; metric values 
G90                                        ; absolute positioning 
M82                                        ; set extruder to absolute mode 
M107                                       ; start with the fan off 
M140 S60   ; Start heating the bed 
G4 S60                                     ; wait 1 minute 
M104 S205 ; start heating the hot end 
M190 S60   ; wait for bed 
M109 S205 ; wait for hotend 
M300 S1000 P500                            ; BEEP heating done 
G28 X0 Y10 Z0                              ; move X/Y to min endstops 
M420 S1                                    ; Enable leveling 
M420 Z2.0                                  ; Set leveling fading height to 2 mm 
G0 Z0.15                                   ; lift nozzle a bit 
G92 E0                                     ; zero the extruded length 
G1 X50 E20 F500                            ; Extrude 20mm of filament in a 5cm line. 
G92 E0                                     ; zero the extruded length again 
G1 E-2 F500                                ; Retract a little 
G1 X50 F500                                ; wipe away from the filament line
G1 X100 F9000                              ; Quickly wipe away from the filament line
G92 E0
G92 E0
G1 F1800 E-6
;LAYER_COUNT:33
;LAYER:0
M106 S76.5
M205 X10 Y10
G1 F480 Z0.375
G0 F6000 X31.828 Y125.101 Z0.375
M205 X8 Y8
;TYPE:SKIRT
G1 F480 Z0.3
G1 F1800 E0
G1 F1200 X32.883 Y124.838 E0.05424
G1 X33.997 Y124.709 E0.11019
G1 X34.741 Y124.689 E0.14733
G1 X63.671 Y124.69 E1.59065
G1 X64.425 Y124.702 E1.62827
G1 X65.193 Y124.76 E1.6667
G1 X67.249 Y125.188 E1.77147
G1 X69.951 Y125.712 E1.90878
G1 X72.592 Y126.146 E2.04231
G1 X75.237 Y126.504 E2.17547
G1 X77.864 Y126.785 E2.30728
G1 X80.552 Y126.995 E2.4418
G1 X83.205 Y127.128 E2.57432
G1 X86.63 Y127.189 E2.74522
G1 X120.739 Y127.189 E4.44693
G1 X123.399 Y127.151 E4.57965
G1 X126.084 Y127.037 E4.71373
G1 X128.738 Y126.849 E4.84647
G1 X131.404 Y126.585 E4.98012
G1 X134.068 Y126.244 E5.11412
G1 X136.669 Y125.835 E5.24547
G1 X139.362 Y125.335 E5.38212
G1 X141.424 Y124.898 E5.48728
G1 X142.023 Y124.804 E5.51753
G1 X142.893 Y124.716 E5.56116
G1 X144.24 Y124.69 E5.62837
G1 X181.292 Y124.69 E7.47691
G1 X181.971 Y124.7 E7.51078
G1 X182.639 Y124.749 E7.5442
G1 X183.396 Y124.906 E7.58277
G1 X184.336 Y125.173 E7.63152
G1 X185.059 Y125.45 E7.67015
G1 X185.525 Y125.689 E7.69628
G1 X185.998 Y125.96 E7.72348
G1 X186.558 Y126.327 E7.75688
G1 X186.958 Y126.655 E7.78269
G1 X187.543 Y127.181 E7.82194
G1 X188.013 Y127.657 E7.85531
G1 X188.397 Y128.148 E7.88641
G1 X188.778 Y128.696 E7.91971
G1 X189.126 Y129.267 E7.95307
G1 X189.377 Y129.807 E7.98277
G1 X189.601 Y130.384 E8.01365
G1 X189.819 Y131.019 E8.04715
G1 X189.998 Y131.663 E8.0805
G1 X190.116 Y132.438 E8.11961
G1 X190.136 Y133.711 E8.18313
G1 X190.125 Y134.948 E8.24484
G1 X190.059 Y135.755 E8.28524
G1 X189.974 Y136.263 E8.31093
G1 X189.733 Y137.437 E8.37073
G1 X189.439 Y138.774 E8.43902
G1 X188.935 Y141.417 E8.57326
G1 X188.507 Y144.057 E8.70669
G1 X188.159 Y146.679 E8.83865
G1 X187.881 Y149.357 E8.97297
G1 X187.681 Y152 E9.10521
G1 X187.553 Y154.689 E9.23952
G1 X187.504 Y157.323 E9.37095
G1 X187.529 Y160.03 E9.50601
G1 X187.629 Y162.678 E9.63821
G1 X187.807 Y165.364 E9.77251
G1 X188.056 Y168.002 E9.90471
G1 X188.385 Y170.672 E10.03892
G1 X188.784 Y173.298 E10.17144
G1 X189.256 Y175.903 E10.30352
G1 X189.924 Y179.061 E10.46456
G1 X190.041 Y179.709 E10.49741
G1 X190.133 Y180.587 E10.54145
G1 X190.136 Y182.015 E10.61269
G1 X190.125 Y182.8 E10.65186
G1 X190.076 Y183.467 E10.68523
G1 X189.924 Y184.239 E10.72448
G1 X189.649 Y185.051 E10.76725
G1 X189.414 Y185.682 E10.80085
G1 X189.14 Y186.293 E10.83425
G1 X188.798 Y186.864 E10.86746
G1 X188.491 Y187.313 E10.8946
G1 X188.081 Y187.841 E10.92795
G1 X187.729 Y188.208 E10.95332
G1 X187.148 Y188.761 E10.99334
G1 X186.637 Y189.193 E11.02672
G1 X186.068 Y189.566 E11.06066
G1 X185.339 Y189.983 E11.10256
G1 X184.739 Y190.28 E11.13596
G1 X183.986 Y190.546 E11.17581
G1 X183.201 Y190.706 E11.21577
G1 X182.681 Y190.793 E11.24208
G1 X181.863 Y190.869 E11.28306
G1 X180.756 Y190.889 E11.3383
G1 X143.992 Y190.888 E13.17246
G1 X143.23 Y190.877 E13.21048
G1 X142.15 Y190.788 E13.26455
G1 X141.458 Y190.687 E13.29944
G1 X138.981 Y190.166 E13.42572
G1 X136.33 Y189.684 E13.56015
G1 X133.678 Y189.279 E13.69399
G1 X131.079 Y188.956 E13.82465
G1 X128.358 Y188.697 E13.96102
G1 X125.75 Y188.522 E14.09142
G1 X123.063 Y188.418 E14.22558
G1 X120.684 Y188.389 E14.34428
G1 X86.556 Y188.389 E16.04693
G1 X83.896 Y188.427 E16.17965
G1 X81.211 Y188.541 E16.31373
G1 X78.557 Y188.729 E16.44647
G1 X75.891 Y188.993 E16.58013
G1 X73.227 Y189.334 E16.71412
G1 X70.626 Y189.743 E16.84548
G1 X67.968 Y190.237 E16.98036
G1 X65.844 Y190.688 E17.08868
G1 X65.29 Y190.79 E17.11679
G1 X64.401 Y190.878 E17.16136
G1 X63.758 Y190.889 E17.19344
G1 X34.764 Y190.888 E18.63996
G1 X34.053 Y190.877 E18.67543
G1 X32.879 Y190.755 E18.73432
G1 X31.884 Y190.488 E18.78572
G1 X31.201 Y190.252 E18.82177
G1 X30.583 Y189.996 E18.85514
G1 X30.124 Y189.746 E18.88122
G1 X29.648 Y189.457 E18.909
G1 X24.049 Y185.928 E19.23919
G1 X23.448 Y185.537 E19.27496
G1 X22.91 Y185.139 E19.30835
G1 X22.206 Y184.436 E19.35799
G1 X21.746 Y183.886 E19.39376
G1 X21.282 Y183.258 E19.43271
G1 X20.777 Y182.345 E19.48477
G1 X20.488 Y181.741 E19.51817
G1 X20.285 Y181.146 E19.54954
G1 X20.054 Y180.235 E19.59642
G1 X19.915 Y179.438 E19.63679
G1 X19.888 Y178.4 E19.68859
G1 X19.915 Y177.594 E19.72882
G1 X20.118 Y176.498 E19.78443
G1 X20.617 Y173.833 E19.9197
G1 X21.035 Y171.185 E20.05345
G1 X21.375 Y168.549 E20.18605
G1 X21.641 Y165.906 E20.31857
G1 X21.834 Y163.225 E20.45267
G1 X21.951 Y160.539 E20.58681
G1 X21.99 Y157.921 E20.71743
G1 X21.955 Y155.2 E20.8532
G1 X21.845 Y152.548 E20.98562
G1 X21.66 Y149.895 E21.1183
G1 X21.398 Y147.229 E21.25195
G1 X21.063 Y144.587 E21.38481
G1 X20.654 Y141.958 E21.51755
G1 X19.971 Y138.284 E21.70399
G1 X19.893 Y137.499 E21.74335
G1 X19.894 Y136.609 E21.78775
G1 X19.947 Y135.942 E21.82113
G1 X20.044 Y135.428 E21.84723
G1 X20.222 Y134.676 E21.88578
G1 X20.414 Y134.035 E21.91916
G1 X20.635 Y133.518 E21.94721
G1 X21.004 Y132.783 E21.98824
G1 X21.619 Y131.863 E22.04345
G1 X22.122 Y131.237 E22.08352
G1 X22.571 Y130.742 E22.11686
G1 X23.163 Y130.228 E22.15597
G1 X24.156 Y129.58 E22.21513
G1 X29.559 Y126.176 E22.53372
G1 X30.165 Y125.808 E22.5691
G1 X30.757 Y125.496 E22.60248
G1 X31.252 Y125.299 E22.62906
G1 X31.828 Y125.101 E22.65945
M205 X10 Y10
G0 F6000 X31.958 Y125.479
M205 X8 Y8
G1 F1200 X32.938 Y125.235 E22.70983
G1 X34.029 Y125.109 E22.76463
G1 X34.741 Y125.089 E22.80016
G1 X63.665 Y125.09 E24.24319
G1 X64.419 Y125.102 E24.28081
G1 X65.153 Y125.159 E24.31754
G1 X67.241 Y125.594 E24.42394
G1 X69.876 Y126.105 E24.55785
G1 X72.516 Y126.539 E24.69133
G1 X75.178 Y126.9 E24.82536
G1 X77.861 Y127.186 E24.95997
G1 X80.499 Y127.393 E25.09198
G1 X83.209 Y127.528 E25.22735
G1 X86.623 Y127.589 E25.39771
G1 X120.744 Y127.589 E27.10001
G1 X123.421 Y127.551 E27.23358
G1 X126.095 Y127.438 E27.36711
G1 X128.769 Y127.248 E27.50085
G1 X131.461 Y126.981 E27.63581
G1 X134.11 Y126.642 E27.76905
G1 X136.774 Y126.224 E27.90358
G1 X139.385 Y125.738 E28.03608
G1 X141.506 Y125.289 E28.14425
G1 X142.063 Y125.202 E28.17237
G1 X142.918 Y125.116 E28.21524
G1 X144.35 Y125.089 E28.2867
G1 X181.287 Y125.09 E30.12949
G1 X181.966 Y125.1 E30.16337
G1 X182.608 Y125.149 E30.19549
G1 X183.288 Y125.291 E30.23015
G1 X184.218 Y125.554 E30.27837
G1 X185.042 Y125.873 E30.32245
G1 X185.799 Y126.307 E30.36598
G1 X186.455 Y126.74 E30.4052
G1 X187.276 Y127.478 E30.46028
G1 X187.728 Y127.938 E30.49245
G1 X188.069 Y128.377 E30.52018
G1 X188.45 Y128.925 E30.55348
G1 X188.784 Y129.476 E30.58563
G1 X189.006 Y129.956 E30.61201
G1 X189.222 Y130.514 E30.64186
G1 X189.44 Y131.149 E30.67536
G1 X189.611 Y131.77 E30.70749
G1 X189.717 Y132.498 E30.7442
G1 X189.736 Y133.707 E30.80452
G1 X189.725 Y134.944 E30.86624
G1 X189.652 Y135.843 E30.91124
G1 X189.326 Y137.428 E30.99197
G1 X189.042 Y138.719 E31.05792
G1 X188.54 Y141.35 E31.19154
G1 X188.115 Y143.978 E31.32436
G1 X187.76 Y146.652 E31.45894
G1 X187.482 Y149.322 E31.59286
G1 X187.281 Y151.987 E31.7262
G1 X187.154 Y154.663 E31.85985
G1 X187.104 Y157.335 E31.99318
G1 X187.13 Y160.049 E32.12859
G1 X187.228 Y162.683 E32.26009
G1 X187.408 Y165.395 E32.39569
G1 X187.659 Y168.052 E32.52884
G1 X187.987 Y170.71 E32.66246
G1 X188.39 Y173.364 E32.79638
G1 X188.871 Y176.018 E32.93095
G1 X189.532 Y179.144 E33.09035
G1 X189.647 Y179.778 E33.1225
G1 X189.733 Y180.602 E33.16383
G1 X189.736 Y182.016 E33.23438
G1 X189.725 Y182.794 E33.2732
G1 X189.676 Y183.437 E33.30537
G1 X189.531 Y184.152 E33.34177
G1 X189.27 Y184.922 E33.38233
G1 X189.039 Y185.541 E33.41529
G1 X188.775 Y186.128 E33.4474
G1 X188.468 Y186.638 E33.4771
G1 X188.161 Y187.087 E33.50424
G1 X187.682 Y187.701 E33.54309
G1 X186.872 Y188.472 E33.59888
G1 X186.378 Y188.886 E33.63104
G1 X185.869 Y189.219 E33.66138
G1 X185.14 Y189.636 E33.70328
G1 X184.562 Y189.921 E33.73543
G1 X183.661 Y190.204 E33.78255
G1 X183.135 Y190.312 E33.80934
G1 X182.615 Y190.399 E33.83564
G1 X181.856 Y190.469 E33.87367
G1 X180.756 Y190.489 E33.92856
G1 X143.997 Y190.488 E35.76247
G1 X143.254 Y190.477 E35.79954
G1 X142.183 Y190.389 E35.85316
G1 X141.54 Y190.296 E35.88557
G1 X139.022 Y189.766 E36.01395
G1 X136.396 Y189.289 E36.1471
G1 X133.75 Y188.885 E36.28064
G1 X131.094 Y188.555 E36.41417
G1 X128.422 Y188.3 E36.54808
G1 X125.757 Y188.121 E36.68134
G1 X123.084 Y188.018 E36.81479
G1 X120.689 Y187.989 E36.93429
G1 X86.551 Y187.989 E38.63744
G1 X83.874 Y188.027 E38.77101
G1 X81.2 Y188.14 E38.90454
G1 X78.526 Y188.33 E39.03828
G1 X75.834 Y188.597 E39.17324
G1 X73.185 Y188.936 E39.30648
G1 X70.521 Y189.354 E39.44101
G1 X67.897 Y189.842 E39.57417
G1 X65.325 Y190.387 E39.70534
G1 X64.393 Y190.478 E39.75205
G1 X63.758 Y190.489 E39.78374
G1 X34.771 Y190.488 E41.22991
G1 X34.06 Y190.477 E41.26538
G1 X32.957 Y190.362 E41.32071
G1 X32.015 Y190.11 E41.36936
G1 X31.332 Y189.874 E41.40541
G1 X30.605 Y189.571 E41.44471
G1 X29.781 Y189.069 E41.49284
G1 X24.267 Y185.593 E41.81804
G1 X23.666 Y185.202 E41.85381
G1 X23.149 Y184.817 E41.88597
G1 X22.513 Y184.179 E41.93091
G1 X22.053 Y183.629 E41.96668
G1 X21.619 Y183.039 E42.00322
G1 X21.127 Y182.151 E42.05387
G1 X20.85 Y181.569 E42.08603
G1 X20.67 Y181.038 E42.114
G1 X20.443 Y180.143 E42.16007
G1 X20.314 Y179.39 E42.19818
G1 X20.288 Y178.39 E42.24809
G1 X20.35 Y177.439 E42.29564
G1 X20.519 Y176.535 E42.34152
G1 X21.011 Y173.903 E42.4751
G1 X21.428 Y171.261 E42.60854
G1 X21.772 Y168.603 E42.74226
G1 X22.039 Y165.939 E42.87583
G1 X22.234 Y163.235 E43.01109
G1 X22.35 Y160.563 E43.14452
G1 X22.39 Y157.922 E43.27629
G1 X22.355 Y155.213 E43.41146
G1 X22.243 Y152.504 E43.54672
G1 X22.058 Y149.865 E43.67871
G1 X21.798 Y147.211 E43.81175
G1 X21.456 Y144.513 E43.94743
G1 X21.048 Y141.89 E44.07987
G1 X20.537 Y139.135 E44.21966
G1 X20.365 Y138.217 E44.26625
G1 X20.293 Y137.488 E44.3028
G1 X20.294 Y136.617 E44.34626
G1 X20.357 Y135.843 E44.385
G1 X20.611 Y134.768 E44.44011
G1 X20.858 Y133.953 E44.48259
G1 X21.425 Y132.869 E44.54363
G1 X21.93 Y132.114 E44.58894
G1 X22.433 Y131.488 E44.62901
G1 X22.868 Y131.011 E44.66121
G1 X23.425 Y130.534 E44.6978
G1 X24.302 Y129.962 E44.75004
G1 X29.767 Y126.518 E45.07231
G1 X30.373 Y126.15 E45.10768
G1 X31.074 Y125.783 E45.14716
G1 X31.958 Y125.479 E45.1938
M205 X10 Y10
G1 F1800 E39.1938
G1 F480 Z0.375
;MESH:Peon230_Base_v1.1.stl
G0 F6000 X31.894 Y135.092 Z0.375
M205 X8 Y8
;TYPE:WALL-INNER
G1 F480 Z0.3
G1 F1800 E45.1938
G1 F1200 X32.501 Y134.724 E45.22921
G1 X33.342 Y134.558 E45.27198
G1 X33.73 Y134.558 E45.29134
G1 X34.577 Y134.725 E45.33441
G1 X35.214 Y135.126 E45.37196
G1 X35.812 Y135.724 E45.41415
G1 X36.115 Y136.324 E45.44769
G1 X36.305 Y137.289 E45.49676
G1 X36.104 Y138.3 E45.54818
G1 X35.804 Y138.842 E45.57909
G1 X35.74 Y138.923 E45.58424
G1 X35.099 Y139.564 E45.62946
G1 X34.522 Y139.864 E45.66191
G1 X33.534 Y140.057 E45.71213
G1 X32.498 Y139.854 E45.7648
G1 X31.858 Y139.452 E45.80251
G1 X31.273 Y138.867 E45.84378
G1 X30.961 Y138.277 E45.87708
G1 X30.767 Y137.289 E45.92731
G1 X30.972 Y136.248 E45.98025
G1 X31.373 Y135.611 E46.0178
G1 X31.894 Y135.092 E46.05449
M205 X10 Y10
G1 F1800 E40.05449
G1 F480 Z0.375
G0 F6000 X31.596 Y138.624 Z0.375
M205 X8 Y8
G1 F480 Z0.3
G1 F1800 E46.05449
G1 F1200 X31.345 Y138.152 E46.08116
G1 X31.178 Y137.304 E46.12428
G1 X31.35 Y136.4 E46.17019
G1 X31.656 Y135.894 E46.19969
G1 X32.203 Y135.349 E46.23821
G1 X32.749 Y135.083 E46.26851
G1 X33.536 Y134.928 E46.30853
G1 X34.427 Y135.104 E46.35384
G1 X34.931 Y135.409 E46.38323
G1 X35.483 Y135.961 E46.42218
G1 X35.72 Y136.42 E46.44795
G1 X35.896 Y137.278 E46.49165
G1 X35.726 Y138.159 E46.53641
G1 X35.479 Y138.609 E46.56202
G1 X35.44 Y138.658 E46.56515
G1 X34.87 Y139.228 E46.60536
G1 X34.4 Y139.48 E46.63197
G1 X33.537 Y139.65 E46.67585
G1 X32.648 Y139.475 E46.72106
G1 X32.141 Y139.169 E46.7506
G1 X31.596 Y138.624 E46.78905
M205 X10 Y10
G0 F6000 X31.583 Y137.295
M205 X8 Y8
;TYPE:WALL-OUTER
G1 F1200 X31.728 Y136.549 E46.82697
G1 X31.917 Y136.199 E46.84681
G1 X32.431 Y135.685 E46.88308
G1 X32.794 Y135.481 E46.90385
G1 X33.536 Y135.335 E46.94158
G1 X34.278 Y135.482 E46.97932
G1 X34.648 Y135.692 E47.00054
G1 X35.156 Y136.2 E47.03639
G1 X35.342 Y136.552 E47.05625
G1 X35.489 Y137.285 E47.09355
G1 X35.345 Y138.024 E47.13111
G1 X35.154 Y138.376 E47.15109
G1 X34.639 Y138.895 E47.18757
G1 X34.282 Y139.092 E47.20791
G1 X33.536 Y139.243 E47.24588
G1 X32.827 Y139.103 E47.28194
G1 X32.447 Y138.909 E47.30322
G1 X31.91 Y138.365 E47.34136
G1 X31.733 Y138.034 E47.36008
G1 X31.583 Y137.295 E47.39771
M205 X10 Y10
G0 F6000 X31.621 Y137.099
G1 F1800 E41.39771
G1 F480 Z0.375
G0 F6000 X29.448 Y144.877 Z0.375
M205 X8 Y8
;TYPE:WALL-INNER
G1 F480 Z0.3
G1 F1800 E47.39771
G1 F1200 X29.537 Y145.865 E47.4472
G1 X29.536 Y169.725 E48.63758
G1 X29.448 Y170.702 E48.68652
G1 X26.554 Y177.942 E49.07551
G1 X26.486 Y178.79 E49.11795
G1 X26.602 Y179.258 E49.14201
G1 X26.838 Y179.702 E49.16709
G1 X27.162 Y180.089 E49.19227
G1 X33.469 Y184.063 E49.56418
G1 X34.246 Y184.289 E49.60456
G1 X64.3 Y184.289 E51.10396
G1 X73.042 Y181.914 E51.55591
G1 X73.682 Y181.789 E51.58844
G1 X77.714 Y181.789 E51.7896
G1 F969.7 X78.168 Y181.692 E51.81826
G1 F814.9 X78.855 Y181.694 E51.86873
G1 F971.7 X79.444 Y181.788 E51.90548
G1 F1200 X118.585 Y181.789 E53.85823
G1 F971.7 X119.268 Y181.694 E53.90072
G1 F816.3 X119.804 Y181.694 E53.94003
G1 F971.7 X120.487 Y181.789 E53.98251
G1 F1200 X126.585 Y181.789 E54.28675
G1 F971.7 X127.268 Y181.694 E54.32923
G1 F816.3 X127.804 Y181.694 E54.36854
G1 F971.7 X128.487 Y181.789 E54.41103
G1 F1200 X136.049 Y181.792 E54.7883
G1 X136.952 Y181.878 E54.83355
G1 X142.847 Y184.234 E55.15028
