;FLAVOR:Marlin
;TIME:11798
;Filament used: 11.8915m
;Layer height: 0.3
;MINX:-74.39
;MINY:-25.787
;MINZ:0.3
;MAXX:95.876
;MAXY:71.433
;MAXZ:6.975
;Generated with Cura_SteamEngine 5.2.1
M82 ;absolute extrusion mode
;Profil Homepage: https://github.com/NilsRo/Cura_Anycubic_MegaS_Profile

;Slicer Information - (Support for OctoPrint Slicer Estimator)
;Slicer info:material_guid;0ff92885-617b-4144-a03c-9989872454bc
;Slicer info:material_id;generic_pla_175
;Slicer info:material_brand;Generic
;Slicer info:material_name;PLA
;Slicer info:filament_cost;[0.0]
;Slicer info:material_bed_temperature;60
;Slicer info:material_bed_temperature_layer_0;60
;Slicer info:material_print_temperature;200
;Slicer info:material_print_temperature_layer_0;205
;Slicer info:material_flow;100
;Slicer info:layer_height;0.3
;Slicer info:machine_nozzle_size;0.4
;Slicer info:wall_thickness;1.2000000000000002
;Slicer info:speed_print;50.0
;Slicer info:speed_topbottom;25.0
;Slicer info:travel_speed;100.0
;Slicer info:support;0
;Slicer info:retraction_speed;30
;Slicer info:retraction_amount;6
;Slicer info:layer_height;0.3
;Slicer info:infill_pattern;grid
;Slicer info:infill_sparse_density;25
;Slicer info:cool_fan_enabled;True
;Slicer info:cool_fan_speed;100
;Slicer info:sliced_at;Thu 29-12-2022 23:24:36
G21                                        ; metric values 
G90                                        ; absolute positioning 
M82                                        ; set extruder to absolute mode 
M107                                       ; start with the fan off 
M140 S60   ; Start heating the bed 
G4 S60                                     ; wait 1 minute 
M104 S205 ; start heating the hot end 
M190 S60   ; wait for bed 
M109 S205 ; wait for hotend 
M300 S1000 P500                            ; BEEP heating done 
G28 X0 Y10 Z0                              ; move X/Y to min endstops 
M420 S1                                    ; Enable leveling 
M420 Z2.0                                  ; Set leveling fading height to 2 mm 
G0 Z0.15                                   ; lift nozzle a bit 
G92 E0                                     ; zero the extruded length 
G1 X50 E20 F500                            ; Extrude 20mm of filament in a 5cm line. 
G92 E0                                     ; zero the extruded length again 
G1 E-2 F500                                ; Retract a little 
G1 X50 F500                                ; wipe away from the filament line
G1 X100 F9000                              ; Quickly wipe away from the filament line
G92 E0
G92 E0
G1 F1800 E-6
;LAYER_COUNT:23
;LAYER:0
M106 S76.5
M205 X10 Y10
G1 F480 Z0.375
G0 F6000 X-7.604 Y-23.287 Z0.375
M205 X8 Y8
;TYPE:SKIRT
G1 F480 Z0.3
G1 F1800 E0
G1 F1200 X26.609 Y-23.287 E1.70689
G1 X29.269 Y-23.325 E1.83961
G1 X31.954 Y-23.439 E1.97369
G1 X34.608 Y-23.627 E2.10643
G1 X37.274 Y-23.891 E2.24009
G1 X39.938 Y-24.232 E2.37408
G1 X42.539 Y-24.641 E2.50544
G1 X45.206 Y-25.136 E2.64077
G1 X46.553 Y-25.425 E2.7095
G1 X47.405 Y-25.597 E2.75286
G1 X47.927 Y-25.69 E2.77932
G1 X48.809 Y-25.776 E2.82353
G1 X49.469 Y-25.787 E2.85646
G1 X87.039 Y-25.786 E4.73084
G1 X87.714 Y-25.776 E4.76452
G1 X88.381 Y-25.727 E4.79788
G1 X89.143 Y-25.569 E4.83671
G1 X90.138 Y-25.29 E4.88826
G1 X90.889 Y-25.004 E4.92836
G1 X91.59 Y-24.636 E4.96785
G1 X92.621 Y-23.897 E5.03114
G1 X93.234 Y-23.368 E5.07154
G1 X93.585 Y-22.993 E5.09716
G1 X94.052 Y-22.446 E5.13304
G1 X94.455 Y-21.912 E5.16642
G1 X94.802 Y-21.314 E5.20091
G1 X95.068 Y-20.782 E5.23059
G1 X95.331 Y-20.167 E5.26396
G1 X95.515 Y-19.581 E5.2946
G1 X95.724 Y-18.655 E5.34196
G1 X95.855 Y-17.856 E5.38236
G1 X95.876 Y-16.49 E5.45052
G1 X95.865 Y-15.504 E5.49971
G1 X95.793 Y-14.67 E5.54147
G1 X95.707 Y-14.173 E5.56664
G1 X95.404 Y-12.716 E5.64088
G1 X95.233 Y-11.95 E5.68004
G1 X94.726 Y-9.325 E5.81342
G1 X94.295 Y-6.699 E5.94619
G1 X93.937 Y-4.044 E6.07984
G1 X93.653 Y-1.372 E6.2139
G1 X93.446 Y1.282 E6.34671
G1 X93.315 Y3.93 E6.47898
G1 X93.258 Y6.616 E6.61302
G1 X93.278 Y9.306 E6.74723
G1 X93.37 Y11.923 E6.87787
G1 X93.543 Y14.636 E7.0135
G1 X93.785 Y17.252 E7.14457
G1 X94.109 Y19.941 E7.27969
G1 X94.502 Y22.561 E7.41187
G1 X94.973 Y25.203 E7.54575
G1 X95.52 Y27.824 E7.67933
G1 X95.734 Y28.798 E7.72909
G1 X95.858 Y29.588 E7.76898
G1 X95.876 Y30.82 E7.83045
G1 X95.866 Y32.05 E7.89182
G1 X95.81 Y32.863 E7.93248
G1 X95.615 Y33.762 E7.97837
G1 X95.482 Y34.303 E8.00616
G1 X95.28 Y34.941 E8.03955
G1 X94.989 Y35.58 E8.07458
G1 X94.707 Y36.107 E8.1044
G1 X94.189 Y36.903 E8.15178
G1 X93.651 Y37.556 E8.19399
G1 X93.083 Y38.143 E8.23474
G1 X92.175 Y38.84 E8.29185
G1 X91.621 Y39.215 E8.32523
G1 X91.058 Y39.507 E8.35687
G1 X89.327 Y40.283 E8.45151
G1 X86.871 Y41.425 E8.58664
G1 X84.484 Y42.618 E8.71977
G1 X82.148 Y43.87 E8.852
G1 X79.785 Y45.224 E8.98787
G1 X77.541 Y46.596 E9.11909
G1 X75.294 Y48.057 E9.25281
G1 X73.112 Y49.566 E9.38517
G1 X70.944 Y51.158 E9.51936
G1 X68.861 Y52.78 E9.65107
G1 X66.768 Y54.508 E9.78648
G1 X64.775 Y56.249 E9.91851
G1 X62.818 Y58.058 E10.05146
G1 X60.903 Y59.934 E10.18521
G1 X59.054 Y61.848 E10.31798
G1 X57.266 Y63.809 E10.45038
G1 X56.224 Y65.017 E10.52997
G1 X55.833 Y65.455 E10.55926
G1 X55.319 Y65.962 E10.59528
G1 X54.86 Y66.358 E10.62552
G1 X52.344 Y68.456 E10.78896
G1 X51.768 Y68.925 E10.82602
G1 X50.944 Y69.481 E10.87561
G1 X50.504 Y69.719 E10.90057
G1 X50.012 Y69.964 E10.92799
G1 X49.397 Y70.226 E10.96134
G1 X48.603 Y70.452 E11.00253
G1 X47.795 Y70.603 E11.04353
G1 X46.871 Y70.693 E11.08985
G1 X46.151 Y70.703 E11.12578
G1 X31.057 Y70.702 E11.87882
G1 X30.357 Y70.692 E11.91375
G1 X29.498 Y70.614 E11.95678
G1 X28.922 Y70.516 E11.98593
G1 X28.369 Y70.393 E12.01419
G1 X27.38 Y70.12 E12.06538
G1 X24.747 Y69.432 E12.20115
G1 X22.138 Y68.831 E12.33472
G1 X19.521 Y68.304 E12.4679
G1 X16.897 Y67.853 E12.60074
G1 X14.282 Y67.478 E12.73253
G1 X11.589 Y67.17 E12.86776
G1 X8.974 Y66.946 E12.9987
G1 X6.288 Y66.792 E13.13293
G1 X3.588 Y66.713 E13.26769
G1 X2.173 Y66.703 E13.33829
G1 X-6.372 Y66.703 E13.7646
G1 X-9.032 Y66.741 E13.89732
G1 X-11.717 Y66.855 E14.0314
G1 X-14.371 Y67.043 E14.16414
G1 X-17.037 Y67.307 E14.29779
G1 X-19.701 Y67.648 E14.43179
G1 X-22.302 Y68.057 E14.56315
G1 X-24.951 Y68.549 E14.69756
G1 X-28.752 Y69.392 E14.89181
G1 X-36.037 Y71.165 E15.26586
G1 X-36.598 Y71.293 E15.29457
G1 X-37.258 Y71.402 E15.32795
G1 X-37.882 Y71.433 E15.35912
G1 X-38.4 Y71.425 E15.38496
G1 X-39.669 Y71.366 E15.44834
G1 X-40.523 Y71.268 E15.49123
G1 X-41.297 Y71.153 E15.53027
G1 X-42.019 Y71.018 E15.56691
G1 X-42.82 Y70.833 E15.60792
G1 X-43.433 Y70.668 E15.6396
G1 X-44.083 Y70.467 E15.67354
G1 X-44.996 Y70.145 E15.72184
G1 X-46.083 Y69.716 E15.78014
G1 X-47.221 Y69.171 E15.84309
G1 X-48.213 Y68.615 E15.89983
G1 X-48.807 Y68.249 E15.93463
G1 X-49.845 Y67.537 E15.99743
G1 X-50.38 Y67.139 E16.0307
G1 X-50.999 Y66.644 E16.07024
G1 X-51.401 Y66.291 E16.09693
G1 X-51.986 Y65.744 E16.13689
G1 X-52.466 Y65.263 E16.17079
G1 X-52.931 Y64.769 E16.20464
G1 X-53.477 Y64.142 E16.24612
G1 X-53.93 Y63.581 E16.28209
G1 X-54.597 Y62.689 E16.33766
G1 X-55.2 Y61.751 E16.39329
G1 X-55.618 Y61.057 E16.43371
G1 X-56.196 Y59.953 E16.49588
G1 X-57.133 Y57.813 E16.61243
G1 X-57.192 Y57.698 E16.61888
G1 X-57.653 Y56.636 E16.67664
G1 X-58.77 Y54.247 E16.80821
G1 X-59.976 Y51.844 E16.94235
G1 X-61.242 Y49.493 E17.07557
G1 X-62.564 Y47.195 E17.20783
G1 X-63.964 Y44.915 E17.34131
G1 X-65.44 Y42.654 E17.47602
G1 X-66.948 Y40.483 E17.6079
G1 X-68.532 Y38.333 E17.74113
G1 X-70.169 Y36.239 E17.87374
G1 X-71.44 Y34.721 E17.97251
G1 X-72.378 Y33.585 E18.04601
G1 X-72.99 Y32.73 E18.09847
G1 X-73.347 Y32.164 E18.13185
G1 X-73.67 Y31.493 E18.16901
G1 X-73.952 Y30.728 E18.20968
G1 X-74.191 Y29.937 E18.25091
G1 X-74.347 Y28.832 E18.30658
G1 X-74.39 Y27.869 E18.35468
G1 X-74.287 Y26.781 E18.4092
G1 X-74.203 Y26.238 E18.43661
G1 X-73.75 Y23.861 E18.55734
G1 X-73.314 Y21.19 E18.69236
G1 X-72.963 Y18.574 E18.82404
G1 X-72.678 Y15.884 E18.95899
G1 X-72.475 Y13.249 E19.09084
G1 X-72.346 Y10.595 E19.22341
G1 X-72.291 Y7.906 E19.35759
G1 X-72.312 Y5.219 E19.49165
G1 X-72.407 Y2.568 E19.62399
G1 X-72.578 Y-0.082 E19.75648
G1 X-72.827 Y-2.757 E19.89051
G1 X-73.147 Y-5.391 E20.02289
G1 X-73.548 Y-8.055 E20.15729
G1 X-74.282 Y-12.073 E20.36107
G1 X-74.361 Y-12.922 E20.40361
G1 X-74.383 Y-13.591 E20.437
G1 X-74.346 Y-14.1 E20.46247
G1 X-74.261 Y-14.817 E20.49849
G1 X-74.143 Y-15.476 E20.53189
G1 X-73.994 Y-15.985 E20.55835
G1 X-73.717 Y-16.755 E20.59917
G1 X-73.28 Y-17.683 E20.65035
G1 X-72.592 Y-18.676 E20.71062
G1 X-71.939 Y-19.431 E20.76042
G1 X-71.468 Y-19.886 E20.79309
G1 X-70.879 Y-20.39 E20.83177
G1 X-70.139 Y-20.873 E20.87585
G1 X-64.701 Y-24.299 E21.19651
G1 X-64.114 Y-24.658 E21.23084
G1 X-63.523 Y-24.973 E21.26425
G1 X-62.997 Y-25.182 E21.29249
G1 X-62.483 Y-25.357 E21.31958
G1 X-61.848 Y-25.532 E21.35244
G1 X-61.277 Y-25.654 E21.38157
G1 X-60.501 Y-25.773 E21.42073
G1 X-59.47 Y-25.787 E21.47218
G1 X-30.809 Y-25.786 E22.90208
G1 X-29.934 Y-25.769 E22.94574
G1 X-29.124 Y-25.708 E22.98627
G1 X-28.514 Y-25.616 E23.01704
G1 X-26.748 Y-25.241 E23.10711
G1 X-24.162 Y-24.744 E23.23849
G1 X-21.528 Y-24.315 E23.37163
G1 X-18.864 Y-23.956 E23.50574
G1 X-16.212 Y-23.677 E23.63878
G1 X-13.561 Y-23.473 E23.77143
G1 X-10.903 Y-23.344 E23.9042
G1 X-7.604 Y-23.287 E24.06881
M205 X10 Y10
G0 F6000 X-7.611 Y-22.887
M205 X8 Y8
G1 F1200 X26.614 Y-22.887 E25.7763
G1 X29.291 Y-22.925 E25.90987
G1 X31.965 Y-23.038 E26.0434
G1 X34.639 Y-23.228 E26.17714
G1 X37.331 Y-23.495 E26.3121
G1 X39.98 Y-23.834 E26.44534
G1 X42.644 Y-24.252 E26.57987
G1 X45.251 Y-24.737 E26.71217
G1 X46.632 Y-25.033 E26.78263
G1 X47.475 Y-25.203 E26.82554
G1 X47.997 Y-25.296 E26.85199
G1 X48.816 Y-25.376 E26.89304
G1 X49.469 Y-25.387 E26.92563
G1 X87.033 Y-25.386 E28.7997
G1 X87.708 Y-25.376 E28.83338
G1 X88.351 Y-25.327 E28.86555
G1 X89.035 Y-25.184 E28.90042
G1 X90.028 Y-24.906 E28.95186
G1 X90.746 Y-24.63 E28.99024
G1 X91.4 Y-24.281 E29.02722
G1 X92.408 Y-23.555 E29.0892
G1 X93.071 Y-22.979 E29.13301
G1 X93.748 Y-22.186 E29.18503
G1 X94.135 Y-21.671 E29.21717
G1 X94.444 Y-21.136 E29.248
G1 X94.71 Y-20.604 E29.27767
G1 X94.962 Y-20.01 E29.30986
G1 X95.13 Y-19.475 E29.33784
G1 X95.334 Y-18.567 E29.38427
G1 X95.455 Y-17.81 E29.42251
G1 X95.476 Y-16.494 E29.48818
G1 X95.465 Y-15.508 E29.53737
G1 X95.386 Y-14.595 E29.58309
G1 X94.997 Y-12.727 E29.67829
G1 X94.837 Y-12.007 E29.71508
G1 X94.332 Y-9.394 E29.84786
G1 X93.897 Y-6.746 E29.98174
G1 X93.541 Y-4.107 E30.11459
G1 X93.254 Y-1.406 E30.2501
G1 X93.048 Y1.23 E30.38201
G1 X92.914 Y3.937 E30.51723
G1 X92.858 Y6.61 E30.65062
G1 X92.877 Y9.287 E30.78418
G1 X92.973 Y11.997 E30.91947
G1 X93.141 Y14.63 E31.05109
G1 X93.388 Y17.301 E31.18492
G1 X93.711 Y19.977 E31.31939
G1 X94.112 Y22.653 E31.45439
G1 X94.575 Y25.249 E31.58595
G1 X95.139 Y27.958 E31.724
G1 X95.343 Y28.884 E31.77131
G1 X95.459 Y29.629 E31.80892
G1 X95.476 Y30.816 E31.86815
G1 X95.466 Y32.046 E31.92952
G1 X95.413 Y32.808 E31.96762
G1 X95.224 Y33.678 E32.01204
G1 X95.094 Y34.206 E32.03917
G1 X94.898 Y34.82 E32.07132
G1 X94.636 Y35.391 E32.10267
G1 X94.354 Y35.918 E32.13249
G1 X93.874 Y36.657 E32.17645
G1 X93.347 Y37.296 E32.21777
G1 X92.811 Y37.849 E32.2562
G1 X91.932 Y38.523 E32.31146
G1 X91.397 Y38.883 E32.34363
G1 X90.895 Y39.142 E32.37181
G1 X89.131 Y39.933 E32.46826
G1 X86.716 Y41.055 E32.60111
G1 X84.281 Y42.273 E32.73695
G1 X81.966 Y43.514 E32.86799
G1 X79.6 Y44.87 E33.00404
G1 X77.32 Y46.263 E33.13734
G1 X75.078 Y47.721 E33.27077
G1 X72.859 Y49.255 E33.40535
G1 X70.725 Y50.823 E33.53747
G1 X68.568 Y52.501 E33.67381
G1 X66.534 Y54.181 E33.80542
G1 X64.504 Y55.954 E33.93989
G1 X62.532 Y57.777 E34.07387
G1 X60.636 Y59.635 E34.20631
G1 X58.753 Y61.585 E34.34155
G1 X56.953 Y63.56 E34.47487
G1 X55.604 Y65.121 E34.5778
G1 X55.058 Y65.659 E34.61604
G1 X54.604 Y66.051 E34.64597
G1 X52.091 Y68.145 E34.80916
G1 X51.515 Y68.614 E34.84622
G1 X50.644 Y69.203 E34.89868
G1 X49.834 Y69.606 E34.94381
G1 X49.24 Y69.857 E34.97598
G1 X48.617 Y70.033 E35.00828
G1 X47.824 Y70.2 E35.04871
G1 X46.865 Y70.293 E35.09678
G1 X46.151 Y70.303 E35.13241
G1 X31.063 Y70.302 E35.88515
G1 X30.363 Y70.292 E35.92008
G1 X29.565 Y70.219 E35.96006
G1 X28.989 Y70.121 E35.98921
G1 X28.476 Y70.007 E36.01542
G1 X27.459 Y69.726 E36.06806
G1 X24.865 Y69.049 E36.20181
G1 X22.235 Y68.443 E36.33646
G1 X19.597 Y67.911 E36.47072
G1 X16.95 Y67.456 E36.60472
G1 X14.317 Y67.079 E36.73742
G1 X11.667 Y66.776 E36.87049
G1 X8.96 Y66.544 E37.00604
G1 X6.324 Y66.393 E37.13776
G1 X3.602 Y66.314 E37.27362
G1 X2.175 Y66.303 E37.34482
G1 X-6.377 Y66.303 E37.77148
G1 X-9.054 Y66.341 E37.90505
G1 X-11.728 Y66.454 E38.03857
G1 X-14.402 Y66.644 E38.17232
G1 X-17.094 Y66.911 E38.30728
G1 X-19.743 Y67.25 E38.44052
G1 X-22.407 Y67.668 E38.57505
G1 X-24.994 Y68.149 E38.70633
G1 X-28.882 Y69.011 E38.90501
G1 X-36.126 Y70.775 E39.27698
G1 X-36.687 Y70.903 E39.30569
G1 X-37.323 Y71.007 E39.33784
G1 X-37.879 Y71.033 E39.36561
G1 X-38.381 Y71.025 E39.39065
G1 X-39.645 Y70.966 E39.45378
G1 X-40.318 Y70.891 E39.48757
G1 X-40.997 Y70.797 E39.52177
G1 X-41.946 Y70.624 E39.56989
G1 X-42.577 Y70.482 E39.60216
G1 X-43.319 Y70.285 E39.64046
G1 X-43.95 Y70.09 E39.67341
G1 X-44.863 Y69.768 E39.72171
G1 X-45.922 Y69.349 E39.77853
G1 X-47.032 Y68.818 E39.83992
G1 X-48.017 Y68.266 E39.89625
G1 X-48.582 Y67.918 E39.92936
G1 X-49.606 Y67.216 E39.9913
G1 X-50.272 Y66.718 E40.03279
G1 X-50.736 Y66.342 E40.06258
G1 X-51.129 Y65.997 E40.08867
G1 X-51.703 Y65.461 E40.12785
G1 X-52.304 Y64.855 E40.17043
G1 X-52.778 Y64.341 E40.20532
G1 X-53.174 Y63.881 E40.2356
G1 X-53.617 Y63.331 E40.27083
G1 X-54.273 Y62.454 E40.32547
G1 X-54.958 Y61.383 E40.3889
G1 X-55.33 Y60.745 E40.42574
G1 X-55.837 Y59.778 E40.48022
G1 X-56.735 Y57.725 E40.59201
G1 X-56.825 Y57.539 E40.60232
G1 X-57.288 Y56.472 E40.66035
G1 X-58.415 Y54.062 E40.79308
G1 X-59.61 Y51.682 E40.92594
G1 X-60.901 Y49.283 E41.06186
G1 X-62.219 Y46.993 E41.19368
G1 X-63.631 Y44.692 E41.32837
G1 X-65.102 Y42.439 E41.46261
G1 X-66.613 Y40.264 E41.59474
G1 X-68.227 Y38.073 E41.7305
G1 X-69.856 Y35.989 E41.86247
G1 X-71.132 Y34.467 E41.96156
G1 X-72.055 Y33.349 E42.03389
G1 X-72.665 Y32.497 E42.08616
G1 X-73.008 Y31.951 E42.11833
G1 X-73.302 Y31.336 E42.15234
G1 X-73.577 Y30.59 E42.19201
G1 X-73.808 Y29.819 E42.23216
G1 X-73.956 Y28.626 E42.29214
G1 X-73.984 Y27.982 E42.3243
G1 X-73.955 Y27.436 E42.35157
G1 X-73.844 Y26.493 E42.39895
G1 X-73.355 Y23.922 E42.52951
G1 X-72.922 Y21.271 E42.66352
G1 X-72.564 Y18.603 E42.79782
G1 X-72.283 Y15.955 E42.93068
G1 X-72.076 Y13.265 E43.06528
G1 X-71.945 Y10.587 E43.19904
G1 X-71.891 Y7.911 E43.33258
G1 X-71.911 Y5.236 E43.46604
G1 X-72.009 Y2.528 E43.60123
G1 X-72.179 Y-.109 E43.73306
G1 X-72.43 Y-2.81 E43.8684
G1 X-72.752 Y-5.458 E44.00148
G1 X-73.149 Y-8.094 E44.13447
G1 X-73.885 Y-12.122 E44.33876
G1 X-73.963 Y-12.959 E44.3807
G1 X-73.986 Y-13.741 E44.41973
G1 X-73.864 Y-14.77 E44.47142
G1 X-73.713 Y-15.594 E44.51322
G1 X-73.27 Y-16.768 E44.57582
G1 X-72.929 Y-17.487 E44.61552
G1 X-72.267 Y-18.443 E44.67353
G1 X-71.661 Y-19.143 E44.71973
G1 X-71.19 Y-19.598 E44.7524
G1 X-70.632 Y-20.073 E44.78896
G1 X-70.003 Y-20.485 E44.82647
G1 X-64.492 Y-23.958 E45.15146
G1 X-63.905 Y-24.317 E45.18579
G1 X-63.335 Y-24.619 E45.21797
G1 X-62.868 Y-24.804 E45.24303
G1 X-62.354 Y-24.979 E45.27012
G1 X-61.765 Y-25.141 E45.30059
G1 X-61.194 Y-25.263 E45.32972
G1 X-60.463 Y-25.373 E45.3666
G1 X-59.47 Y-25.387 E45.41615
G1 X-30.817 Y-25.386 E46.84565
G1 X-29.942 Y-25.369 E46.88932
G1 X-29.162 Y-25.31 E46.92834
G1 X-28.595 Y-25.224 E46.95695
G1 X-26.867 Y-24.857 E47.04509
G1 X-24.202 Y-24.345 E47.18048
G1 X-21.604 Y-23.922 E47.3118
G1 X-18.893 Y-23.557 E47.44827
G1 X-16.284 Y-23.283 E47.57915
G1 X-13.577 Y-23.074 E47.7146
G1 X-10.896 Y-22.943 E47.84852
G1 X-7.611 Y-22.887 E48.01243
M205 X10 Y10
G1 F1800 E42.01243
G1 F480 Z0.375
;MESH:Peon230_Top_v1.1.stl
G0 F6000 X5.901 Y-8.905 Z0.375
M205 X8 Y8
;TYPE:WALL-INNER
G1 F480 Z0.3
G1 F1800 E48.01243
G1 F1200 X5.37 Y-8.686 E48.04109
G1 X-1.683 Y-8.686 E48.39296
G1 X-12.724 Y-8.687 E48.9438
