;FLAVOR:Marlin
;TIME:11781
;Filament used: 11.8696m
;Layer height: 0.3
;MINX:19.888
;MINY:71.9
;MINZ:0.3
;MAXX:190.136
;MAXY:138.1
;MAXZ:9.975
;Generated with Cura_SteamEngine 5.2.1
M82 ;absolute extrusion mode
;Profil Homepage: https://github.com/NilsRo/Cura_Anycubic_MegaS_Profile

;Slicer Information - (Support for OctoPrint Slicer Estimator)
;Slicer info:material_guid;0ff92885-617b-4144-a03c-9989872454bc
;Slicer info:material_id;generic_pla_175
;Slicer info:material_brand;Generic
;Slicer info:material_name;PLA
;Slicer info:filament_cost;[0.0]
;Slicer info:material_bed_temperature;60
;Slicer info:material_bed_temperature_layer_0;60
;Slicer info:material_print_temperature;200
;Slicer info:material_print_temperature_layer_0;205
;Slicer info:material_flow;100
;Slicer info:layer_height;0.3
;Slicer info:machine_nozzle_size;0.4
;Slicer info:wall_thickness;1.2000000000000002
;Slicer info:speed_print;50.0
;Slicer info:speed_topbottom;25.0
;Slicer info:travel_speed;100.0
;Slicer info:support;0
;Slicer info:retraction_speed;30
;Slicer info:retraction_amount;6
;Slicer info:layer_height;0.3
;Slicer info:infill_pattern;grid
;Slicer info:infill_sparse_density;25
;Slicer info:cool_fan_enabled;True
;Slicer info:cool_fan_speed;100
;Slicer info:sliced_at;Thu 29-12-2022 21:55:59
G21                                        ; metric values 
G90                                        ; absolute positioning 
M82                                        ; set extruder to absolute mode 
M107                                       ; start with the fan off 
M140 S60   ; Start heating the bed 
G4 S60                                     ; wait 1 minute 
M104 S205 ; start heating the hot end 
M190 S60   ; wait for bed 
M109 S205 ; wait for hotend 
M300 S1000 P500                            ; BEEP heating done 
G28 X0 Y10 Z0                              ; move X/Y to min endstops 
M420 S1                                    ; Enable leveling 
M420 Z2.0                                  ; Set leveling fading height to 2 mm 
G0 Z0.15                                   ; lift nozzle a bit 
G92 E0                                     ; zero the extruded length 
G1 X50 E20 F500                            ; Extrude 20mm of filament in a 5cm line. 
G92 E0                                     ; zero the extruded length again 
G1 E-2 F500                                ; Retract a little 
G1 X50 F500                                ; wipe away from the filament line
G1 X100 F9000                              ; Quickly wipe away from the filament line
G92 E0
G92 E0
G1 F1800 E-6
;LAYER_COUNT:33
;LAYER:0
M106 S76.5
M205 X10 Y10
G1 F480 Z0.375
G0 F6000 X30.757 Y72.707 Z0.375
M205 X8 Y8
;TYPE:SKIRT
G1 F480 Z0.3
G1 F1800 E0
G1 F1200 X31.252 Y72.51 E0.02658
G1 X31.828 Y72.312 E0.05697
G1 X32.883 Y72.049 E0.11121
G1 X33.997 Y71.92 E0.16716
G1 X34.741 Y71.9 E0.20429
G1 X63.671 Y71.901 E1.64762
G1 X64.425 Y71.913 E1.68524
G1 X65.193 Y71.971 E1.72366
G1 X67.249 Y72.399 E1.82844
G1 X69.951 Y72.923 E1.96575
G1 X72.592 Y73.357 E2.09928
G1 X75.237 Y73.715 E2.23244
G1 X77.864 Y73.996 E2.36425
G1 X80.552 Y74.206 E2.49876
G1 X83.205 Y74.339 E2.63129
G1 X86.63 Y74.4 E2.80219
G1 X120.739 Y74.4 E4.50389
G1 X123.399 Y74.362 E4.63662
G1 X126.084 Y74.248 E4.77069
G1 X128.738 Y74.06 E4.90343
G1 X131.404 Y73.796 E5.03709
G1 X134.068 Y73.455 E5.17108
G1 X136.669 Y73.046 E5.30244
G1 X139.362 Y72.546 E5.43909
G1 X141.424 Y72.109 E5.54425
G1 X142.023 Y72.015 E5.5745
G1 X142.893 Y71.927 E5.61813
G1 X144.24 Y71.901 E5.68534
G1 X181.292 Y71.901 E7.53387
G1 X181.971 Y71.911 E7.56775
G1 X182.639 Y71.96 E7.60117
G1 X183.396 Y72.117 E7.63974
G1 X184.336 Y72.384 E7.68849
G1 X185.059 Y72.661 E7.72712
G1 X185.525 Y72.9 E7.75325
G1 X185.998 Y73.171 E7.78044
G1 X186.558 Y73.538 E7.81385
G1 X186.958 Y73.866 E7.83965
G1 X187.543 Y74.392 E7.8789
G1 X188.013 Y74.868 E7.91228
G1 X188.397 Y75.359 E7.94337
G1 X188.778 Y75.907 E7.97667
G1 X189.126 Y76.478 E8.01003
G1 X189.377 Y77.018 E8.03974
G1 X189.601 Y77.595 E8.07062
G1 X189.819 Y78.23 E8.10412
G1 X189.998 Y78.874 E8.13746
G1 X190.116 Y79.649 E8.17657
G1 X190.136 Y80.922 E8.24009
G1 X190.125 Y82.159 E8.30181
G1 X190.059 Y82.966 E8.34221
G1 X189.974 Y83.474 E8.3679
G1 X189.733 Y84.648 E8.42769
G1 X189.439 Y85.985 E8.49599
G1 X188.935 Y88.628 E8.63023
G1 X188.507 Y91.268 E8.76366
G1 X188.159 Y93.89 E8.89562
G1 X187.881 Y96.568 E9.02994
G1 X187.681 Y99.211 E9.16218
G1 X187.553 Y101.9 E9.29648
G1 X187.504 Y104.534 E9.42792
G1 X187.529 Y107.241 E9.56298
G1 X187.629 Y109.889 E9.69518
G1 X187.807 Y112.575 E9.82948
G1 X188.056 Y115.213 E9.96167
G1 X188.385 Y117.883 E10.09589
G1 X188.784 Y120.509 E10.2284
G1 X189.256 Y123.114 E10.36048
G1 X189.924 Y126.272 E10.52152
G1 X190.041 Y126.92 E10.55437
G1 X190.133 Y127.798 E10.59842
G1 X190.136 Y129.226 E10.66966
G1 X190.125 Y130.011 E10.70883
G1 X190.076 Y130.678 E10.74219
G1 X189.924 Y131.45 E10.78145
G1 X189.649 Y132.262 E10.82422
G1 X189.414 Y132.893 E10.85781
G1 X189.14 Y133.504 E10.89122
G1 X188.798 Y134.075 E10.92443
G1 X188.491 Y134.524 E10.95156
G1 X188.081 Y135.052 E10.98491
G1 X187.729 Y135.419 E11.01029
G1 X187.148 Y135.972 E11.0503
G1 X186.637 Y136.404 E11.08369
G1 X186.068 Y136.777 E11.11763
G1 X185.339 Y137.194 E11.15953
G1 X184.739 Y137.491 E11.19293
G1 X183.986 Y137.757 E11.23277
G1 X183.201 Y137.917 E11.27274
G1 X182.681 Y138.004 E11.29904
G1 X181.863 Y138.08 E11.34003
G1 X180.756 Y138.1 E11.39527
G1 X143.992 Y138.099 E13.22943
G1 X143.23 Y138.088 E13.26745
G1 X142.15 Y137.999 E13.32152
G1 X141.458 Y137.898 E13.35641
G1 X138.981 Y137.377 E13.48269
G1 X136.33 Y136.895 E13.61711
G1 X133.678 Y136.49 E13.75096
G1 X131.079 Y136.167 E13.88162
G1 X128.358 Y135.908 E14.01798
G1 X125.75 Y135.733 E14.14839
G1 X123.063 Y135.629 E14.28255
G1 X120.684 Y135.6 E14.40124
G1 X86.556 Y135.6 E16.1039
G1 X83.896 Y135.638 E16.23662
G1 X81.211 Y135.752 E16.37069
G1 X78.557 Y135.94 E16.50343
G1 X75.891 Y136.204 E16.63709
G1 X73.227 Y136.545 E16.77108
G1 X70.626 Y136.954 E16.90244
G1 X67.968 Y137.448 E17.03732
G1 X65.844 Y137.899 E17.14565
G1 X65.29 Y138.001 E17.17375
G1 X64.401 Y138.089 E17.21832
G1 X63.758 Y138.1 E17.25041
G1 X34.764 Y138.099 E18.69692
G1 X34.053 Y138.088 E18.7324
G1 X32.879 Y137.966 E18.79129
G1 X31.884 Y137.699 E18.84268
G1 X31.201 Y137.463 E18.87874
G1 X30.583 Y137.207 E18.91211
G1 X30.124 Y136.957 E18.93818
G1 X29.648 Y136.668 E18.96597
G1 X24.049 Y133.139 E19.29616
G1 X23.448 Y132.748 E19.33193
G1 X22.91 Y132.35 E19.36532
G1 X22.206 Y131.647 E19.41495
G1 X21.746 Y131.097 E19.45072
G1 X21.282 Y130.469 E19.48968
G1 X20.777 Y129.556 E19.54173
G1 X20.488 Y128.952 E19.57514
G1 X20.285 Y128.357 E19.6065
G1 X20.054 Y127.446 E19.65339
G1 X19.915 Y126.649 E19.69375
G1 X19.888 Y125.611 E19.74556
G1 X19.915 Y124.805 E19.78579
G1 X20.118 Y123.709 E19.8414
G1 X20.617 Y121.044 E19.97667
G1 X21.035 Y118.396 E20.11041
G1 X21.375 Y115.76 E20.24301
G1 X21.641 Y113.117 E20.37554
G1 X21.834 Y110.436 E20.50964
G1 X21.951 Y107.75 E20.64377
G1 X21.99 Y105.132 E20.7744
G1 X21.955 Y102.411 E20.91016
G1 X21.845 Y99.759 E21.04259
G1 X21.66 Y97.106 E21.17527
G1 X21.398 Y94.44 E21.30891
G1 X21.063 Y91.798 E21.44178
G1 X20.654 Y89.169 E21.57452
G1 X19.971 Y85.495 E21.76096
G1 X19.893 Y84.71 E21.80031
G1 X19.894 Y83.82 E21.84471
G1 X19.947 Y83.153 E21.8781
G1 X20.044 Y82.639 E21.90419
G1 X20.222 Y81.887 E21.94275
G1 X20.414 Y81.246 E21.97613
G1 X20.635 Y80.729 E22.00418
G1 X21.004 Y79.994 E22.04521
G1 X21.619 Y79.074 E22.10042
G1 X22.122 Y78.448 E22.14049
G1 X22.571 Y77.953 E22.17383
G1 X23.163 Y77.439 E22.21294
G1 X24.156 Y76.791 E22.2721
G1 X29.559 Y73.387 E22.59069
G1 X30.165 Y73.019 E22.62606
G1 X30.757 Y72.707 E22.65945
M205 X10 Y10
G0 F6000 X31.074 Y72.994
M205 X8 Y8
G1 F1200 X31.958 Y72.69 E22.70609
G1 X32.938 Y72.446 E22.75647
G1 X34.029 Y72.32 E22.81126
G1 X34.741 Y72.3 E22.8468
G1 X63.665 Y72.301 E24.28982
G1 X64.419 Y72.313 E24.32745
G1 X65.153 Y72.37 E24.36418
G1 X67.241 Y72.805 E24.47058
G1 X69.876 Y73.316 E24.60449
G1 X72.516 Y73.75 E24.73797
G1 X75.178 Y74.111 E24.87199
G1 X77.861 Y74.397 E25.00661
G1 X80.499 Y74.604 E25.13862
G1 X83.209 Y74.739 E25.27399
G1 X86.623 Y74.8 E25.44434
G1 X120.744 Y74.8 E27.14665
G1 X123.421 Y74.762 E27.28022
G1 X126.095 Y74.649 E27.41374
G1 X128.769 Y74.459 E27.54749
G1 X131.461 Y74.192 E27.68245
G1 X134.11 Y73.853 E27.81569
G1 X136.774 Y73.435 E27.95022
G1 X139.385 Y72.949 E28.08272
G1 X141.506 Y72.5 E28.19088
G1 X142.063 Y72.413 E28.21901
G1 X142.918 Y72.327 E28.26188
G1 X144.35 Y72.3 E28.33334
G1 X181.287 Y72.301 E30.17613
G1 X181.966 Y72.311 E30.21001
G1 X182.608 Y72.36 E30.24213
G1 X183.288 Y72.502 E30.27679
G1 X184.218 Y72.765 E30.32501
G1 X185.042 Y73.084 E30.36909
G1 X185.799 Y73.518 E30.41262
G1 X186.455 Y73.951 E30.45184
G1 X187.276 Y74.689 E30.50691
G1 X187.728 Y75.149 E30.53909
G1 X188.069 Y75.588 E30.56682
G1 X188.45 Y76.136 E30.60012
G1 X188.784 Y76.687 E30.63226
G1 X189.006 Y77.167 E30.65865
G1 X189.222 Y77.725 E30.6885
G1 X189.44 Y78.36 E30.722
G1 X189.611 Y78.981 E30.75413
G1 X189.717 Y79.709 E30.79083
G1 X189.736 Y80.918 E30.85116
G1 X189.725 Y82.155 E30.91288
G1 X189.652 Y83.054 E30.95787
G1 X189.326 Y84.639 E31.03861
G1 X189.042 Y85.93 E31.10455
G1 X188.54 Y88.561 E31.23818
G1 X188.115 Y91.189 E31.371
G1 X187.76 Y93.863 E31.50557
G1 X187.482 Y96.533 E31.6395
G1 X187.281 Y99.198 E31.77284
G1 X187.154 Y101.874 E31.90649
G1 X187.104 Y104.546 E32.03982
G1 X187.13 Y107.26 E32.17523
G1 X187.228 Y109.894 E32.30673
G1 X187.408 Y112.606 E32.44233
G1 X187.659 Y115.263 E32.57548
G1 X187.987 Y117.921 E32.7091
G1 X188.39 Y120.575 E32.84302
G1 X188.871 Y123.229 E32.97759
G1 X189.532 Y126.355 E33.13699
G1 X189.647 Y126.989 E33.16914
G1 X189.733 Y127.813 E33.21047
G1 X189.736 Y129.227 E33.28102
G1 X189.725 Y130.005 E33.31983
G1 X189.676 Y130.648 E33.35201
G1 X189.531 Y131.363 E33.38841
G1 X189.27 Y132.133 E33.42897
G1 X189.039 Y132.752 E33.46193
G1 X188.775 Y133.339 E33.49404
G1 X188.468 Y133.849 E33.52374
G1 X188.161 Y134.298 E33.55088
G1 X187.682 Y134.912 E33.58973
G1 X186.872 Y135.683 E33.64552
G1 X186.378 Y136.097 E33.67767
G1 X185.869 Y136.43 E33.70802
G1 X185.14 Y136.847 E33.74992
G1 X184.562 Y137.132 E33.78207
G1 X183.661 Y137.415 E33.82919
G1 X183.135 Y137.523 E33.85598
G1 X182.615 Y137.61 E33.88228
G1 X181.856 Y137.68 E33.92031
G1 X180.756 Y137.7 E33.9752
G1 X143.997 Y137.699 E35.80911
G1 X143.254 Y137.688 E35.84618
G1 X142.183 Y137.6 E35.8998
G1 X141.54 Y137.507 E35.93221
G1 X139.022 Y136.977 E36.06058
G1 X136.396 Y136.5 E36.19374
G1 X133.75 Y136.096 E36.32728
G1 X131.094 Y135.766 E36.46081
G1 X128.422 Y135.511 E36.59472
G1 X125.757 Y135.332 E36.72798
G1 X123.084 Y135.229 E36.86143
G1 X120.689 Y135.2 E36.98093
G1 X86.551 Y135.2 E38.68408
G1 X83.874 Y135.238 E38.81765
G1 X81.2 Y135.351 E38.95117
G1 X78.526 Y135.541 E39.08492
G1 X75.834 Y135.808 E39.21988
G1 X73.185 Y136.147 E39.35312
G1 X70.521 Y136.565 E39.48765
G1 X67.897 Y137.053 E39.62081
G1 X65.325 Y137.598 E39.75197
G1 X64.393 Y137.689 E39.79869
G1 X63.758 Y137.7 E39.83038
G1 X34.771 Y137.699 E41.27655
G1 X34.06 Y137.688 E41.31202
G1 X32.957 Y137.573 E41.36735
G1 X32.015 Y137.321 E41.416
G1 X31.332 Y137.085 E41.45205
G1 X30.605 Y136.782 E41.49134
G1 X29.781 Y136.28 E41.53948
G1 X24.267 Y132.804 E41.86468
G1 X23.666 Y132.413 E41.90045
G1 X23.149 Y132.028 E41.93261
G1 X22.513 Y131.39 E41.97755
G1 X22.053 Y130.84 E42.01332
G1 X21.619 Y130.25 E42.04986
G1 X21.127 Y129.362 E42.10051
G1 X20.85 Y128.78 E42.13267
G1 X20.67 Y128.249 E42.16064
G1 X20.443 Y127.354 E42.20671
G1 X20.314 Y126.601 E42.24482
G1 X20.288 Y125.601 E42.29473
G1 X20.35 Y124.65 E42.34227
G1 X20.519 Y123.746 E42.38816
G1 X21.011 Y121.114 E42.52174
G1 X21.428 Y118.472 E42.65518
G1 X21.772 Y115.814 E42.7889
G1 X22.039 Y113.15 E42.92247
G1 X22.234 Y110.446 E43.05772
G1 X22.35 Y107.774 E43.19116
G1 X22.39 Y105.133 E43.32293
G1 X22.355 Y102.424 E43.45809
G1 X22.243 Y99.715 E43.59336
G1 X22.058 Y97.076 E43.72535
G1 X21.798 Y94.422 E43.85839
G1 X21.456 Y91.724 E43.99407
G1 X21.048 Y89.101 E44.1265
G1 X20.537 Y86.346 E44.2663
G1 X20.365 Y85.428 E44.31289
G1 X20.293 Y84.699 E44.34944
G1 X20.294 Y83.828 E44.39289
G1 X20.357 Y83.054 E44.43164
G1 X20.611 Y81.979 E44.48675
G1 X20.858 Y81.164 E44.52923
G1 X21.425 Y80.08 E44.59026
G1 X21.93 Y79.325 E44.63558
G1 X22.433 Y78.699 E44.67565
G1 X22.868 Y78.222 E44.70785
G1 X23.425 Y77.745 E44.74444
G1 X24.302 Y77.173 E44.79668
G1 X29.767 Y73.729 E45.11895
G1 X30.373 Y73.361 E45.15432
G1 X31.074 Y72.994 E45.1938
M205 X10 Y10
G1 F1800 E39.1938
G1 F480 Z0.375
;MESH:Peon230_Base_v1.1.stl
G0 F6000 X31.894 Y82.303 Z0.375
M205 X8 Y8
;TYPE:WALL-INNER
G1 F480 Z0.3
G1 F1800 E45.1938
G1 F1200 X32.501 Y81.935 E45.22921
G1 X33.342 Y81.769 E45.27198
G1 X33.73 Y81.769 E45.29134
G1 X34.577 Y81.936 E45.33441
G1 X35.214 Y82.337 E45.37196
G1 X35.812 Y82.935 E45.41415
G1 X36.115 Y83.535 E45.44769
G1 X36.305 Y84.5 E45.49676
G1 X36.104 Y85.514 E45.54833
G1 X35.755 Y86.123 E45.58335
G1 X35.098 Y86.776 E45.62956
G1 X34.522 Y87.075 E45.66194
G1 X33.534 Y87.268 E45.71216
G1 X32.498 Y87.065 E45.76483
G1 X31.858 Y86.663 E45.80254
G1 X31.273 Y86.078 E45.84381
G1 X30.961 Y85.488 E45.87711
G1 X30.767 Y84.5 E45.92734
G1 X30.972 Y83.459 E45.98028
G1 X31.373 Y82.822 E46.01783
G1 X31.894 Y82.303 E46.05452
M205 X10 Y10
G1 F1800 E40.05452
G1 F480 Z0.375
G0 F6000 X34.427 Y82.315 Z0.375
M205 X8 Y8
G1 F480 Z0.3
G1 F1800 E46.05452
G1 F1200 X34.931 Y82.62 E46.08391
G1 X35.483 Y83.172 E46.12285
G1 X35.72 Y83.631 E46.14863
G1 X35.896 Y84.488 E46.19227
G1 X35.726 Y85.373 E46.23723
G1 X35.44 Y85.869 E46.2658
G1 X34.87 Y86.439 E46.30602
G1 X34.4 Y86.691 E46.33262
G1 X33.537 Y86.861 E46.3765
G1 X32.648 Y86.686 E46.42171
G1 X32.141 Y86.38 E46.45125
G1 X31.596 Y85.835 E46.4897
G1 X31.345 Y85.363 E46.51638
G1 X31.178 Y84.515 E46.5595
G1 X31.35 Y83.611 E46.6054
G1 X31.656 Y83.105 E46.63491
G1 X32.203 Y82.56 E46.67343
G1 X32.749 Y82.294 E46.70373
G1 X33.42 Y82.162 E46.73785
G1 X33.652 Y82.162 E46.74942
G1 X34.427 Y82.315 E46.78883
M205 X10 Y10
G1 F1800 E40.78883
G1 F480 Z0.375
G0 F6000 X31.583 Y84.506 Z0.375
M205 X8 Y8
;TYPE:WALL-OUTER
G1 F480 Z0.3
G1 F1800 E46.78883
G1 F1200 X31.728 Y83.76 E46.82675
G1 X31.917 Y83.41 E46.84659
G1 X32.431 Y82.896 E46.88286
G1 X32.794 Y82.692 E46.90363
G1 X33.497 Y82.554 E46.93938
G1 X33.575 Y82.554 E46.94327
G1 X34.278 Y82.693 E46.97902
G1 X34.648 Y82.903 E47.00024
G1 X35.156 Y83.411 E47.03609
G1 X35.342 Y83.763 E47.05595
G1 X35.489 Y84.496 E47.09325
G1 X35.345 Y85.235 E47.13081
G1 X35.159 Y85.58 E47.15036
G1 X34.639 Y86.106 E47.18726
G1 X34.282 Y86.303 E47.20761
G1 X33.536 Y86.454 E47.24558
G1 X32.827 Y86.314 E47.28163
G1 X32.447 Y86.12 E47.30292
G1 X31.91 Y85.576 E47.34106
G1 X31.733 Y85.245 E47.35978
G1 X31.583 Y84.506 E47.3974
M205 X10 Y10
G0 F6000 X31.621 Y84.31
G1 F1800 E41.3974
G1 F480 Z0.375
G0 F6000 X29.448 Y92.088 Z0.375
M205 X8 Y8
;TYPE:WALL-INNER
G1 F480 Z0.3
G1 F1800 E47.3974
G1 F1200 X29.537 Y93.076 E47.44689
G1 X29.536 Y116.936 E48.63727
G1 X29.448 Y117.913 E48.68621
G1 X26.554 Y125.153 E49.07521
G1 X26.486 Y126.001 E49.11765
G1 X26.602 Y126.469 E49.14171
G1 X26.838 Y126.913 E49.16679
G1 X27.162 Y127.3 E49.19197
G1 X33.469 Y131.274 E49.56388
G1 X34.246 Y131.5 E49.60425
G1 X64.3 Y131.5 E51.10365
G1 X73.042 Y129.125 E51.5556
G1 X73.682 Y129 E51.58814
G1 X77.714 Y129 E51.78929
G1 F969.7 X78.168 Y128.903 E51.81796
G1 F814.9 X78.855 Y128.905 E51.86843
G1 F971.7 X79.444 Y128.999 E51.90518
G1 F1200 X118.585 Y129 E53.85793
G1 F971.7 X119.268 Y128.905 E53.90042
G1 F816.3 X119.804 Y128.905 E53.93973
G1 F971.7 X120.487 Y129 E53.98221
G1 F1200 X126.585 Y129 E54.28644
G1 F971.7 X127.268 Y128.905 E54.32893
G1 F816.3 X127.804 Y128.905 E54.36824
G1 F971.7 X128.487 Y129 E54.41073
G1 F1200 X136.049 Y129.003 E54.788
G1 X136.952 Y129.089 E54.83325
G1 X142.847 Y131.445 E55.14997
G1 X143.414 Y131.5 E55.17839
G1 X181.609 Y131.5 E57.08395
G1 X182.216 Y131.389 E57.11474
G1 X182.669 Y131.137 E57.1406
G1 X183.08 Y130.758 E57.16849
G1 X183.295 Y130.434 E57.18789
G1 X183.536 Y129.766 E57.22332
G1 X183.536 Y128.277 E57.29761
