;FLAVOR:Marlin
;TIME:6958
;Filament used: 11.267m
;Layer height: 0.3
;MINX:19.083
;MINY:71.1
;MINZ:0.3
;MAXX:190.936
;MAXY:138.899
;MAXZ:9.9
;Generated with Cura_SteamEngine 5.2.1
M140 S60
M105
M190 S60
M104 S200
M105
M109 S200
M82 ;absolute extrusion mode
G21 ;metric values
G90 ;absolute positioning
M82 ;set extruder to absolute mode
M107 ;start with the fan off
G28 X0 Y0 ;move X/Y to min endstops
G28 Z0 ;move Z to min endstops
G1 Z15.0 F100 ;move the platform down 15mm
G92 E0 ;zero the extruded length
G1 F200 E3 ;extrude 3mm of feed stock
G92 E0 ;zero the extruded length again
G1 F100
G0 Y20 F100
M117 Printing...
G5
G92 E0
G92 E0
G1 F2400 E-6
;LAYER_COUNT:33
;LAYER:0
M107
M204 S3000
M205 X10 Y10
G1 F600 Z0.375
G0 F3000 X30.378 Y71.999 Z0.375
M204 S1800
M205 X8 Y8
;TYPE:SKIRT
G1 F600 Z0.3
G1 F2400 E0
G1 X31.006 Y71.747 E0.04726
G1 X31.58 Y71.551 E0.08963
G1 X32.384 Y71.326 E0.14794
G1 X33.137 Y71.215 E0.2011
G1 X33.663 Y71.154 E0.23809
G1 X34.194 Y71.114 E0.27528
G1 X34.741 Y71.1 E0.3135
G1 X63.582 Y71.1 E2.32794
G1 X64.438 Y71.113 E2.38773
G1 X65.29 Y71.174 E2.44739
G1 X67.424 Y71.618 E2.59964
G1 X70.09 Y72.135 E2.78932
G1 X72.692 Y72.563 E2.9735
G1 X75.322 Y72.919 E3.15887
G1 X77.977 Y73.203 E3.34537
G1 X80.583 Y73.407 E3.52795
G1 X83.227 Y73.539 E3.71285
G1 X86.645 Y73.6 E3.95162
G1 X120.839 Y73.6 E6.33995
G1 X123.502 Y73.562 E6.52597
G1 X126.14 Y73.45 E6.71039
G1 X128.786 Y73.263 E6.89566
G1 X131.443 Y72.999 E7.08216
G1 X134.058 Y72.665 E7.26629
G1 X136.654 Y72.257 E7.44984
G1 X139.292 Y71.766 E7.63725
G1 X141.456 Y71.307 E7.79176
G1 X142.329 Y71.17 E7.85349
G1 X143.114 Y71.122 E7.90842
G1 X144.209 Y71.101 E7.98491
G1 X181.094 Y71.101 E10.56119
G1 X181.792 Y71.111 E10.60995
G1 X182.744 Y71.18 E10.67662
G1 X183.758 Y71.383 E10.74885
G1 X184.612 Y71.637 E10.81108
G1 X185.405 Y71.935 E10.87025
G1 X186.353 Y72.442 E10.94534
G1 X187.101 Y72.934 E11.00787
G1 X187.771 Y73.485 E11.06846
G1 X188.452 Y74.14 E11.13446
G1 X189.096 Y74.922 E11.20522
G1 X189.57 Y75.656 E11.26624
G1 X190.097 Y76.626 E11.34335
G1 X190.534 Y77.801 E11.43091
G1 X190.824 Y79.053 E11.52067
G1 X190.926 Y80.224 E11.60277
G1 X190.936 Y81.316 E11.67905
G1 X190.924 Y82.205 E11.74115
G1 X190.85 Y83.088 E11.80304
G1 X190.757 Y83.635 E11.84179
G1 X190.498 Y84.897 E11.93177
G1 X190.219 Y86.164 E12.02239
G1 X189.724 Y88.763 E12.20718
G1 X189.297 Y91.398 E12.39363
G1 X188.956 Y93.97 E12.57485
G1 X188.678 Y96.635 E12.762
G1 X188.479 Y99.273 E12.94677
G1 X188.353 Y101.918 E13.13173
G1 X188.304 Y104.534 E13.31448
G1 X188.329 Y107.203 E13.5009
G1 X188.429 Y109.875 E13.68766
G1 X188.602 Y112.484 E13.87029
G1 X188.853 Y115.144 E14.05691
G1 X189.178 Y117.773 E14.24193
G1 X189.57 Y120.355 E14.42434
G1 X190.047 Y122.987 E14.61117
G1 X190.7 Y126.07 E14.83129
G1 X190.829 Y126.781 E14.88176
G1 X190.933 Y127.779 E14.95184
G1 X190.936 Y129 E15.03713
G1 X190.924 Y129.826 E15.09482
G1 X190.824 Y130.957 E15.17413
G1 X190.566 Y132.048 E15.25243
G1 X190.407 Y132.555 E15.28955
G1 X190.054 Y133.467 E15.35785
G1 X189.512 Y134.434 E15.43528
G1 X189.16 Y134.962 E15.4796
G1 X188.406 Y135.911 E15.56426
G1 X187.477 Y136.78 E15.65311
G1 X186.48 Y137.475 E15.738
G1 X185.715 Y137.899 E15.79909
G1 X184.724 Y138.34 E15.87485
G1 X183.693 Y138.63 E15.94965
G1 X182.912 Y138.784 E16.00525
G1 X181.885 Y138.879 E16.07729
G1 X180.845 Y138.899 E16.14995
G1 X143.98 Y138.899 E18.72483
G1 X143.206 Y138.888 E18.7789
G1 X142.296 Y138.816 E18.84266
G1 X141.48 Y138.698 E18.90024
G1 X138.949 Y138.164 E19.08092
G1 X136.35 Y137.69 E19.26544
G1 X133.751 Y137.292 E19.44909
G1 X131.099 Y136.962 E19.63575
G1 X128.485 Y136.712 E19.81916
G1 X125.807 Y136.532 E20.00663
G1 X123.164 Y136.429 E20.19137
G1 X120.865 Y136.4 E20.35196
G1 X86.568 Y136.4 E22.74748
G1 X83.905 Y136.438 E22.9335
G1 X81.267 Y136.55 E23.11792
G1 X78.621 Y136.737 E23.30319
G1 X75.964 Y137.001 E23.48969
G1 X73.349 Y137.335 E23.67382
G1 X70.753 Y137.743 E23.85737
G1 X68.123 Y138.232 E24.04421
G1 X66.01 Y138.681 E24.19509
G1 X65.386 Y138.795 E24.2394
G1 X64.406 Y138.889 E24.30816
G1 X63.879 Y138.899 E24.34498
G1 X34.752 Y138.899 E26.37939
G1 X34.041 Y138.888 E26.42906
G1 X33.328 Y138.837 E26.47898
G1 X32.492 Y138.688 E26.5383
G1 X31.623 Y138.455 E26.60114
G1 X30.94 Y138.219 E26.65161
G1 X30.278 Y137.948 E26.70157
G1 X29.719 Y137.647 E26.74592
G1 X29.187 Y137.324 E26.78939
G1 X23.812 Y133.936 E27.23317
G1 X23.174 Y133.522 E27.28629
G1 X22.597 Y133.099 E27.33626
G1 X22.048 Y132.608 E27.3877
G1 X21.539 Y132.083 E27.43878
G1 X21.202 Y131.693 E27.47478
G1 X20.766 Y131.127 E27.52468
G1 X20.432 Y130.583 E27.56927
G1 X20.059 Y129.902 E27.6235
G1 X19.751 Y129.257 E27.67342
G1 X19.512 Y128.564 E27.72463
G1 X19.304 Y127.792 E27.78047
G1 X19.15 Y126.925 E27.84197
G1 X19.106 Y126.325 E27.88399
G1 X19.088 Y125.632 E27.93241
G1 X19.116 Y124.726 E27.99573
G1 X19.335 Y123.547 E28.07948
G1 X19.827 Y120.915 E28.2665
G1 X20.245 Y118.272 E28.4534
G1 X20.578 Y115.685 E28.63558
G1 X20.844 Y113.049 E28.82063
G1 X21.036 Y110.379 E29.00761
G1 X21.151 Y107.739 E29.19217
G1 X21.191 Y105.096 E29.3768
G1 X21.157 Y102.489 E29.5589
G1 X21.044 Y99.778 E29.74842
G1 X20.862 Y97.168 E29.93116
G1 X20.606 Y94.55 E30.11489
G1 X20.271 Y91.914 E30.30049
G1 X19.863 Y89.295 E30.48562
G1 X19.355 Y86.553 E30.6804
G1 X19.19 Y85.715 E30.74005
G1 X19.093 Y84.733 E30.80898
G1 X19.083 Y83.956 E30.86325
G1 X19.148 Y83.091 E30.92384
G1 X19.265 Y82.455 E30.96901
G1 X19.443 Y81.703 E31.02298
G1 X19.646 Y81.017 E31.07295
G1 X19.92 Y80.368 E31.12216
G1 X20.287 Y79.641 E31.17904
G1 X20.811 Y78.802 E31.24813
G1 X21.327 Y78.159 E31.30571
G1 X22.042 Y77.403 E31.37839
G1 X22.436 Y77.049 E31.41539
G1 X23.222 Y76.446 E31.48458
G1 X23.807 Y76.066 E31.53331
G1 X29.106 Y72.726 E31.97081
G1 X29.747 Y72.336 E32.02321
G1 X30.378 Y71.999 E32.07318
M204 S3000
M205 X10 Y10
G0 F3000 X30.642 Y72.495
M204 S1800
M205 X8 Y8
G1 F2400 X31.187 Y72.277 E32.11418
G1 X31.761 Y72.081 E32.15654
G1 X32.845 Y71.812 E32.23455
G1 X33.987 Y71.68 E32.31485
G1 X34.741 Y71.66 E32.36753
G1 X63.675 Y71.661 E34.38846
G1 X64.429 Y71.673 E34.44113
G1 X65.229 Y71.733 E34.49717
G1 X67.341 Y72.173 E34.64785
G1 X69.968 Y72.682 E34.83475
G1 X72.629 Y73.119 E35.0231
G1 X75.261 Y73.476 E35.20862
G1 X77.908 Y73.759 E35.39456
G1 X80.546 Y73.965 E35.57937
G1 X83.221 Y74.099 E35.76644
G1 X86.635 Y74.16 E36.00494
G1 X120.847 Y74.16 E38.39452
G1 X123.497 Y74.123 E38.57963
G1 X126.205 Y74.008 E38.76894
G1 X128.808 Y73.823 E38.95121
G1 X131.5 Y73.556 E39.14016
G1 X134.147 Y73.217 E39.32655
G1 X136.74 Y72.81 E39.50988
G1 X139.386 Y72.318 E39.69786
G1 X141.572 Y71.854 E39.85395
G1 X142.194 Y71.757 E39.89792
G1 X143.125 Y71.682 E39.96316
G1 X144.22 Y71.661 E40.03965
G1 X181.086 Y71.661 E42.6146
G1 X181.784 Y71.671 E42.66336
G1 X182.671 Y71.735 E42.72548
G1 X183.612 Y71.924 E42.79252
G1 X184.444 Y72.171 E42.85313
G1 X185.375 Y72.554 E42.92345
G1 X186.222 Y73.025 E42.99114
G1 X186.792 Y73.402 E43.03887
G1 X187.407 Y73.911 E43.09463
G1 X188.068 Y74.546 E43.15865
G1 X188.782 Y75.466 E43.23999
G1 X189.1 Y75.959 E43.28097
G1 X189.587 Y76.856 E43.35226
G1 X189.999 Y77.962 E43.43469
G1 X190.272 Y79.146 E43.51956
G1 X190.366 Y80.23 E43.59556
G1 X190.376 Y81.322 E43.67184
G1 X190.364 Y82.197 E43.73296
G1 X190.296 Y83.002 E43.78938
G1 X190.209 Y83.522 E43.82621
G1 X189.951 Y84.777 E43.9157
G1 X189.671 Y86.049 E44.00667
G1 X189.17 Y88.678 E44.1936
G1 X188.745 Y91.304 E44.3794
G1 X188.399 Y93.908 E44.56288
G1 X188.118 Y96.611 E44.75269
G1 X187.919 Y99.239 E44.93678
G1 X187.794 Y101.883 E45.12165
G1 X187.744 Y104.534 E45.30685
G1 X187.769 Y107.229 E45.49509
G1 X187.869 Y109.898 E45.68164
G1 X188.044 Y112.539 E45.86651
G1 X188.295 Y115.196 E46.05292
G1 X188.618 Y117.817 E46.23737
G1 X189.022 Y120.47 E46.42481
G1 X189.498 Y123.099 E46.61142
G1 X190.152 Y126.186 E46.83182
G1 X190.277 Y126.878 E46.88094
G1 X190.373 Y127.788 E46.94485
G1 X190.376 Y129.001 E47.02958
G1 X190.364 Y129.817 E47.08658
G1 X190.271 Y130.867 E47.1602
G1 X190.031 Y131.881 E47.23298
G1 X189.872 Y132.388 E47.2701
G1 X189.546 Y133.231 E47.33323
G1 X189.046 Y134.123 E47.40465
G1 X188.694 Y134.651 E47.44897
G1 X187.998 Y135.528 E47.52717
G1 X187.121 Y136.348 E47.61103
G1 X186.197 Y136.991 E47.68966
G1 X185.45 Y137.405 E47.74931
G1 X184.535 Y137.813 E47.81929
G1 X183.491 Y138.107 E47.89504
G1 X182.719 Y138.241 E47.94977
G1 X181.874 Y138.319 E48.00904
G1 X180.834 Y138.339 E48.0817
G1 X143.988 Y138.339 E50.65525
G1 X143.228 Y138.328 E50.70834
G1 X142.341 Y138.258 E50.77049
G1 X141.595 Y138.15 E50.82314
G1 X139.054 Y137.614 E51.00452
G1 X136.46 Y137.141 E51.18869
G1 X133.8 Y136.734 E51.37664
G1 X131.186 Y136.408 E51.56063
G1 X128.503 Y136.152 E51.74888
G1 X125.867 Y135.974 E51.93342
G1 X123.193 Y135.87 E52.12033
G1 X120.792 Y135.84 E52.28804
G1 X86.56 Y135.84 E54.67902
G1 X83.91 Y135.877 E54.86413
G1 X81.202 Y135.992 E55.05344
G1 X78.599 Y136.177 E55.23571
G1 X75.907 Y136.444 E55.42466
G1 X73.26 Y136.783 E55.61106
G1 X70.667 Y137.19 E55.79438
G1 X67.991 Y137.687 E55.98449
G1 X65.894 Y138.133 E56.13423
G1 X65.29 Y138.243 E56.17711
G1 X64.396 Y138.329 E56.23984
G1 X63.758 Y138.34 E56.28441
G1 X34.761 Y138.339 E58.30975
G1 X34.05 Y138.328 E58.35941
G1 X33.368 Y138.278 E58.40718
G1 X32.599 Y138.139 E58.46176
G1 X31.806 Y137.926 E58.51911
G1 X31.123 Y137.69 E58.56958
G1 X30.491 Y137.429 E58.61734
G1 X30.008 Y137.167 E58.65572
G1 X29.486 Y136.851 E58.69834
G1 X24.117 Y133.466 E59.14165
G1 X23.479 Y133.052 E59.19478
G1 X22.582 Y132.356 E59.27408
G1 X21.963 Y131.717 E59.33621
G1 X21.626 Y131.327 E59.37222
G1 X21.21 Y130.785 E59.41994
G1 X20.923 Y130.314 E59.45846
G1 X20.55 Y129.633 E59.51269
G1 X20.257 Y129.016 E59.5604
G1 X20.051 Y128.412 E59.60498
G1 X19.82 Y127.501 E59.67062
G1 X19.702 Y126.828 E59.71834
G1 X19.666 Y126.311 E59.75454
G1 X19.648 Y125.618 E59.80296
G1 X19.675 Y124.78 E59.86152
G1 X19.892 Y123.619 E59.94402
G1 X20.375 Y121.036 E60.12756
G1 X20.798 Y118.357 E60.31699
G1 X21.135 Y115.744 E60.50101
G1 X21.404 Y113.075 E60.68838
G1 X21.595 Y110.408 E60.87514
G1 X21.71 Y107.772 E61.05943
G1 X21.751 Y105.096 E61.24636
G1 X21.716 Y102.458 E61.43063
G1 X21.606 Y99.787 E61.61734
G1 X21.419 Y97.112 E61.80464
G1 X21.162 Y94.491 E61.98858
G1 X20.824 Y91.831 E62.17587
G1 X20.411 Y89.176 E62.36354
G1 X19.908 Y86.463 E62.55626
G1 X19.742 Y85.621 E62.61621
G1 X19.653 Y84.717 E62.67965
G1 X19.654 Y83.815 E62.74265
G1 X19.707 Y83.134 E62.79036
G1 X19.81 Y82.584 E62.82945
G1 X19.988 Y81.832 E62.88342
G1 X20.184 Y81.177 E62.93118
G1 X20.423 Y80.614 E62.9739
G1 X20.796 Y79.874 E63.03178
G1 X21.431 Y78.924 E63.11159
G1 X21.764 Y78.509 E63.14875
G1 X22.416 Y77.82 E63.21501
G1 X22.81 Y77.466 E63.252
G1 X23.527 Y76.915 E63.31516
G1 X24.034 Y76.585 E63.35742
G1 X29.397 Y73.205 E63.80019
G1 X30.038 Y72.815 E63.8526
G1 X30.642 Y72.495 E63.90034
M204 S3000
M205 X10 Y10
G0 F3000 X31.036 Y72.92
M204 S1800
M205 X8 Y8
G1 F2400 X31.942 Y72.611 E63.9672
G1 X32.93 Y72.366 E64.0383
G1 X34.018 Y72.24 E64.1148
G1 X34.741 Y72.22 E64.16532
G1 X63.666 Y72.221 E66.18562
G1 X64.42 Y72.233 E66.23829
G1 X65.159 Y72.29 E66.29006
G1 X67.202 Y72.716 E66.43583
G1 X69.903 Y73.239 E66.62798
G1 X72.538 Y73.672 E66.8145
G1 X75.196 Y74.033 E67.00185
G1 X77.84 Y74.315 E67.18757
G1 X80.547 Y74.527 E67.37723
G1 X83.182 Y74.658 E67.5615
G1 X86.625 Y74.72 E67.80202
G1 X120.855 Y74.72 E70.19286
G1 X123.529 Y74.682 E70.37965
G1 X126.196 Y74.569 E70.56609
G1 X128.903 Y74.377 E70.75564
G1 X131.556 Y74.114 E70.94185
G1 X134.196 Y73.776 E71.12775
G1 X136.86 Y73.358 E71.3161
G1 X139.487 Y72.869 E71.50274
G1 X141.688 Y72.402 E71.65989
G1 X142.25 Y72.314 E71.69962
G1 X143.136 Y72.242 E71.76171
G1 X144.332 Y72.22 E71.84526
G1 X181.078 Y72.221 E74.41183
G1 X181.776 Y72.231 E74.46059
G1 X182.597 Y72.29 E74.51808
G1 X183.465 Y72.464 E74.57991
G1 X184.277 Y72.705 E74.63907
G1 X185.118 Y73.051 E74.70259
G1 X185.941 Y73.51 E74.76841
G1 X186.855 Y74.156 E74.84659
G1 X187.658 Y74.926 E74.92429
G1 X188.311 Y75.77 E74.99883
G1 X188.629 Y76.263 E75.0398
G1 X189.076 Y77.085 E75.10516
G1 X189.462 Y78.123 E75.18251
G1 X189.719 Y79.237 E75.26236
G1 X189.806 Y80.235 E75.33233
G1 X189.816 Y81.327 E75.40861
G1 X189.804 Y82.188 E75.46875
G1 X189.73 Y83.067 E75.53036
G1 X189.404 Y84.656 E75.64366
G1 X189.127 Y85.914 E75.73363
G1 X188.617 Y88.587 E75.9237
G1 X188.192 Y91.211 E76.10936
G1 X187.842 Y93.85 E76.2953
G1 X187.561 Y96.546 E76.48463
G1 X187.36 Y99.208 E76.67109
G1 X187.234 Y101.879 E76.85785
G1 X187.184 Y104.547 E77.04424
G1 X187.209 Y107.256 E77.23346
G1 X187.309 Y109.921 E77.41973
G1 X187.484 Y112.555 E77.60411
G1 X187.742 Y115.282 E77.79543
G1 X188.064 Y117.9 E77.97967
G1 X188.466 Y120.544 E78.16646
G1 X188.95 Y123.218 E78.35627
G1 X189.604 Y126.302 E78.57646
G1 X189.726 Y126.975 E78.62424
G1 X189.813 Y127.808 E78.68273
G1 X189.816 Y129.002 E78.76613
G1 X189.804 Y129.808 E78.82243
G1 X189.719 Y130.777 E78.89037
G1 X189.497 Y131.713 E78.95756
G1 X189.338 Y132.22 E78.99468
G1 X189.038 Y132.996 E79.05279
G1 X188.58 Y133.813 E79.11821
G1 X188.228 Y134.341 E79.16253
G1 X187.589 Y135.145 E79.23426
G1 X186.765 Y135.915 E79.31303
G1 X185.914 Y136.508 E79.38548
G1 X185.186 Y136.911 E79.4436
G1 X184.344 Y137.286 E79.50798
G1 X183.467 Y137.533 E79.57162
G1 X182.734 Y137.679 E79.62382
G1 X181.864 Y137.759 E79.68484
G1 X180.722 Y137.78 E79.76462
G1 X143.996 Y137.779 E82.32979
G1 X143.249 Y137.768 E82.38197
G1 X142.385 Y137.7 E82.44251
G1 X141.711 Y137.602 E82.49008
G1 X139.167 Y137.065 E82.67168
G1 X136.542 Y136.587 E82.85805
G1 X133.88 Y136.179 E83.04615
G1 X131.236 Y135.85 E83.23225
G1 X128.562 Y135.594 E83.41987
G1 X125.889 Y135.414 E83.60699
G1 X123.223 Y135.31 E83.79334
G1 X120.799 Y135.28 E83.96266
G1 X86.552 Y135.28 E86.35469
G1 X83.878 Y135.318 E86.54148
G1 X81.211 Y135.431 E86.72792
G1 X78.504 Y135.623 E86.91747
G1 X75.851 Y135.886 E87.10368
G1 X73.211 Y136.224 E87.28958
G1 X70.547 Y136.642 E87.47793
G1 X67.92 Y137.131 E87.66457
G1 X65.777 Y137.586 E87.81758
G1 X65.194 Y137.691 E87.85896
G1 X64.385 Y137.769 E87.91573
G1 X63.758 Y137.78 E87.95953
G1 X34.769 Y137.779 E89.9843
G1 X34.058 Y137.768 E90.03397
G1 X32.94 Y137.652 E90.11248
G1 X31.989 Y137.396 E90.18126
G1 X31.306 Y137.16 E90.23174
G1 X30.579 Y136.858 E90.28672
G1 X29.785 Y136.377 E90.35156
G1 X24.422 Y132.996 E90.79437
G1 X23.784 Y132.582 E90.84749
G1 X22.963 Y131.945 E90.92007
G1 X22.387 Y131.351 E90.97787
G1 X22.05 Y130.961 E91.01387
G1 X21.573 Y130.335 E91.06884
G1 X21.041 Y129.364 E91.14617
G1 X20.765 Y128.777 E91.19148
G1 X20.59 Y128.26 E91.2296
G1 X20.365 Y127.372 E91.29358
G1 X20.234 Y126.611 E91.34752
G1 X20.208 Y125.603 E91.41795
G1 X20.271 Y124.638 E91.48549
G1 X20.433 Y123.769 E91.54723
G1 X20.935 Y121.083 E91.73809
G1 X21.345 Y118.486 E91.92173
G1 X21.697 Y115.762 E92.11357
G1 X21.961 Y113.137 E92.29784
G1 X22.153 Y110.472 E92.48446
G1 X22.27 Y107.769 E92.67344
G1 X22.31 Y105.133 E92.85757
G1 X22.275 Y102.392 E93.04904
G1 X22.166 Y99.76 E93.23303
G1 X21.979 Y97.089 E93.42004
G1 X21.716 Y94.404 E93.60848
G1 X21.378 Y91.744 E93.79576
G1 X20.971 Y89.125 E93.98089
G1 X20.45 Y86.316 E94.18043
G1 X20.295 Y85.529 E94.23646
G1 X20.213 Y84.702 E94.2945
G1 X20.214 Y83.826 E94.35569
G1 X20.279 Y83.035 E94.41112
G1 X20.533 Y81.961 E94.48821
G1 X20.721 Y81.339 E94.53359
G1 X20.927 Y80.86 E94.57001
G1 X21.356 Y80.041 E94.63459
G1 X21.868 Y79.275 E94.69894
G1 X22.201 Y78.86 E94.73611
G1 X22.79 Y78.236 E94.79604
G1 X23.184 Y77.882 E94.83303
G1 X23.833 Y77.385 E94.89013
G1 X24.404 Y77.013 E94.93773
G1 X29.617 Y73.727 E95.36814
G1 X30.33 Y73.293 E95.42644
G1 X31.036 Y72.92 E95.48221
M204 S3000
M205 X10 Y10
G1 F2400 E89.48221
;MESH:Peon230_Base_v1.1.stl
G0 F3000 X32.843 Y77.181
G0 X33.209 Y78.2
G0 X31.387 Y84.074
G0 X31.382 Y84.883
G0 X32.316 Y87.418
M204 S1800
M205 X8 Y8
;TYPE:WALL-INNER
G1 F2400 E95.48221
G1 F1800 X31.68 Y87.041 E95.53385
G1 X31.216 Y86.625 E95.57738
G1 X30.889 Y86.207 E95.61445
G1 X30.62 Y85.692 E95.65503
G1 X30.426 Y84.982 E95.70644
G1 X30.388 Y84.411 E95.74641
G1 X30.426 Y84.019 E95.77391
G1 X30.58 Y83.42 E95.81711
G1 X30.686 Y83.165 E95.8364
G1 X30.997 Y82.642 E95.8789
