;FLAVOR:Marlin
;TIME:19236
;Filament used: 11.3739m
;Layer height: 0.3
;MINX:19.083
;MINY:71.1
;MINZ:0.4
;MAXX:190.936
;MAXY:138.9
;MAXZ:10
;Generated with Cura_SteamEngine 5.2.1
M140 S60
M105
M190 S60
M104 S200
M105
M109 S200
M82 ;absolute extrusion mode
G21 ;metric values
G90 ;absolute positioning
M82 ;set extruder to absolute mode
M107 ;start with the fan off
G28 X0 Y0 ;move X/Y to min endstops
G28 Z0 ;move Z to min endstops
G1 Z15.0 F20.0 ;move the platform down 15mm
G92 E0 ;zero the extruded length
G1 F200 E3 ;extrude 3mm of feed stock
G92 E0 ;zero the extruded length again
G1 F20.0
G0 Y20 F20.0
M117 Printing...
G5
G92 E0
G92 E0
G1 F1200 E-10
;LAYER_COUNT:33
;LAYER:0
M106 S51
M204 S3000
M205 X10 Y10
G1 F600 Z2.4
G0 X30.306 Y72.041 Z2.4
M204 S1800
M205 X8 Y8
;TYPE:SKIRT
G1 F600 Z0.4
G1 F1200 E0
G1 F2400 X31.036 Y71.739 E0.07357
G1 X31.888 Y71.469 E0.15681
G1 X32.633 Y71.289 E0.22818
G1 X33.336 Y71.16 E0.29475
G1 X34.016 Y71.111 E0.35824
G1 X34.551 Y71.101 E0.40807
G1 X63.569 Y71.1 E3.11047
G1 X64.427 Y71.113 E3.19038
G1 X65.276 Y71.174 E3.26965
G1 X67.171 Y71.56 E3.44975
G1 X67.892 Y71.717 E3.51847
G1 X70.48 Y72.207 E3.76377
G1 X73.11 Y72.627 E4.0118
G1 X75.715 Y72.968 E4.25647
G1 X78.358 Y73.239 E4.5039
G1 X81.023 Y73.435 E4.75276
G1 X83.63 Y73.553 E4.99579
G1 X86.602 Y73.6 E5.2726
G1 X120.839 Y73.6 E8.46104
G1 X123.501 Y73.562 E8.70897
G1 X126.141 Y73.45 E8.95505
G1 X128.787 Y73.263 E9.20209
G1 X131.442 Y72.999 E9.45056
G1 X134.053 Y72.665 E9.6957
G1 X136.665 Y72.255 E9.94193
G1 X139.286 Y71.768 E10.1902
G1 X141.456 Y71.307 E10.3968
G1 X142.329 Y71.17 E10.47909
G1 X143.114 Y71.122 E10.55233
G1 X144.209 Y71.101 E10.65433
G1 X181.075 Y71.101 E14.0876
G1 X181.738 Y71.11 E14.14935
G1 X182.667 Y71.19 E14.23619
G1 X183.496 Y71.323 E14.31438
G1 X184.315 Y71.531 E14.39307
G1 X184.888 Y71.743 E14.44997
G1 X185.44 Y71.977 E14.5058
G1 X186.527 Y72.547 E14.62011
G1 X187.442 Y73.2 E14.72479
G1 X188.229 Y73.936 E14.82514
G1 X188.723 Y74.453 E14.89174
G1 X189.23 Y75.133 E14.97073
G1 X189.588 Y75.686 E15.03208
G1 X189.943 Y76.307 E15.09869
G1 X190.226 Y76.965 E15.1654
G1 X190.413 Y77.476 E15.21607
G1 X190.673 Y78.39 E15.30457
G1 X190.796 Y78.99 E15.36161
G1 X190.916 Y79.808 E15.4386
G1 X190.936 Y80.588 E15.51127
G1 X190.935 Y81.47 E15.59341
G1 X190.924 Y82.205 E15.66186
G1 X190.85 Y83.088 E15.74438
G1 X190.757 Y83.635 E15.79606
G1 X190.498 Y84.897 E15.91603
G1 X190.219 Y86.164 E16.03685
G1 X189.724 Y88.763 E16.28325
G1 X189.297 Y91.398 E16.53184
G1 X188.956 Y93.97 E16.77346
G1 X188.677 Y96.642 E17.02365
G1 X188.479 Y99.273 E17.26937
G1 X188.353 Y101.918 E17.51597
G1 X188.304 Y104.534 E17.75964
G1 X188.329 Y107.203 E18.00821
G1 X188.429 Y109.875 E18.25722
G1 X188.602 Y112.484 E18.50073
G1 X188.853 Y115.144 E18.74955
G1 X189.178 Y117.773 E18.99625
G1 X189.57 Y120.355 E19.23946
G1 X190.048 Y122.994 E19.48923
G1 X190.702 Y126.082 E19.78318
G1 X190.829 Y126.782 E19.84944
G1 X190.933 Y127.779 E19.94279
G1 X190.936 Y129.009 E20.05734
G1 X190.923 Y129.884 E20.13884
G1 X190.872 Y130.597 E20.20541
G1 X190.708 Y131.487 E20.28969
G1 X190.447 Y132.407 E20.37875
G1 X190.202 Y133.075 E20.44501
G1 X189.918 Y133.731 E20.51158
G1 X189.53 Y134.404 E20.58392
G1 X189.154 Y134.972 E20.64736
G1 X188.726 Y135.545 E20.71397
G1 X188.197 Y136.106 E20.78578
G1 X187.79 Y136.488 E20.83776
G1 X186.901 Y137.207 E20.94424
G1 X185.953 Y137.787 E21.04774
G1 X185.018 Y138.203 E21.14304
G1 X184.349 Y138.457 E21.20968
G1 X183.648 Y138.637 E21.27708
G1 X182.732 Y138.804 E21.3638
G1 X181.825 Y138.884 E21.44859
G1 X180.826 Y138.9 E21.54164
G1 X143.98 Y138.899 E24.97305
G1 X143.206 Y138.888 E25.04514
G1 X142.296 Y138.816 E25.13015
G1 X141.48 Y138.698 E25.20693
G1 X138.949 Y138.164 E25.44783
G1 X136.35 Y137.69 E25.69386
G1 X133.751 Y137.292 E25.93872
G1 X131.099 Y136.962 E26.1876
G1 X128.485 Y136.712 E26.43215
G1 X125.807 Y136.532 E26.68211
G1 X123.164 Y136.429 E26.92844
G1 X120.865 Y136.4 E27.14256
G1 X86.568 Y136.4 E30.33658
G1 X83.905 Y136.438 E30.58461
G1 X81.267 Y136.55 E30.8305
G1 X78.621 Y136.737 E31.07753
G1 X75.964 Y137.001 E31.32619
G1 X73.349 Y137.335 E31.5717
G1 X70.753 Y137.743 E31.81643
G1 X68.122 Y138.232 E32.06565
G1 X65.957 Y138.689 E32.27172
G1 X65.344 Y138.799 E32.32971
G1 X64.461 Y138.887 E32.41235
G1 X63.937 Y138.9 E32.46117
G1 X34.751 Y138.899 E35.17921
G1 X34.052 Y138.889 E35.24432
G1 X33.004 Y138.788 E35.34237
G1 X32.436 Y138.674 E35.39632
G1 X31.925 Y138.551 E35.44527
G1 X30.769 Y138.175 E35.55848
G1 X29.648 Y137.614 E35.67522
G1 X23.805 Y133.932 E36.31839
G1 X23.224 Y133.555 E36.38289
G1 X22.305 Y132.859 E36.49025
G1 X21.308 Y131.843 E36.62282
G1 X20.536 Y130.785 E36.74479
G1 X20.003 Y129.828 E36.8468
G1 X19.624 Y128.865 E36.94318
G1 X19.4 Y128.186 E37.00977
G1 X19.228 Y127.4 E37.0847
G1 X19.103 Y126.55 E37.16471
G1 X19.091 Y125.47 E37.2653
G1 X19.123 Y124.755 E37.33195
G1 X19.213 Y124.155 E37.38845
G1 X19.395 Y123.235 E37.47579
G1 X19.877 Y120.606 E37.7247
G1 X20.284 Y117.976 E37.97255
G1 X20.614 Y115.347 E38.2193
G1 X20.869 Y112.724 E38.46473
G1 X21.051 Y110.078 E38.71173
G1 X21.156 Y107.445 E38.95713
G1 X21.188 Y104.764 E39.20683
G1 X21.145 Y102.156 E39.44974
G1 X21.025 Y99.479 E39.69929
G1 X20.833 Y96.846 E39.94515
G1 X20.567 Y94.223 E40.19068
G1 X20.226 Y91.612 E40.4359
G1 X19.803 Y88.952 E40.68674
G1 X19.399 Y86.779 E40.89257
G1 X19.187 Y85.716 E40.99352
G1 X19.094 Y84.731 E41.08566
G1 X19.083 Y83.929 E41.16035
G1 X19.195 Y82.725 E41.27297
G1 X19.421 Y81.719 E41.36899
G1 X19.77 Y80.748 E41.46508
G1 X20.049 Y80.09 E41.53164
G1 X20.413 Y79.43 E41.60183
G1 X20.967 Y78.614 E41.69368
G1 X21.358 Y78.125 E41.75199
G1 X21.836 Y77.592 E41.81867
G1 X22.423 Y77.061 E41.89238
G1 X23.108 Y76.538 E41.97264
G1 X24.055 Y75.912 E42.07836
G1 X29.065 Y72.753 E42.62994
G1 X29.676 Y72.379 E42.69665
G1 X30.306 Y72.041 E42.76324
M204 S3000
M205 X10 Y10
G0 F600 X31.029 Y72.328
M204 S1800
M205 X8 Y8
G1 F2400 X32.019 Y72.013 E42.85999
G1 X32.764 Y71.833 E42.93136
G1 X33.437 Y71.712 E42.99505
G1 X34.027 Y71.671 E43.05012
G1 X34.671 Y71.66 E43.11011
G1 X63.662 Y71.661 E45.80999
G1 X64.418 Y71.673 E45.88041
G1 X65.21 Y71.732 E45.95437
G1 X66.969 Y72.09 E46.12154
G1 X67.778 Y72.267 E46.19866
G1 X70.357 Y72.754 E46.44308
G1 X73.018 Y73.18 E46.69405
G1 X75.66 Y73.525 E46.94219
G1 X78.329 Y73.799 E47.19205
G1 X80.958 Y73.992 E47.43755
G1 X83.628 Y74.113 E47.68646
G1 X86.594 Y74.16 E47.96271
G1 X120.847 Y74.16 E51.15264
G1 X123.498 Y74.123 E51.39954
G1 X126.205 Y74.008 E51.65187
G1 X128.809 Y73.823 E51.89499
G1 X131.499 Y73.556 E52.14673
G1 X134.141 Y73.218 E52.39478
G1 X136.745 Y72.809 E52.64026
G1 X139.387 Y72.318 E52.89052
G1 X141.572 Y71.854 E53.09854
G1 X142.194 Y71.757 E53.15717
G1 X143.125 Y71.682 E53.24415
G1 X144.22 Y71.661 E53.34615
G1 X181.067 Y71.661 E56.77765
G1 X181.73 Y71.67 E56.8394
G1 X182.578 Y71.743 E56.91866
G1 X183.406 Y71.876 E56.99676
G1 X184.175 Y72.075 E57.07074
G1 X184.669 Y72.258 E57.1198
G1 X185.221 Y72.492 E57.17563
G1 X186.233 Y73.022 E57.28202
G1 X187.092 Y73.64 E57.38057
G1 X187.846 Y74.345 E57.4767
G1 X188.317 Y74.84 E57.54033
G1 X188.76 Y75.437 E57.60957
G1 X189.118 Y75.99 E57.67092
G1 X189.455 Y76.585 E57.7346
G1 X189.7 Y77.157 E57.79255
G1 X189.887 Y77.668 E57.84322
G1 X190.124 Y78.502 E57.92397
G1 X190.247 Y79.102 E57.98101
G1 X190.376 Y80.203 E58.08424
G1 X190.375 Y81.461 E58.2014
G1 X190.364 Y82.196 E58.26986
G1 X190.296 Y83.002 E58.34518
G1 X190.209 Y83.522 E58.39428
G1 X189.951 Y84.777 E58.5136
G1 X189.671 Y86.049 E58.6349
G1 X189.17 Y88.678 E58.88414
G1 X188.745 Y91.304 E59.13188
G1 X188.399 Y93.908 E59.37651
G1 X188.118 Y96.611 E59.6296
G1 X187.919 Y99.239 E59.87504
G1 X187.794 Y101.883 E60.12155
G1 X187.744 Y104.534 E60.36847
G1 X187.769 Y107.229 E60.61947
G1 X187.869 Y109.898 E60.8682
G1 X188.044 Y112.539 E61.11469
G1 X188.295 Y115.196 E61.36323
G1 X188.618 Y117.817 E61.60917
G1 X189.022 Y120.47 E61.85909
G1 X189.499 Y123.107 E62.10865
G1 X190.261 Y126.72 E62.45253
G1 X190.373 Y127.789 E62.55263
G1 X190.376 Y129.01 E62.66634
G1 X190.363 Y129.875 E62.7469
G1 X190.313 Y130.557 E62.81059
G1 X190.159 Y131.375 E62.8881
G1 X189.921 Y132.214 E62.96932
G1 X189.676 Y132.882 E63.03558
G1 X189.403 Y133.509 E63.09927
G1 X189.063 Y134.095 E63.16236
G1 X188.687 Y134.663 E63.2258
G1 X188.277 Y135.209 E63.28939
G1 X187.814 Y135.697 E63.35203
G1 X187.407 Y136.079 E63.40402
G1 X186.578 Y136.749 E63.50328
G1 X185.683 Y137.294 E63.60087
G1 X184.79 Y137.692 E63.69192
G1 X184.151 Y137.933 E63.75552
G1 X183.54 Y138.087 E63.8142
G1 X182.717 Y138.244 E63.89223
G1 X181.815 Y138.324 E63.97656
G1 X180.826 Y138.34 E64.06868
G1 X143.988 Y138.339 E67.49934
G1 X143.228 Y138.328 E67.57012
G1 X142.341 Y138.258 E67.65299
G1 X141.595 Y138.15 E67.72318
G1 X139.054 Y137.614 E67.96503
G1 X136.46 Y137.141 E68.21059
G1 X133.8 Y136.734 E68.46119
G1 X131.186 Y136.408 E68.70652
G1 X128.503 Y136.152 E68.95751
G1 X125.867 Y135.974 E69.20356
G1 X123.193 Y135.87 E69.45277
G1 X120.792 Y135.84 E69.67639
G1 X86.56 Y135.84 E72.86436
G1 X83.91 Y135.877 E73.11118
G1 X81.202 Y135.992 E73.3636
G1 X78.599 Y136.177 E73.60662
G1 X75.907 Y136.444 E73.85855
G1 X73.26 Y136.783 E74.10708
G1 X70.667 Y137.19 E74.35152
G1 X67.998 Y137.686 E74.60433
G1 X65.842 Y138.141 E74.80954
G1 X65.25 Y138.247 E74.86555
G1 X64.444 Y138.327 E74.94098
G1 X63.937 Y138.34 E74.98821
G1 X34.759 Y138.339 E77.70551
G1 X34.06 Y138.329 E77.77061
G1 X33.104 Y138.237 E77.86005
G1 X32.567 Y138.13 E77.91105
G1 X32.056 Y138.007 E77.95999
G1 X30.982 Y137.657 E78.06519
G1 X29.939 Y137.135 E78.17381
G1 X24.11 Y133.462 E78.81544
G1 X23.529 Y133.085 E78.87994
G1 X22.672 Y132.437 E78.98
G1 X21.737 Y131.482 E79.10446
G1 X21.007 Y130.484 E79.21962
G1 X20.508 Y129.583 E79.31553
G1 X20.145 Y128.66 E79.4079
G1 X19.811 Y127.531 E79.51755
G1 X19.662 Y126.496 E79.61493
G1 X19.651 Y125.463 E79.71113
G1 X19.684 Y124.781 E79.77472
G1 X19.762 Y124.264 E79.82341
G1 X19.951 Y123.31 E79.91399
G1 X20.433 Y120.684 E80.16263
G1 X20.838 Y118.063 E80.40961
G1 X21.168 Y115.436 E80.65618
G1 X21.429 Y112.744 E80.90806
G1 X21.61 Y110.105 E81.1544
G1 X21.716 Y107.475 E81.39953
G1 X21.748 Y104.762 E81.65221
G1 X21.704 Y102.121 E81.89819
G1 X21.585 Y99.448 E82.14737
G1 X21.393 Y96.818 E82.39295
G1 X21.123 Y94.163 E82.64148
G1 X20.779 Y91.525 E82.88923
G1 X20.357 Y88.872 E83.13941
G1 X19.948 Y86.67 E83.34799
G1 X19.741 Y85.628 E83.44692
G1 X19.654 Y84.716 E83.53224
G1 X19.655 Y83.812 E83.61643
G1 X19.747 Y82.814 E83.70976
G1 X19.963 Y81.865 E83.8004
G1 X20.297 Y80.937 E83.89225
G1 X20.795 Y79.861 E84.00267
G1 X21.405 Y78.964 E84.10369
G1 X21.796 Y78.475 E84.162
G1 X22.253 Y77.967 E84.22564
G1 X22.791 Y77.482 E84.29309
G1 X23.417 Y77.005 E84.36639
G1 X24.47 Y76.31 E84.48389
G1 X29.357 Y73.231 E85.0218
G1 X29.968 Y72.857 E85.08852
G1 X31.029 Y72.328 E85.19893
M204 S3000
M205 X10 Y10
G0 F600 X31.236 Y72.847
M204 S1800
M205 X8 Y8
G1 F2400 X32.151 Y72.558 E85.28829
G1 X32.896 Y72.378 E85.35967
G1 X33.536 Y72.264 E85.42021
G1 X34.037 Y72.231 E85.46697
G1 X34.671 Y72.22 E85.52602
G1 X63.653 Y72.221 E88.22506
G1 X64.409 Y72.233 E88.29548
G1 X65.138 Y72.289 E88.36357
G1 X66.932 Y72.655 E88.53408
G1 X67.658 Y72.814 E88.6033
G1 X70.274 Y73.308 E88.85123
G1 X72.96 Y73.738 E89.10455
G1 X75.564 Y74.078 E89.34912
G1 X78.266 Y74.355 E89.60207
G1 X80.927 Y74.551 E89.85056
G1 X83.629 Y74.674 E90.10245
G1 X86.585 Y74.72 E90.37777
G1 X120.855 Y74.72 E93.56928
G1 X123.53 Y74.682 E93.81842
G1 X126.199 Y74.569 E94.06721
G1 X128.902 Y74.377 E94.31957
G1 X131.555 Y74.114 E94.56785
G1 X134.196 Y73.776 E94.8158
G1 X136.859 Y73.358 E95.06684
G1 X139.487 Y72.869 E95.31578
G1 X141.688 Y72.402 E95.52532
G1 X142.25 Y72.314 E95.5783
G1 X143.136 Y72.242 E95.66108
G1 X144.332 Y72.22 E95.77248
G1 X181.06 Y72.22 E99.1929
G1 X181.723 Y72.229 E99.25465
G1 X182.489 Y72.296 E99.32626
G1 X183.3 Y72.426 E99.40275
G1 X184.16 Y72.651 E99.48554
G1 X185.003 Y73.008 E99.57079
G1 X185.939 Y73.498 E99.66918
G1 X186.745 Y74.082 E99.76188
G1 X187.464 Y74.754 E99.85353
G1 X187.91 Y75.226 E99.91401
G1 X188.29 Y75.742 E99.97369
G1 X188.648 Y76.295 E100.03504
G1 X188.967 Y76.861 E100.09554
G1 X189.174 Y77.349 E100.14491
G1 X189.361 Y77.86 E100.19558
G1 X189.575 Y78.615 E100.26866
G1 X189.698 Y79.215 E100.3257
G1 X189.816 Y80.22 E100.41994
G1 X189.815 Y81.453 E100.53477
G1 X189.804 Y82.188 E100.60323
G1 X189.73 Y83.067 E100.68537
G1 X189.404 Y84.656 E100.83644
G1 X189.125 Y85.926 E100.95753
G1 X188.617 Y88.587 E101.20982
G1 X188.192 Y91.211 E101.45737
G1 X187.842 Y93.85 E101.70529
G1 X187.561 Y96.546 E101.95773
G1 X187.36 Y99.208 E102.20634
G1 X187.234 Y101.879 E102.45536
G1 X187.184 Y104.547 E102.70387
G1 X187.209 Y107.256 E102.95617
G1 X187.309 Y109.921 E103.20453
G1 X187.484 Y112.555 E103.45037
G1 X187.742 Y115.282 E103.70547
G1 X188.064 Y117.9 E103.95111
G1 X188.466 Y120.544 E104.20017
G1 X188.952 Y123.225 E104.45392
G1 X189.606 Y126.314 E104.74797
G1 X189.726 Y126.976 E104.81063
G1 X189.813 Y127.808 E104.88853
G1 X189.816 Y129.011 E105.00057
G1 X189.803 Y129.866 E105.0802
G1 X189.753 Y130.514 E105.14073
G1 X189.611 Y131.262 E105.21163
G1 X189.395 Y132.021 E105.28512
G1 X189.15 Y132.689 E105.35138
G1 X188.889 Y133.284 E105.41189
G1 X188.596 Y133.785 E105.46594
G1 X188.22 Y134.353 E105.52938
G1 X187.829 Y134.872 E105.58989
G1 X187.43 Y135.289 E105.64364
G1 X187.023 Y135.671 E105.69563
G1 X186.256 Y136.292 E105.78753
G1 X185.414 Y136.801 E105.87916
G1 X184.562 Y137.18 E105.966
G1 X183.953 Y137.408 E106.02656
G1 X183.432 Y137.538 E106.07657
G1 X182.554 Y137.698 E106.15968
G1 X181.806 Y137.764 E106.22961
G1 X180.826 Y137.78 E106.32089
G1 X143.996 Y137.779 E109.75081
G1 X143.249 Y137.768 E109.82038
G1 X142.385 Y137.7 E109.9011
G1 X141.711 Y137.602 E109.96452
G1 X139.167 Y137.065 E110.20666
G1 X136.542 Y136.587 E110.45514
G1 X133.88 Y136.179 E110.70595
G1 X131.236 Y135.85 E110.95408
G1 X128.562 Y135.594 E111.20424
G1 X125.889 Y135.414 E111.45374
G1 X123.223 Y135.31 E111.70221
G1 X120.799 Y135.28 E111.92797
G1 X86.552 Y135.28 E115.11733
G1 X83.878 Y135.318 E115.36639
G1 X81.211 Y135.431 E115.61498
G1 X78.504 Y135.623 E115.86771
G1 X75.851 Y135.886 E116.11599
G1 X73.211 Y136.224 E116.36386
G1 X70.547 Y136.642 E116.61499
G1 X67.898 Y137.135 E116.86592
G1 X65.726 Y137.593 E117.07265
G1 X65.156 Y137.695 E117.12657
G1 X64.307 Y137.78 E117.20603
G1 X34.767 Y137.779 E119.95705
G1 X34.068 Y137.769 E120.02215
G1 X33.204 Y137.686 E120.10298
G1 X32.698 Y137.585 E120.15103
G1 X32.187 Y137.462 E120.19998
G1 X31.198 Y137.141 E120.29682
G1 X30.221 Y136.651 E120.3986
G1 X24.415 Y132.992 E121.03773
G1 X23.834 Y132.615 E121.10223
G1 X23.042 Y132.017 E121.19465
G1 X22.166 Y131.122 E121.31128
G1 X21.475 Y130.178 E121.42023
G1 X21.013 Y129.334 E121.50983
G1 X20.667 Y128.455 E121.5978
G1 X20.358 Y127.413 E121.69902
G1 X20.222 Y126.44 E121.79052
G1 X20.211 Y125.457 E121.88207
G1 X20.25 Y124.685 E121.95405
G1 X20.501 Y123.419 E122.07425
G1 X20.98 Y120.801 E122.32211
G1 X21.391 Y118.144 E122.57249
G1 X21.729 Y115.456 E122.82479
G1 X21.983 Y112.837 E123.06984
G1 X22.169 Y110.13 E123.32253
G1 X22.276 Y107.467 E123.57073
G1 X22.308 Y104.76 E123.82285
G1 X22.265 Y102.122 E124.06856
G1 X22.144 Y99.42 E124.32044
G1 X21.949 Y96.756 E124.5692
G1 X21.68 Y94.104 E124.81744
G1 X21.331 Y91.434 E125.06821
G1 X20.907 Y88.762 E125.32016
G1 X20.485 Y86.494 E125.535
G1 X20.293 Y85.53 E125.62654
G1 X20.214 Y84.701 E125.70409
G1 X20.215 Y83.822 E125.78595
G1 X20.303 Y82.869 E125.87508
G1 X20.581 Y81.803 E125.97768
G1 X20.824 Y81.127 E126.04458
G1 X21.28 Y80.139 E126.14592
G1 X21.842 Y79.314 E126.23888
G1 X22.233 Y78.825 E126.29719
G1 X22.991 Y78.032 E126.39935
G1 X23.725 Y77.472 E126.48533
G1 X24.672 Y76.846 E126.59105
G1 X29.649 Y73.709 E127.13893
G1 X30.26 Y73.335 E127.20565
G1 X31.236 Y72.847 E127.30727
M204 S3000
M205 X10 Y10
G1 F1200 E117.30727
;MESH:Peon230_Base_v1.1.stl
G0 F600 X32.804 Y77.199
G0 X33.2 Y78.206
G0 X31.387 Y84.074
G0 X31.387 Y84.926
G0 X32.457 Y87.457
M204 S1800
M205 X8 Y8
;TYPE:WALL-INNER
G1 F1200 E127.30727
G1 F600 X32.2 Y87.349 E127.33323
G1 X31.68 Y87.041 E127.38952
G1 X31.216 Y86.625 E127.44755
