;FLAVOR:Marlin
;TIME:15774
;Filament used: 11.0988m
;Layer height: 0.4
;MINX:19.094
;MINY:71.1
;MINZ:0.4
;MAXX:190.936
;MAXY:138.899
;MAXZ:9.93
;Generated with Cura_SteamEngine 5.2.1
M140 S40
M105
M190 S40
M104 S200
M105
M109 S200
M82 ;absolute extrusion mode
G21 ;metric values
G90 ;absolute positioning
M82 ;set extruder to absolute mode
M107 ;start with the fan off
G28 X0 Y0 ;move X/Y to min endstops
G28 Z0 ;move Z to min endstops
G1 Z15.0 F20.0 ;move the platform down 15mm
G92 E0 ;zero the extruded length
G1 F200 E3 ;extrude 3mm of feed stock
G92 E0 ;zero the extruded length again
G1 F20.0
G0 Y20 F20.0
M117 Printing...
G5
G92 E0
G92 E0
G1 F1200 E-10
;LAYER_COUNT:28
;LAYER:0
M106 S51
M204 S3000
M205 X10 Y10
G1 F600 Z0.475
G0 X30.789 Y71.819 Z0.475
M204 S1800
M205 X8 Y8
;TYPE:SKIRT
G1 F600 Z0.4
G1 F1200 E0
G1 F2400 X31.886 Y71.464 E0.10738
G1 X32.665 Y71.276 E0.18201
G1 X33.493 Y71.143 E0.26011
G1 X34.046 Y71.111 E0.31169
G1 X34.785 Y71.1 E0.38052
G1 X63.624 Y71.102 E3.06625
G1 X64.334 Y71.113 E3.13238
G1 X65.052 Y71.164 E3.19942
G1 X65.926 Y71.295 E3.28172
G1 X66.94 Y71.503 E3.37812
G1 X67.755 Y71.683 E3.45585
G1 X70.353 Y72.178 E3.70215
G1 X72.977 Y72.603 E3.9497
G1 X75.555 Y72.945 E4.19189
G1 X78.223 Y73.223 E4.4417
G1 X80.865 Y73.424 E4.68846
G1 X83.501 Y73.548 E4.93421
G1 X86.648 Y73.6 E5.22733
G1 X120.845 Y73.599 E8.41204
G1 X123.508 Y73.561 E8.66007
G1 X126.146 Y73.449 E8.90596
G1 X128.784 Y73.262 E9.15225
G1 X131.455 Y72.997 E9.40222
G1 X134.042 Y72.666 E9.6451
G1 X136.685 Y72.251 E9.89426
G1 X139.29 Y71.767 E10.14101
G1 X141.455 Y71.307 E10.34713
G1 X142.329 Y71.17 E10.42952
G1 X143.114 Y71.122 E10.50276
G1 X144.33 Y71.1 E10.61603
G1 X181.095 Y71.106 E14.03989
G1 X181.769 Y71.115 E14.10266
G1 X182.696 Y71.195 E14.18931
G1 X183.576 Y71.347 E14.27248
G1 X184.269 Y71.521 E14.33902
G1 X184.833 Y71.726 E14.39491
G1 X185.479 Y71.996 E14.46011
G1 X186.123 Y72.308 E14.52676
G1 X186.799 Y72.743 E14.60162
G1 X187.36 Y73.155 E14.66644
G1 X187.912 Y73.61 E14.73306
G1 X188.448 Y74.167 E14.80505
G1 X188.897 Y74.695 E14.8696
G1 X189.329 Y75.265 E14.9362
G1 X189.698 Y75.866 E15.00188
G1 X190.082 Y76.605 E15.07944
G1 X190.483 Y77.689 E15.18707
G1 X190.775 Y78.784 E15.29261
G1 X190.916 Y79.847 E15.39248
G1 X190.936 Y81.192 E15.51775
G1 X190.925 Y82.183 E15.61004
G1 X190.848 Y83.099 E15.69565
G1 X190.756 Y83.644 E15.74712
G1 X190.482 Y84.966 E15.87286
G1 X190.238 Y86.067 E15.97788
G1 X189.747 Y88.628 E16.22072
G1 X189.315 Y91.278 E16.47077
G1 X188.967 Y93.875 E16.71479
G1 X188.687 Y96.53 E16.96341
G1 X188.487 Y99.139 E17.2071
G1 X188.358 Y101.806 E17.45576
G1 X188.305 Y104.455 E17.70251
G1 X188.326 Y107.096 E17.94847
G1 X188.422 Y109.738 E18.19468
G1 X188.596 Y112.408 E18.44386
G1 X188.839 Y115.011 E18.68732
G1 X189.161 Y117.658 E18.93565
G1 X189.554 Y120.262 E19.1809
G1 X190.021 Y122.864 E19.4271
G1 X190.71 Y126.129 E19.73786
G1 X190.825 Y126.759 E19.7975
G1 X190.934 Y127.756 E19.8909
G1 X190.934 Y129.116 E20.01755
G1 X190.924 Y129.802 E20.08145
G1 X190.821 Y130.949 E20.1887
G1 X190.608 Y131.91 E20.28036
G1 X190.258 Y132.966 E20.38397
G1 X189.734 Y134.087 E20.49921
G1 X189.243 Y134.857 E20.58425
G1 X188.566 Y135.717 E20.68618
G1 X187.938 Y136.364 E20.77015
G1 X187.522 Y136.716 E20.8209
G1 X186.995 Y137.124 E20.88297
G1 X186.406 Y137.529 E20.94954
G1 X185.659 Y137.919 E21.02802
G1 X184.999 Y138.21 E21.09519
G1 X184.329 Y138.462 E21.16185
G1 X183.644 Y138.635 E21.22765
G1 X182.999 Y138.761 E21.28885
G1 X182.18 Y138.874 E21.36585
G1 X180.894 Y138.895 E21.48563
G1 X144.053 Y138.899 E24.91657
G1 X143.205 Y138.887 E24.99555
G1 X142.31 Y138.818 E25.07915
G1 X141.479 Y138.699 E25.15733
G1 X139.072 Y138.19 E25.38644
G1 X136.515 Y137.72 E25.62856
G1 X133.874 Y137.311 E25.87745
G1 X131.242 Y136.978 E26.12452
G1 X128.613 Y136.723 E26.3705
G1 X125.981 Y136.542 E26.61619
G1 X123.298 Y136.432 E26.86626
G1 X120.844 Y136.4 E27.09482
G1 X86.595 Y136.401 E30.28438
G1 X83.932 Y136.439 E30.5324
G1 X81.294 Y136.551 E30.7783
G1 X78.656 Y136.738 E31.02458
G1 X75.985 Y137.003 E31.27455
G1 X73.398 Y137.334 E31.51744
G1 X70.755 Y137.749 E31.76659
G1 X68.167 Y138.23 E32.01174
G1 X66 Y138.691 E32.21806
G1 X65.076 Y138.833 E32.30512
G1 X64.312 Y138.898 E32.37653
G1 X34.786 Y138.898 E35.12624
G1 X34.085 Y138.888 E35.19153
G1 X33.073 Y138.793 E35.28619
G1 X32.47 Y138.676 E35.34339
G1 X31.958 Y138.554 E35.39241
G1 X30.822 Y138.193 E35.50342
G1 X29.678 Y137.62 E35.62257
G1 X29.087 Y137.26 E35.68702
G1 X23.839 Y133.953 E36.2647
G1 X23.241 Y133.564 E36.33113
G1 X22.522 Y133.021 E36.41504
G1 X21.904 Y132.466 E36.4924
G1 X21.296 Y131.815 E36.57535
G1 X20.929 Y131.331 E36.63192
G1 X20.529 Y130.747 E36.69784
G1 X20.158 Y130.135 E36.76449
G1 X19.807 Y129.381 E36.84195
G1 X19.513 Y128.602 E36.91949
G1 X19.28 Y127.639 E37.01176
G1 X19.151 Y126.936 E37.07832
G1 X19.101 Y126.247 E37.14265
G1 X19.096 Y125.296 E37.23122
G1 X19.202 Y124.244 E37.32969
G1 X19.316 Y123.633 E37.38757
G1 X19.551 Y122.485 E37.4967
G1 X20.006 Y119.887 E37.74233
G1 X20.387 Y117.288 E37.98696
G1 X20.697 Y114.658 E38.23358
G1 X20.935 Y111.993 E38.48276
G1 X21.092 Y109.393 E38.72533
G1 X21.179 Y106.712 E38.97514
G1 X21.19 Y104.071 E39.22109
G1 X21.125 Y101.425 E39.46758
G1 X20.987 Y98.793 E39.71304
G1 X20.772 Y96.149 E39.96008
G1 X20.484 Y93.517 E40.20666
G1 X20.121 Y90.885 E40.45409
G1 X19.686 Y88.288 E40.69931
G1 X19.475 Y87.211 E40.80152
G1 X19.457 Y87.078 E40.81402
G1 X19.216 Y85.832 E40.93221
G1 X19.103 Y84.997 E41.01068
G1 X19.094 Y83.981 E41.1053
G1 X19.128 Y83.267 E41.17187
G1 X19.254 Y82.504 E41.24389
G1 X19.411 Y81.815 E41.3097
G1 X19.609 Y81.128 E41.37628
G1 X19.865 Y80.483 E41.44091
G1 X20.226 Y79.732 E41.51851
G1 X20.765 Y78.895 E41.61122
G1 X21.185 Y78.316 E41.67784
G1 X21.691 Y77.765 E41.7475
G1 X22.248 Y77.225 E41.81975
G1 X22.882 Y76.676 E41.89786
G1 X23.566 Y76.219 E41.97446
G1 X29.091 Y72.737 E42.58266
G1 X29.703 Y72.366 E42.64931
G1 X30.789 Y71.819 E42.76255
M204 S3000
M205 X10 Y10
G0 F600 X31 Y72.339
M204 S1800
M205 X8 Y8
G1 F2400 X32.02 Y72.007 E42.86245
G1 X32.906 Y71.803 E42.94712
G1 X33.714 Y71.676 E43.02329
G1 X34.785 Y71.66 E43.12304
G1 X63.615 Y71.662 E45.80793
G1 X64.325 Y71.673 E45.87406
G1 X64.981 Y71.72 E45.93531
G1 X65.813 Y71.843 E46.01363
G1 X66.819 Y72.05 E46.10928
G1 X67.632 Y72.229 E46.18681
G1 X70.262 Y72.731 E46.43616
G1 X72.889 Y73.156 E46.68399
G1 X75.493 Y73.502 E46.92863
G1 X78.192 Y73.783 E47.18134
G1 X80.799 Y73.981 E47.42482
G1 X83.497 Y74.108 E47.67636
G1 X86.639 Y74.16 E47.96901
G1 X120.853 Y74.159 E51.15531
G1 X123.503 Y74.122 E51.40212
G1 X126.211 Y74.007 E51.65454
G1 X128.842 Y73.82 E51.90018
G1 X131.477 Y73.558 E52.14678
G1 X134.13 Y73.218 E52.39587
G1 X136.771 Y72.804 E52.64483
G1 X139.384 Y72.319 E52.89233
G1 X141.571 Y71.854 E53.10055
G1 X142.194 Y71.757 E53.15927
G1 X143.125 Y71.682 E53.24625
G1 X144.33 Y71.66 E53.35849
G1 X181.088 Y71.666 E56.7817
G1 X181.762 Y71.675 E56.84448
G1 X182.608 Y71.748 E56.92356
G1 X183.392 Y71.876 E56.99754
G1 X184.132 Y72.065 E57.06866
G1 X184.617 Y72.243 E57.11678
G1 X185.263 Y72.513 E57.18198
G1 X185.877 Y72.813 E57.24562
G1 X186.468 Y73.194 E57.31111
G1 X187.029 Y73.606 E57.37593
G1 X187.555 Y74.042 E57.43955
G1 X188.021 Y74.53 E57.50239
G1 X188.47 Y75.058 E57.56694
G1 X189.142 Y75.999 E57.67463
G1 X189.646 Y77.04 E57.78234
G1 X189.954 Y77.872 E57.86496
G1 X190.238 Y78.936 E57.96752
G1 X190.36 Y80.135 E58.07975
G1 X190.376 Y81.186 E58.17764
G1 X190.365 Y82.177 E58.26994
G1 X190.295 Y83.013 E58.34807
G1 X190.207 Y83.531 E58.397
G1 X189.935 Y84.845 E58.52196
G1 X189.69 Y85.95 E58.62737
G1 X189.194 Y88.535 E58.8725
G1 X188.762 Y91.188 E59.12282
G1 X188.41 Y93.811 E59.36929
G1 X188.131 Y96.463 E59.61763
G1 X187.925 Y99.139 E59.86758
G1 X187.799 Y101.768 E60.11269
G1 X187.745 Y104.448 E60.36233
G1 X187.766 Y107.121 E60.61127
G1 X187.863 Y109.759 E60.8571
G1 X188.036 Y112.427 E61.10609
G1 X188.285 Y115.097 E61.35582
G1 X188.602 Y117.701 E61.60012
G1 X189.006 Y120.376 E61.85206
G1 X189.474 Y122.982 E62.09864
G1 X190.162 Y126.245 E62.4092
G1 X190.274 Y126.857 E62.46714
G1 X190.374 Y127.781 E62.55369
G1 X190.374 Y129.108 E62.67727
G1 X190.364 Y129.794 E62.74117
G1 X190.265 Y130.907 E62.84523
G1 X189.969 Y132.076 E62.95753
G1 X189.674 Y132.897 E63.03878
G1 X189.23 Y133.846 E63.13635
G1 X188.584 Y134.798 E63.24349
G1 X188.013 Y135.484 E63.32661
G1 X187.442 Y136.069 E63.40274
G1 X186.652 Y136.681 E63.49581
G1 X186.088 Y137.067 E63.55946
G1 X185.433 Y137.407 E63.62818
G1 X184.773 Y137.698 E63.69536
G1 X184.133 Y137.936 E63.75895
G1 X183.537 Y138.086 E63.81618
G1 X182.892 Y138.212 E63.87739
G1 X182.127 Y138.315 E63.94927
G1 X180.894 Y138.335 E64.06412
G1 X144.053 Y138.339 E67.49506
G1 X143.224 Y138.327 E67.57227
G1 X142.353 Y138.26 E67.65362
G1 X141.595 Y138.151 E67.72494
G1 X139.216 Y137.648 E67.95139
G1 X136.564 Y137.16 E68.20251
G1 X133.956 Y136.756 E68.44829
G1 X131.331 Y136.425 E68.69469
G1 X128.636 Y136.163 E68.94685
G1 X126.005 Y135.982 E69.19245
G1 X123.329 Y135.873 E69.44187
G1 X120.852 Y135.84 E69.67257
G1 X86.587 Y135.841 E72.86361
G1 X83.937 Y135.878 E73.11043
G1 X81.229 Y135.993 E73.36285
G1 X78.598 Y136.18 E73.60849
G1 X75.963 Y136.442 E73.85509
G1 X73.31 Y136.782 E74.10418
G1 X70.669 Y137.196 E74.35314
G1 X68.028 Y137.687 E74.6033
G1 X65.883 Y138.143 E74.80753
G1 X65.002 Y138.278 E74.89053
G1 X64.291 Y138.338 E74.95698
G1 X34.794 Y138.338 E77.70399
G1 X34.093 Y138.328 E77.76928
G1 X33.17 Y138.242 E77.85561
G1 X32.599 Y138.131 E77.90978
G1 X32.087 Y138.009 E77.9588
G1 X31.032 Y137.674 E78.06188
G1 X29.969 Y137.142 E78.17258
G1 X29.302 Y136.735 E78.24535
G1 X24.215 Y133.529 E78.80533
G1 X23.547 Y133.094 E78.87957
G1 X22.891 Y132.599 E78.9561
G1 X22.171 Y131.933 E79.04744
G1 X21.706 Y131.433 E79.11103
G1 X21.391 Y131.014 E79.15985
G1 X20.991 Y130.43 E79.22577
G1 X20.638 Y129.845 E79.2894
G1 X20.319 Y129.155 E79.36019
G1 X20.047 Y128.427 E79.43257
G1 X19.824 Y127.507 E79.52072
G1 X19.703 Y126.835 E79.58431
G1 X19.661 Y126.237 E79.64014
G1 X19.656 Y125.306 E79.72684
G1 X19.753 Y124.346 E79.8167
G1 X19.865 Y123.746 E79.87355
G1 X20.101 Y122.597 E79.98278
G1 X20.558 Y119.985 E80.22973
G1 X20.941 Y117.371 E80.47577
G1 X21.256 Y114.7 E80.72624
G1 X21.493 Y112.042 E80.97475
G1 X21.652 Y109.41 E81.22031
G1 X21.739 Y106.732 E81.46984
G1 X21.75 Y104.06 E81.71869
G1 X21.685 Y101.419 E81.96471
G1 X21.546 Y98.754 E82.21324
G1 X21.328 Y96.078 E82.46327
G1 X21.041 Y93.453 E82.70919
G1 X20.676 Y90.814 E82.9573
G1 X20.232 Y88.162 E83.20771
G1 X20.025 Y87.103 E83.3082
G1 X20.009 Y86.982 E83.31957
G1 X19.766 Y85.726 E83.43871
G1 X19.662 Y84.947 E83.5119
G1 X19.654 Y83.977 E83.60223
G1 X19.688 Y83.294 E83.66592
G1 X19.8 Y82.629 E83.72872
G1 X19.957 Y81.94 E83.79453
G1 X20.297 Y80.873 E83.89882
G1 X20.72 Y79.999 E83.98925
G1 X21.236 Y79.198 E84.07798
G1 X21.639 Y78.646 E84.14163
G1 X22.081 Y78.167 E84.20233
G1 X22.638 Y77.627 E84.27458
G1 X23.498 Y76.928 E84.37779
G1 X29.382 Y73.216 E85.02569
G1 X29.994 Y72.845 E85.09233
G1 X31 Y72.339 E85.19721
M204 S3000
M205 X10 Y10
G0 F600 X31.211 Y72.858
M204 S1800
M205 X8 Y8
G1 F2400 X32.154 Y72.551 E85.28956
G1 X33.025 Y72.35 E85.37281
G1 X33.776 Y72.235 E85.44356
G1 X34.785 Y72.22 E85.53754
G1 X63.607 Y72.222 E88.22169
G1 X64.317 Y72.233 E88.28782
G1 X64.909 Y72.275 E88.34309
G1 X65.7 Y72.392 E88.41755
G1 X66.698 Y72.597 E88.51243
G1 X67.542 Y72.783 E88.59292
G1 X70.136 Y73.278 E88.83885
G1 X72.796 Y73.709 E89.08981
G1 X75.435 Y74.059 E89.33772
G1 X78.127 Y74.339 E89.58978
G1 X80.8 Y74.542 E89.83943
G1 X83.462 Y74.667 E90.08761
G1 X86.63 Y74.72 E90.38268
G1 X120.861 Y74.719 E93.57056
G1 X123.535 Y74.681 E93.81961
G1 X126.202 Y74.568 E94.06821
G1 X128.905 Y74.376 E94.32057
G1 X131.565 Y74.112 E94.5695
G1 X134.214 Y73.773 E94.81821
G1 X136.856 Y73.359 E95.06726
G1 X139.493 Y72.868 E95.31706
G1 X141.688 Y72.402 E95.52603
G1 X142.25 Y72.314 E95.57901
G1 X143.135 Y72.242 E95.6617
G1 X144.33 Y72.22 E95.77301
G1 X181.08 Y72.225 E99.19548
G1 X181.754 Y72.234 E99.25825
G1 X182.519 Y72.3 E99.32976
G1 X183.364 Y72.446 E99.40962
G1 X184.115 Y72.639 E99.48183
G1 X185.047 Y73.029 E99.57592
G1 X185.63 Y73.316 E99.63643
G1 X186.136 Y73.645 E99.69264
G1 X186.697 Y74.057 E99.75746
G1 X187.196 Y74.473 E99.81796
G1 X187.594 Y74.893 E99.87185
G1 X188.043 Y75.421 E99.9364
G1 X188.66 Y76.285 E100.03527
G1 X189.123 Y77.241 E100.13419
G1 X189.424 Y78.056 E100.2151
G1 X189.686 Y79.04 E100.30993
G1 X189.8 Y80.145 E100.41339
G1 X189.816 Y81.18 E100.50979
G1 X189.805 Y82.171 E100.60208
G1 X189.729 Y83.078 E100.68685
G1 X189.404 Y84.652 E100.83652
G1 X189.144 Y85.827 E100.9486
G1 X188.641 Y88.45 E101.19732
G1 X188.21 Y91.093 E101.44671
G1 X187.854 Y93.748 E101.69618
G1 X187.571 Y96.435 E101.9478
G1 X187.368 Y99.069 E102.19383
G1 X187.238 Y101.766 E102.44529
G1 X187.185 Y104.441 E102.69445
G1 X187.207 Y107.147 E102.94647
G1 X187.303 Y109.779 E103.19174
G1 X187.478 Y112.48 E103.44381
G1 X187.726 Y115.143 E103.69289
G1 X188.049 Y117.787 E103.94095
G1 X188.45 Y120.449 E104.19165
G1 X188.925 Y123.093 E104.44183
G1 X189.708 Y126.817 E104.79622
G1 X189.814 Y127.793 E104.88765
G1 X189.814 Y129.1 E105.00937
G1 X189.804 Y129.786 E105.07326
G1 X189.712 Y130.816 E105.16956
G1 X189.44 Y131.893 E105.27301
G1 X189.15 Y132.698 E105.3527
G1 X188.743 Y133.571 E105.4424
G1 X188.149 Y134.446 E105.54089
G1 X187.648 Y135.059 E105.61462
G1 X187.058 Y135.658 E105.69292
G1 X186.309 Y136.238 E105.78114
G1 X185.772 Y136.603 E105.84161
G1 X185.207 Y136.894 E105.90079
G1 X184.547 Y137.185 E105.96797
G1 X183.938 Y137.41 E106.02843
G1 X183.429 Y137.536 E106.07726
G1 X182.784 Y137.662 E106.13847
G1 X181.862 Y137.759 E106.2248
G1 X180.894 Y137.775 E106.31496
G1 X144.053 Y137.779 E109.74591
G1 X143.258 Y137.768 E109.81995
G1 X142.396 Y137.701 E109.90047
G1 X141.711 Y137.603 E109.96491
G1 X139.323 Y137.098 E110.19222
G1 X136.676 Y136.611 E110.44287
G1 X134.008 Y136.198 E110.6943
G1 X131.382 Y135.867 E110.94079
G1 X128.73 Y135.608 E111.18894
G1 X126.033 Y135.423 E111.44069
G1 X123.358 Y135.314 E111.69002
G1 X120.783 Y135.28 E111.92985
G1 X86.579 Y135.281 E115.11521
G1 X83.905 Y135.319 E115.36426
G1 X81.238 Y135.432 E115.61286
G1 X78.535 Y135.624 E115.86522
G1 X75.875 Y135.888 E116.11416
G1 X73.226 Y136.227 E116.36286
G1 X70.584 Y136.641 E116.61191
G1 X67.926 Y137.136 E116.8637
G1 X65.767 Y137.595 E117.06926
G1 X64.928 Y137.723 E117.1483
G1 X64.268 Y137.778 E117.20998
G1 X34.802 Y137.778 E119.9541
G1 X34.101 Y137.768 E120.01939
G1 X33.266 Y137.69 E120.09749
G1 X32.729 Y137.586 E120.14843
G1 X32.217 Y137.464 E120.19744
G1 X31.239 Y137.154 E120.29299
G1 X30.26 Y136.663 E120.39499
G1 X29.601 Y136.261 E120.46688
G1 X24.45 Y133.014 E121.03393
G1 X23.852 Y132.625 E121.10037
G1 X23.259 Y132.177 E121.16958
G1 X22.558 Y131.529 E121.25849
G1 X22.027 Y130.952 E121.33151
G1 X21.453 Y130.114 E121.42611
G1 X20.891 Y129.106 E121.53358
G1 X20.53 Y128.039 E121.63849
G1 X20.369 Y127.375 E121.70211
G1 X20.255 Y126.736 E121.76256
G1 X20.221 Y126.227 E121.81007
G1 X20.216 Y125.316 E121.89491
G1 X20.312 Y124.358 E121.98458
G1 X20.645 Y122.73 E122.13933
G1 X21.113 Y120.059 E122.39186
G1 X21.496 Y117.443 E122.63808
G1 X21.814 Y114.749 E122.89071
G1 X22.051 Y112.088 E123.13951
G1 X22.212 Y109.427 E123.38778
G1 X22.299 Y106.752 E123.63703
G1 X22.31 Y104.049 E123.88876
G1 X22.245 Y101.41 E124.1346
G1 X22.104 Y98.713 E124.38611
G1 X21.887 Y96.044 E124.63549
G1 X21.592 Y93.35 E124.88787
G1 X21.234 Y90.754 E125.13192
G1 X20.785 Y88.072 E125.38517
G1 X20.574 Y86.996 E125.48728
G1 X20.557 Y86.87 E125.49912
G1 X20.316 Y85.62 E125.61768
G1 X20.22 Y84.665 E125.70706
G1 X20.214 Y83.972 E125.77161
G1 X20.249 Y83.323 E125.83213
G1 X20.346 Y82.753 E125.88598
G1 X20.503 Y82.064 E125.95179
G1 X20.825 Y81.053 E126.0506
G1 X21.338 Y80.074 E126.15353
G1 X21.707 Y79.501 E126.217
G1 X22.091 Y78.978 E126.27743
G1 X22.471 Y78.569 E126.32942
G1 X23.028 Y78.029 E126.40167
G1 X23.741 Y77.449 E126.48726
G1 X24.163 Y77.166 E126.53458
G1 X29.593 Y73.743 E127.13236
G1 X30.284 Y73.324 E127.20762
G1 X31.211 Y72.858 E127.30424
M204 S3000
M205 X10 Y10
G1 F1200 E117.30424
