;FLAVOR:Marlin
;TIME:21853
;Filament used: 6.85375m
;Layer height: 0.2
;MINX:47.745
;MINY:44.725
;MINZ:0.2
;MAXX:113.991
;MAXY:144.58
;MAXZ:17.8
;Generated with Cura_SteamEngine 5.2.1
M140 S60
M105
M190 S60
M104 S200
M105
M109 S200
M82 ;absolute extrusion mode
G21 ;metric values
G90 ;absolute positioning
M82 ;set extruder to absolute mode
M107 ;start with the fan off
G28 X0 Y0 ;move X/Y to min endstops
G28 Z0 ;move Z to min endstops
G1 Z15.0 F15.0 ;move the platform down 15mm
G92 E0 ;zero the extruded length
G1 F200 E3 ;extrude 3mm of feed stock
G92 E0 ;zero the extruded length again
G1 F15.0
G0 Y20 F15.0
M117 Printing...
G5
G92 E0
G92 E0
G1 F1200 E-6
;LAYER_COUNT:89
;LAYER:0
M107
M204 S3000
M205 X10 Y10
G1 F600 Z0.275
G0 F450 X75.515 Y51.346 Z0.275
M204 S1800
M205 X8 Y8
;TYPE:SKIRT
G1 F600 Z0.2
G1 F1200 E0
G1 F2400 X75.969 Y50.793 E0.03332
G1 X76.481 Y50.294 E0.06661
G1 X77.046 Y49.855 E0.09992
G1 X77.656 Y49.482 E0.13322
G1 X78.477 Y49.104 E0.1753
G1 X89.06 Y45.319 E0.69866
G1 X89.745 Y45.084 E0.73238
G1 X90.434 Y44.89 E0.76571
G1 X91.139 Y44.774 E0.79898
G1 X91.719 Y44.739 E0.82604
G1 X92.626 Y44.725 E0.86828
G1 X101.918 Y44.725 E1.30095
G1 X102.712 Y44.736 E1.33793
G1 X103.426 Y44.786 E1.37126
G1 X104.129 Y44.915 E1.40454
G1 X104.814 Y45.122 E1.43786
G1 X105.659 Y45.502 E1.481
G1 X106.248 Y45.82 E1.51217
G1 X108.654 Y47.076 E1.63855
G1 X110.399 Y47.933 E1.72907
G1 X111.022 Y48.284 E1.76237
G1 X111.602 Y48.702 E1.79566
G1 X112.132 Y49.183 E1.82899
G1 X112.605 Y49.719 E1.86227
G1 X113.016 Y50.305 E1.8956
G1 X113.358 Y50.933 E1.9289
G1 X113.628 Y51.595 E1.96219
G1 X113.822 Y52.284 E1.99552
G1 X113.939 Y52.989 E2.0288
G1 X113.975 Y53.564 E2.05563
G1 X113.991 Y54.529 E2.10057
G1 X113.99 Y56.027 E2.17032
G1 X113.979 Y56.768 E2.20483
G1 X113.929 Y57.481 E2.23811
G1 X113.799 Y58.185 E2.27144
G1 X113.616 Y58.8 E2.30132
G1 X112.751 Y61.256 E2.42257
G1 X111.922 Y63.834 E2.54867
G1 X111.197 Y66.326 E2.66951
G1 X110.527 Y68.902 E2.79345
G1 X109.924 Y71.52 E2.91855
G1 X109.411 Y74.077 E3.03999
G1 X108.964 Y76.69 E3.16343
G1 X108.589 Y79.317 E3.28699
G1 X108.292 Y81.935 E3.40968
G1 X108.067 Y84.574 E3.53301
G1 X107.916 Y87.248 E3.65772
G1 X107.842 Y89.853 E3.77907
G1 X107.842 Y92.533 E3.90386
G1 X107.915 Y95.128 E4.02474
G1 X108.068 Y97.818 E4.1502
G1 X108.29 Y100.446 E4.27301
G1 X108.588 Y103.067 E4.39584
G1 X108.962 Y105.69 E4.51921
G1 X109.412 Y108.312 E4.64309
G1 X109.928 Y110.888 E4.76542
G1 X110.517 Y113.454 E4.88801
G1 X111.197 Y116.067 E5.01374
G1 X111.926 Y118.573 E5.13526
G1 X112.739 Y121.103 E5.259
G1 X113.163 Y122.292 E5.31778
G1 X113.622 Y123.618 E5.38312
G1 X113.818 Y124.306 E5.41643
G1 X113.936 Y125.012 E5.44976
G1 X113.973 Y125.598 E5.47711
G1 X113.991 Y126.665 E5.5268
G1 X113.99 Y135.098 E5.91947
G1 X113.98 Y135.824 E5.95328
G1 X113.931 Y136.538 E5.98661
G1 X113.801 Y137.241 E6.0199
G1 X113.595 Y137.926 E6.0532
G1 X113.313 Y138.583 E6.08649
G1 X112.959 Y139.205 E6.11982
G1 X112.539 Y139.784 E6.15313
G1 X112.056 Y140.311 E6.18641
G1 X111.517 Y140.782 E6.21974
G1 X110.93 Y141.19 E6.25303
G1 X110.3 Y141.53 E6.28637
G1 X109.637 Y141.797 E6.31965
G1 X108.819 Y142.024 E6.35918
G1 X107.835 Y142.166 E6.40547
G1 X106.235 Y142.373 E6.48059
G1 X103.6 Y142.789 E6.60481
G1 X102.75 Y142.936 E6.64498
G1 X99.162 Y143.622 E6.81508
G1 X98.536 Y143.71 E6.84451
G1 X97.625 Y143.792 E6.8871
G1 X87.475 Y144.542 E7.36102
G1 X86.856 Y144.579 E7.38989
G1 X86.114 Y144.58 E7.42444
G1 X85.132 Y144.524 E7.47024
G1 X75.16 Y143.786 E7.93585
G1 X74.345 Y143.714 E7.97395
G1 X73.637 Y143.611 E8.00726
G1 X72.982 Y143.441 E8.03877
G1 X71.229 Y142.887 E8.12438
G1 X70.236 Y142.582 E8.17275
G1 X69.565 Y142.334 E8.20606
G1 X68.926 Y142.013 E8.23936
G1 X68.082 Y141.445 E8.28673
G1 X50.473 Y126.671 E9.35705
G1 X49.954 Y126.222 E9.389
G1 X49.44 Y125.725 E9.42229
G1 X48.985 Y125.173 E9.4556
G1 X48.594 Y124.574 E9.48891
G1 X48.272 Y123.935 E9.52223
G1 X48.024 Y123.264 E9.55554
G1 X47.852 Y122.57 E9.58883
G1 X47.759 Y121.861 E9.62213
G1 X47.745 Y121.146 E9.65543
G1 X47.812 Y120.433 E9.68878
G1 X47.957 Y119.733 E9.72206
G1 X48.18 Y119.053 E9.75539
G1 X48.477 Y118.403 E9.78866
G1 X48.845 Y117.789 E9.822
G1 X49.154 Y117.37 E9.84624
G1 X49.796 Y116.572 E9.89393
G1 X50.567 Y115.653 E9.94979
G1 X51.385 Y114.705 E10.00809
G1 X53.115 Y112.642 E10.13346
G1 X54.758 Y110.567 E10.2567
G1 X56.336 Y108.454 E10.3795
G1 X57.873 Y106.269 E10.50389
G1 X59.329 Y104.072 E10.62662
G1 X60.72 Y101.836 E10.74924
G1 X62.069 Y99.523 E10.87392
G1 X63.331 Y97.213 E10.99649
G1 X64.53 Y94.86 E11.11946
G1 X65.666 Y92.47 E11.24268
G1 X66.738 Y90.035 E11.36657
G1 X67.734 Y87.592 E11.48941
G1 X68.668 Y85.1 E11.61334
G1 X69.514 Y82.632 E11.73482
G1 X70.319 Y80.048 E11.86085
G1 X71.019 Y77.555 E11.98142
G1 X71.673 Y74.942 E12.10684
G1 X72.242 Y72.363 E12.22982
G1 X72.733 Y69.791 E12.35175
G1 X73.161 Y67.151 E12.47628
G1 X73.509 Y64.53 E12.5994
G1 X73.782 Y61.919 E12.72164
G1 X73.933 Y60.031 E12.80983
G1 X74.096 Y57.731 E12.9172
G1 X74.162 Y56.948 E12.95379
G1 X74.263 Y55.178 E13.03634
G1 X74.3 Y54.662 E13.06043
G1 X74.391 Y53.953 E13.09372
G1 X74.561 Y53.258 E13.12703
G1 X74.807 Y52.586 E13.16035
G1 X75.126 Y51.946 E13.19365
G1 X75.515 Y51.346 E13.22695
M204 S3000
M205 X10 Y10
G0 F450 X76.059 Y51.554
M204 S1800
M205 X8 Y8
G1 F2400 X76.507 Y51.038 E13.25877
G1 X77.013 Y50.578 E13.29061
G1 X77.568 Y50.181 E13.32238
G1 X78.166 Y49.85 E13.35421
G1 X79.005 Y49.51 E13.39636
G1 X89.242 Y45.849 E13.90261
G1 X89.927 Y45.614 E13.93633
G1 X90.585 Y45.431 E13.96813
G1 X91.392 Y45.304 E14.00617
G1 X92.626 Y45.285 E14.06364
G1 X102.001 Y45.286 E14.50018
G1 X102.704 Y45.296 E14.53291
G1 X103.385 Y45.345 E14.56471
G1 X104.056 Y45.474 E14.59652
G1 X104.708 Y45.681 E14.62838
G1 X105.393 Y45.995 E14.66346
G1 X106.002 Y46.324 E14.6957
G1 X108.399 Y47.574 E14.82157
G1 X110.152 Y48.436 E14.91254
G1 X110.746 Y48.772 E14.94431
G1 X111.297 Y49.176 E14.97613
G1 X111.798 Y49.642 E15.00799
G1 X112.24 Y50.162 E15.03977
G1 X112.619 Y50.731 E15.0716
G1 X112.928 Y51.34 E15.1034
G1 X113.164 Y51.981 E15.13521
G1 X113.324 Y52.646 E15.16706
G1 X113.415 Y53.574 E15.21047
G1 X113.431 Y54.529 E15.25495
G1 X113.43 Y56.019 E15.32433
G1 X113.419 Y56.76 E15.35884
G1 X113.369 Y57.441 E15.39063
G1 X113.24 Y58.112 E15.42245
G1 X113.088 Y58.614 E15.44687
G1 X112.205 Y61.119 E15.57055
G1 X111.405 Y63.608 E15.69229
G1 X110.649 Y66.206 E15.81828
G1 X109.98 Y68.779 E15.94207
G1 X109.38 Y71.387 E16.06669
G1 X108.861 Y73.976 E16.18964
G1 X108.412 Y76.591 E16.31319
G1 X108.034 Y79.245 E16.43801
G1 X107.733 Y81.894 E16.56216
G1 X107.509 Y84.532 E16.68544
G1 X107.358 Y87.2 E16.80987
G1 X107.282 Y89.872 E16.93434
G1 X107.282 Y92.514 E17.05736
G1 X107.357 Y95.175 E17.18132
G1 X107.509 Y97.862 E17.30663
G1 X107.732 Y100.484 E17.42917
G1 X108.033 Y103.139 E17.55359
G1 X108.411 Y105.795 E17.67851
G1 X108.86 Y108.408 E17.80196
G1 X109.383 Y111.021 E17.92605
G1 X109.97 Y113.577 E18.04816
G1 X110.649 Y116.187 E18.17374
G1 X111.397 Y118.756 E18.29833
G1 X112.206 Y121.276 E18.42157
G1 X112.634 Y122.476 E18.4809
G1 X113.093 Y123.802 E18.54624
G1 X113.278 Y124.459 E18.57802
G1 X113.407 Y125.275 E18.61649
G1 X113.431 Y126.665 E18.68122
G1 X113.43 Y135.09 E19.07352
G1 X113.42 Y135.816 E19.10733
G1 X113.371 Y136.498 E19.13917
G1 X113.242 Y137.169 E19.17099
G1 X113.036 Y137.82 E19.20278
G1 X112.756 Y138.443 E19.23459
G1 X112.404 Y139.029 E19.26642
G1 X111.986 Y139.57 E19.29825
G1 X111.509 Y140.058 E19.33003
G1 X110.977 Y140.487 E19.36185
G1 X110.399 Y140.851 E19.39366
G1 X109.782 Y141.145 E19.42548
G1 X109.135 Y141.365 E19.4573
G1 X108.425 Y141.515 E19.49109
G1 X107.763 Y141.611 E19.52224
G1 X106.15 Y141.82 E19.59798
G1 X103.502 Y142.238 E19.72281
G1 X102.65 Y142.384 E19.76306
G1 X99.056 Y143.072 E19.93345
G1 X98.486 Y143.152 E19.96025
G1 X97.584 Y143.233 E20.00242
G1 X87.441 Y143.983 E20.47601
G1 X86.822 Y144.02 E20.50489
G1 X86.146 Y144.021 E20.53636
G1 X85.276 Y143.972 E20.57694
G1 X75.116 Y143.22 E21.05132
G1 X74.395 Y143.156 E21.08503
G1 X73.719 Y143.056 E21.11685
G1 X73.151 Y142.907 E21.14419
G1 X71.393 Y142.352 E21.23003
G1 X70.4 Y142.047 E21.2784
G1 X69.76 Y141.808 E21.31022
G1 X69.152 Y141.497 E21.34202
G1 X68.427 Y141.002 E21.38289
G1 X50.839 Y126.248 E22.45186
G1 X50.32 Y125.799 E22.48382
G1 X49.83 Y125.322 E22.51566
G1 X49.4 Y124.792 E22.54744
G1 X49.034 Y124.215 E22.57926
G1 X48.738 Y123.599 E22.61108
G1 X48.516 Y122.953 E22.64289
G1 X48.371 Y122.285 E22.67471
G1 X48.305 Y121.605 E22.70653
G1 X48.319 Y120.922 E22.73834
G1 X48.413 Y120.245 E22.77016
G1 X48.585 Y119.584 E22.80197
G1 X48.833 Y118.947 E22.8338
G1 X49.153 Y118.344 E22.86558
G1 X49.591 Y117.721 E22.90105
G1 X50.233 Y116.923 E22.94874
G1 X50.991 Y116.019 E23.00367
G1 X51.808 Y115.072 E23.06191
G1 X53.539 Y113.009 E23.18731
G1 X55.216 Y110.89 E23.31314
G1 X56.783 Y108.792 E23.43507
G1 X58.338 Y106.581 E23.56094
G1 X59.794 Y104.383 E23.6837
G1 X61.208 Y102.11 E23.80835
G1 X62.542 Y99.822 E23.93168
G1 X63.835 Y97.458 E24.05714
G1 X65.041 Y95.09 E24.18088
G1 X66.177 Y92.7 E24.30411
G1 X67.241 Y90.283 E24.42707
G1 X68.265 Y87.774 E24.55326
G1 X69.191 Y85.301 E24.67622
G1 X70.051 Y82.792 E24.79972
G1 X70.849 Y80.231 E24.92463
G1 X71.561 Y77.698 E25.04715
G1 X72.222 Y75.054 E25.17405
G1 X72.79 Y72.479 E25.29684
G1 X73.286 Y69.883 E25.4199
G1 X73.713 Y67.245 E25.54434
G1 X74.066 Y64.593 E25.66892
G1 X74.344 Y61.928 E25.79368
G1 X74.487 Y60.129 E25.87772
G1 X74.647 Y57.86 E25.98363
G1 X74.721 Y56.992 E26.0242
G1 X74.822 Y55.218 E26.10693
G1 X74.859 Y54.702 E26.13102
G1 X74.948 Y54.025 E26.16282
G1 X75.115 Y53.362 E26.19466
G1 X75.358 Y52.724 E26.22645
G1 X75.674 Y52.118 E26.25827
G1 X76.059 Y51.554 E26.29007
M204 S3000
M205 X10 Y10
G0 F450 X76.602 Y51.771
M204 S1800
M205 X8 Y8
G1 F2400 X77.044 Y51.295 E26.32031
G1 X77.542 Y50.877 E26.35059
G1 X78.087 Y50.523 E26.38085
G1 X78.869 Y50.153 E26.42113
G1 X89.359 Y46.401 E26.9399
G1 X90.109 Y46.144 E26.97681
G1 X90.735 Y45.971 E27.00705
G1 X91.473 Y45.863 E27.04178
G1 X92.626 Y45.845 E27.09548
G1 X101.918 Y45.845 E27.52815
G1 X102.696 Y45.856 E27.56438
G1 X103.344 Y45.905 E27.59464
G1 X103.981 Y46.033 E27.6249
G1 X104.597 Y46.239 E27.65514
G1 X105.127 Y46.488 E27.68241
G1 X105.7 Y46.797 E27.71272
G1 X108.143 Y48.072 E27.84104
G1 X109.905 Y48.938 E27.93246
G1 X110.469 Y49.26 E27.9627
G1 X110.99 Y49.649 E27.99298
G1 X111.458 Y50.099 E28.02321
G1 X111.868 Y50.602 E28.05343
G1 X112.214 Y51.153 E28.08372
G1 X112.488 Y51.741 E28.11393
G1 X112.689 Y52.359 E28.14419
G1 X112.812 Y52.997 E28.17444
G1 X112.855 Y53.584 E28.20185
G1 X112.871 Y54.529 E28.24586
G1 X112.87 Y56.01 E28.31482
G1 X112.859 Y56.751 E28.34933
G1 X112.81 Y57.399 E28.37959
G1 X112.658 Y58.15 E28.41527
G1 X111.675 Y60.939 E28.55297
G1 X110.865 Y63.458 E28.67618
G1 X110.11 Y66.053 E28.80202
G1 X109.435 Y68.649 E28.92692
G1 X108.834 Y71.262 E29.05177
G1 X108.309 Y73.881 E29.17615
G1 X107.856 Y76.521 E29.30087
G1 X107.478 Y79.173 E29.42561
G1 X107.178 Y81.817 E29.54952
G1 X106.951 Y84.485 E29.6742
G1 X106.798 Y87.189 E29.80031
G1 X106.722 Y89.856 E29.92455
G1 X106.722 Y92.53 E30.04906
G1 X106.798 Y95.197 E30.1733
G1 X106.951 Y97.906 E30.29964
G1 X107.176 Y100.559 E30.42362
G1 X107.477 Y103.212 E30.54794
G1 X107.854 Y105.859 E30.67244
G1 X108.309 Y108.509 E30.79764
G1 X108.837 Y111.146 E30.92287
G1 X109.425 Y113.708 E31.04527
G1 X110.11 Y116.34 E31.17191
G1 X110.86 Y118.917 E31.29688
G1 X111.68 Y121.468 E31.42166
G1 X112.105 Y122.659 E31.48054
G1 X112.564 Y123.985 E31.54588
G1 X112.738 Y124.611 E31.57613
G1 X112.848 Y125.349 E31.61088
G1 X112.871 Y126.665 E31.67216
G1 X112.87 Y135.083 E32.06414
G1 X112.86 Y135.809 E32.09795
G1 X112.812 Y136.456 E32.12816
G1 X112.684 Y137.093 E32.15841
G1 X112.478 Y137.71 E32.1887
G1 X112.199 Y138.296 E32.21892
G1 X111.849 Y138.844 E32.2492
G1 X111.436 Y139.344 E32.2794
G1 X110.963 Y139.79 E32.30967
G1 X110.44 Y140.175 E32.33991
G1 X109.873 Y140.493 E32.37018
G1 X109.272 Y140.738 E32.4004
G1 X108.344 Y140.961 E32.44484
G1 X107.776 Y141.044 E32.47157
G1 X106.06 Y141.266 E32.55214
G1 X103.454 Y141.678 E32.675
G1 X102.559 Y141.832 E32.71729
G1 X98.951 Y142.522 E32.88833
G1 X98.435 Y142.594 E32.91259
G1 X97.542 Y142.675 E32.95435
G1 X87.408 Y143.424 E33.42751
G1 X86.789 Y143.461 E33.45639
G1 X86.177 Y143.462 E33.48489
G1 X85.214 Y143.407 E33.5298
G1 X75.242 Y142.669 E33.99541
G1 X74.444 Y142.598 E34.03271
G1 X73.652 Y142.478 E34.07001
G1 X71.516 Y141.803 E34.17432
G1 X70.565 Y141.511 E34.22065
G1 X69.957 Y141.283 E34.25088
G1 X69.381 Y140.981 E34.28117
G1 X68.771 Y140.56 E34.31568
G1 X51.205 Y125.824 E35.38332
G1 X50.686 Y125.375 E35.41528
G1 X50.222 Y124.921 E35.44551
G1 X49.817 Y124.413 E35.47576
G1 X49.478 Y123.859 E35.506
G1 X49.209 Y123.267 E35.53628
G1 X49.015 Y122.647 E35.56653
G1 X48.898 Y122.008 E35.59678
G1 X48.861 Y121.36 E35.627
G1 X48.904 Y120.712 E35.65724
G1 X49.026 Y120.074 E35.68749
G1 X49.225 Y119.455 E35.71776
G1 X49.499 Y118.866 E35.74801
G1 X50.027 Y118.072 E35.79241
G1 X50.669 Y117.274 E35.8401
G1 X51.415 Y116.384 E35.89418
G1 X52.231 Y115.438 E35.95235
G1 X53.991 Y113.34 E36.07987
G1 X55.66 Y111.232 E36.20506
G1 X57.229 Y109.131 E36.32716
G1 X58.797 Y106.902 E36.45406
G1 X60.281 Y104.661 E36.57922
G1 X61.682 Y102.41 E36.70268
G1 X63.04 Y100.08 E36.82826
G1 X64.317 Y97.744 E36.95222
G1 X65.531 Y95.363 E37.07667
G1 X66.688 Y92.929 E37.20216
G1 X67.771 Y90.468 E37.32736
G1 X68.78 Y87.992 E37.45186
G1 X69.714 Y85.502 E37.57569
G1 X70.592 Y82.942 E37.70171
G1 X71.384 Y80.395 E37.82591
G1 X72.109 Y77.818 E37.95057
G1 X72.763 Y75.201 E38.07617
G1 X73.336 Y72.602 E38.2001
G1 X73.839 Y69.974 E38.32469
G1 X74.266 Y67.334 E38.44922
G1 X74.624 Y64.644 E38.57558
G1 X74.9 Y62.001 E38.69932
G1 X75.046 Y60.169 E38.7849
G1 X75.212 Y57.825 E38.89432
G1 X75.279 Y57.033 E38.93133
G1 X75.375 Y55.338 E39.01038
G1 X75.418 Y54.742 E39.0382
G1 X75.504 Y54.098 E39.06846
G1 X75.668 Y53.47 E39.09868
G1 X75.909 Y52.867 E39.12892
G1 X76.222 Y52.297 E39.1592
G1 X76.602 Y51.771 E39.18941
M204 S3000
M205 X10 Y10
G1 F1200 E33.18941
G0 F450 X80.554 Y56.007
M204 S1800
M205 X8 Y8
;TYPE:SUPPORT
G1 F1200 E39.18941
G1 F450 X90.474 Y56.007 E39.65133
M204 S3000
M205 X10 Y10
G0 X90.474 Y58.674
M204 S1800
M205 X8 Y8
G1 X87.254 Y58.674 E39.80127
M204 S3000
M205 X10 Y10
G0 X88.011 Y58.941
M204 S1800
M205 X8 Y8
G1 X88.011 Y52.362 E40.10761
M204 S3000
M205 X10 Y10
G0 X90.474 Y53.34
M204 S1800
M205 X8 Y8
G1 X85.279 Y53.34 E40.34951
G1 X85.344 Y53.317
G1 X85.344 Y58.941 E40.61139
M204 S3000
M205 X10 Y10
G0 X85.611 Y58.674
M204 S1800
M205 X8 Y8
G1 X80.554 Y58.674 E40.84687
M204 S3000
M205 X10 Y10
G0 X80.276 Y61.341
M204 S1800
M205 X8 Y8
G1 X83.015 Y61.341 E40.97441
M204 S3000
M205 X10 Y10
G0 X85.344 Y63.687
M204 S1800
M205 X8 Y8
G1 X85.344 Y65.628 E41.06479
M204 S3000
M205 X10 Y10
G0 X85.072 Y66.675
M204 S1800
M205 X8 Y8
G1 X80.884 Y66.675 E41.2598
M204 S3000
M205 X10 Y10
G0 X80.884 Y69.342
M204 S1800
M205 X8 Y8
G1 X85.072 Y69.342 E41.45481
M204 S3000
M205 X10 Y10
G0 X85.072 Y72.009
M204 S1800
M205 X8 Y8
G1 X80.884 Y72.009 E41.64982
M204 S3000
M205 X10 Y10
G0 X80.884 Y74.676
M204 S1800
M205 X8 Y8
G1 X85.072 Y74.676 E41.84483
M204 S3000
M205 X10 Y10
G0 X85.072 Y77.343
M204 S1800
M205 X8 Y8
G1 X80.884 Y77.343 E42.03984
M204 S3000
M205 X10 Y10
G0 X82.677 Y78.989
M204 S1800
M205 X8 Y8
G1 X82.677 Y54.28 E43.1904
M204 S3000
M205 X10 Y10
G1 F1200 E37.1904
G0 F450 X90.678 Y59.501
M204 S1800
M205 X8 Y8
G1 F1200 E43.1904
G1 F450 X90.678 Y78.787 E44.08843
M204 S3000
M205 X10 Y10
G0 X89.993 Y80.01
M204 S1800
M205 X8 Y8
G1 X82.869 Y80.01 E44.42016
M204 S3000
M205 X10 Y10
G0 X82.677 Y81.66
M204 S1800
M205 X8 Y8
G1 X82.677 Y95.544 E45.06665
M204 S3000
M205 X10 Y10
G0 X82.869 Y96.012
M204 S1800
M205 X8 Y8
G1 X89.993 Y96.012 E45.39838
M204 S3000
M205 X10 Y10
G0 X90.678 Y95.342
M204 S1800
M205 X8 Y8
G1 X90.678 Y81.866 E46.02588
M204 S3000
M205 X10 Y10
G0 X91.981 Y82.677
M204 S1800
M205 X8 Y8
G1 X87.794 Y82.677 E46.22084
M204 S3000
M205 X10 Y10
G0 X85.344 Y82.184
M204 S1800
M205 X8 Y8
G1 X85.344 Y78.466 E46.39397
M204 S3000
M205 X10 Y10
G0 X87.794 Y77.343
M204 S1800
M205 X8 Y8
